;FLAVOR:RepRap
;TIME:5029
;Filament used: 4.42006m
;Layer height: 0.2
;Generated with Cura_SteamEngine 2.5.0-twosilly
M190 S50
M104 S210
M109 S210
G28 ;Home
G1 Z15.0 F6000 ;Move the platform down 15mm
;Prime the extruder
G92 E0
G1 F200 E10
G92 E0
;LAYER_COUNT:280
;LAYER:0
M107
G0 F2700 X119.667 Y77.692 Z0.3
;TYPE:SKIRT
G1 F1200 X120.826 Y75.953 E0.104
G1 X121.447 Y75.142 E0.15483
G1 X122.826 Y73.567 E0.25901
G1 X123.55 Y72.842 E0.31
G1 X125.125 Y71.461 E0.41425
G1 X125.929 Y70.844 E0.46468
G1 X127.668 Y69.681 E0.56879
G1 X128.547 Y69.173 E0.61932
G1 X130.421 Y68.247 E0.72334
G1 X131.365 Y67.856 E0.77419
G1 X133.346 Y67.183 E0.87831
G1 X134.327 Y66.919 E0.92887
G1 X136.377 Y66.51 E1.0329
G1 X137.387 Y66.377 E1.08359
G1 X139.479 Y66.239 E1.18793
G1 X140.489 Y66.238 E1.23819
G1 X142.58 Y66.372 E1.34247
G1 X143.586 Y66.503 E1.39295
G1 X145.626 Y66.905 E1.49643
G1 X146.619 Y67.17 E1.54757
G1 X148.593 Y67.839 E1.6513
G1 X149.528 Y68.225 E1.70164
G1 X151.414 Y69.152 E1.80622
G1 X152.294 Y69.658 E1.85674
G1 X154.035 Y70.817 E1.96082
G1 X154.847 Y71.438 E2.0117
G1 X156.422 Y72.816 E2.11584
G1 X157.143 Y73.536 E2.16655
G1 X158.526 Y75.11 E2.27082
G1 X159.147 Y75.918 E2.32154
G1 X160.311 Y77.657 E2.42568
G1 X160.817 Y78.531 E2.47593
G1 X161.744 Y80.402 E2.57985
G1 X162.137 Y81.346 E2.63073
G1 X162.812 Y83.327 E2.73489
G1 X163.077 Y84.31 E2.78555
G1 X163.487 Y86.358 E2.88949
G1 X163.621 Y87.365 E2.94005
G1 X163.761 Y89.457 E3.04439
G1 X163.763 Y90.467 E3.09465
G1 X163.631 Y92.559 E3.19897
G1 X163.499 Y93.577 E3.25006
G1 X163.091 Y95.643 E3.35486
G1 X162.824 Y96.639 E3.40617
G1 X162.153 Y98.613 E3.50993
G1 X161.766 Y99.547 E3.56024
G1 X160.838 Y101.431 E3.66476
G1 X160.333 Y102.308 E3.71512
G1 X159.174 Y104.047 E3.81912
G1 X158.553 Y104.858 E3.86996
G1 X157.174 Y106.433 E3.97413
G1 X156.45 Y107.158 E4.02512
G1 X154.875 Y108.539 E4.12937
G1 X154.071 Y109.156 E4.1798
G1 X152.332 Y110.319 E4.28392
G1 X151.453 Y110.827 E4.33444
G1 X149.579 Y111.753 E4.43846
G1 X148.635 Y112.144 E4.48931
G1 X146.654 Y112.817 E4.59343
G1 X145.673 Y113.081 E4.64399
G1 X143.623 Y113.49 E4.74802
G1 X142.613 Y113.623 E4.79872
G1 X140.521 Y113.761 E4.90305
G1 X139.511 Y113.762 E4.95332
G1 X137.42 Y113.628 E5.05759
G1 X136.414 Y113.497 E5.10807
G1 X134.374 Y113.095 E5.21155
G1 X133.381 Y112.83 E5.2627
G1 X131.407 Y112.161 E5.36642
G1 X130.472 Y111.775 E5.41676
G1 X128.584 Y110.847 E5.52145
G1 X127.703 Y110.34 E5.57204
G1 X125.964 Y109.182 E5.67601
G1 X125.153 Y108.562 E5.72682
G1 X123.577 Y107.183 E5.83103
G1 X122.856 Y106.463 E5.88174
G1 X121.474 Y104.89 E5.98594
G1 X120.853 Y104.082 E6.03666
G1 X119.689 Y102.343 E6.1408
G1 X119.182 Y101.468 E6.19112
G1 X118.255 Y99.596 E6.29508
G1 X117.863 Y98.654 E6.34586
G1 X117.188 Y96.674 E6.44996
G1 X116.923 Y95.69 E6.50067
G1 X116.513 Y93.641 E6.60467
G1 X116.379 Y92.633 E6.65527
G1 X116.239 Y90.54 E6.75966
G1 X116.237 Y89.531 E6.80988
G1 X116.369 Y87.441 E6.91409
G1 X116.501 Y86.423 E6.96518
G1 X116.909 Y84.357 E7.06998
G1 X117.176 Y83.361 E7.1213
G1 X117.847 Y81.387 E7.22505
G1 X118.234 Y80.453 E7.27537
G1 X119.162 Y78.569 E7.37988
G1 X119.667 Y77.692 E7.43024
G0 F2700 X119.999 Y77.913
G1 F1200 X121.158 Y76.174 E7.53425
G1 X121.747 Y75.405 E7.58245
G1 X123.126 Y73.83 E7.68663
G1 X123.813 Y73.143 E7.73498
G1 X125.388 Y71.762 E7.83922
G1 X126.151 Y71.176 E7.8871
G1 X127.89 Y70.013 E7.99121
G1 X128.724 Y69.531 E8.03915
G1 X130.598 Y68.605 E8.14318
G1 X131.493 Y68.233 E8.19141
G1 X133.474 Y67.56 E8.29553
G1 X134.405 Y67.311 E8.34349
G1 X136.455 Y66.902 E8.44752
G1 X137.413 Y66.775 E8.49561
G1 X139.505 Y66.637 E8.59995
G1 X140.463 Y66.636 E8.64762
G1 X142.554 Y66.77 E8.7519
G1 X143.509 Y66.894 E8.79982
G1 X145.549 Y67.296 E8.90329
G1 X146.491 Y67.548 E8.95182
G1 X148.465 Y68.217 E9.05555
G1 X149.352 Y68.583 E9.1033
G1 X151.238 Y69.51 E9.20788
G1 X152.073 Y69.99 E9.25581
G1 X153.814 Y71.149 E9.3599
G1 X154.584 Y71.738 E9.40814
G1 X156.159 Y73.116 E9.51229
G1 X156.843 Y73.799 E9.56039
G1 X158.226 Y75.373 E9.66466
G1 X158.816 Y76.14 E9.71282
G1 X159.98 Y77.879 E9.81696
G1 X160.46 Y78.708 E9.86463
G1 X161.387 Y80.579 E9.96855
G1 X161.76 Y81.475 E10.01684
G1 X162.435 Y83.456 E10.121
G1 X162.685 Y84.388 E10.16902
G1 X163.095 Y86.436 E10.27296
G1 X163.223 Y87.392 E10.32096
G1 X163.363 Y89.484 E10.4253
G1 X163.364 Y90.442 E10.47298
G1 X163.232 Y92.534 E10.57729
G1 X163.107 Y93.499 E10.62572
G1 X162.699 Y95.565 E10.73052
G1 X162.446 Y96.511 E10.77925
G1 X161.775 Y98.485 E10.88301
G1 X161.408 Y99.371 E10.93073
G1 X160.48 Y101.255 E11.03525
G1 X160.001 Y102.087 E11.08303
G1 X158.842 Y103.826 E11.18703
G1 X158.253 Y104.595 E11.23523
G1 X156.874 Y106.17 E11.33941
G1 X156.187 Y106.857 E11.38776
G1 X154.612 Y108.238 E11.49201
G1 X153.849 Y108.824 E11.53988
G1 X152.11 Y109.987 E11.644
G1 X151.276 Y110.469 E11.69193
G1 X149.402 Y111.395 E11.79596
G1 X148.507 Y111.767 E11.84419
G1 X146.526 Y112.44 E11.94831
G1 X145.595 Y112.689 E11.99627
G1 X143.545 Y113.098 E12.1003
G1 X142.587 Y113.225 E12.14839
G1 X140.495 Y113.363 E12.25273
G1 X139.537 Y113.364 E12.3004
G1 X137.446 Y113.23 E12.40468
G1 X136.491 Y113.106 E12.4526
G1 X134.451 Y112.704 E12.55608
G1 X133.509 Y112.452 E12.6046
G1 X131.535 Y111.783 E12.70833
G1 X130.648 Y111.417 E12.75608
G1 X128.76 Y110.489 E12.86078
G1 X127.924 Y110.008 E12.90877
G1 X126.185 Y108.85 E13.01275
G1 X125.416 Y108.262 E13.06092
G1 X123.84 Y106.883 E13.16514
G1 X123.155 Y106.199 E13.21331
G1 X121.773 Y104.626 E13.31752
G1 X121.184 Y103.86 E13.3656
G1 X120.02 Y102.121 E13.46974
G1 X119.54 Y101.291 E13.51746
G1 X118.613 Y99.419 E13.62141
G1 X118.241 Y98.525 E13.6696
G1 X117.566 Y96.545 E13.77371
G1 X117.314 Y95.611 E13.82185
G1 X116.904 Y93.562 E13.92584
G1 X116.777 Y92.607 E13.97379
G1 X116.637 Y90.514 E14.07818
G1 X116.636 Y89.556 E14.12585
G1 X116.768 Y87.466 E14.23007
G1 X116.893 Y86.501 E14.27849
G1 X117.301 Y84.435 E14.3833
G1 X117.554 Y83.489 E14.43203
G1 X118.225 Y81.515 E14.53579
G1 X118.592 Y80.629 E14.58351
G1 X119.52 Y78.745 E14.68803
G1 X119.999 Y77.913 E14.7358
G0 F2700 X120.331 Y78.134
G1 F1200 X121.49 Y76.395 E14.8398
G1 X122.047 Y75.668 E14.88538
G1 X123.426 Y74.093 E14.98956
G1 X124.076 Y73.443 E15.03531
G1 X125.651 Y72.062 E15.13955
G1 X126.373 Y71.507 E15.18487
G1 X128.112 Y70.344 E15.28898
G1 X128.901 Y69.889 E15.33431
G1 X130.775 Y68.963 E15.43833
G1 X131.622 Y68.611 E15.48398
G1 X133.603 Y67.938 E15.5881
G1 X134.483 Y67.702 E15.63344
G1 X136.533 Y67.293 E15.73747
G1 X137.439 Y67.173 E15.78295
G1 X139.531 Y67.035 E15.88729
G1 X140.438 Y67.034 E15.93242
G1 X142.529 Y67.168 E16.0367
G1 X143.432 Y67.286 E16.08202
G1 X145.472 Y67.688 E16.18549
G1 X146.363 Y67.925 E16.23137
G1 X148.337 Y68.594 E16.3351
G1 X149.176 Y68.941 E16.38028
G1 X151.062 Y69.868 E16.48487
G1 X151.852 Y70.322 E16.53021
G1 X153.593 Y71.481 E16.63429
G1 X154.321 Y72.039 E16.67994
G1 X155.896 Y73.417 E16.78409
G1 X156.544 Y74.063 E16.82962
G1 X157.927 Y75.637 E16.93389
G1 X158.484 Y76.362 E16.97939
G1 X159.648 Y78.101 E17.08353
G1 X160.102 Y78.885 E17.12862
G1 X161.029 Y80.756 E17.23253
G1 X161.382 Y81.604 E17.27824
G1 X162.057 Y83.585 E17.38239
G1 X162.294 Y84.466 E17.4278
G1 X162.704 Y86.514 E17.53174
G1 X162.824 Y87.419 E17.57717
G1 X162.964 Y89.511 E17.68151
G1 X162.966 Y90.417 E17.7266
G1 X162.834 Y92.509 E17.83092
G1 X162.716 Y93.422 E17.87673
G1 X162.308 Y95.488 E17.98153
G1 X162.068 Y96.382 E18.0276
G1 X161.397 Y98.356 E18.13135
G1 X161.05 Y99.195 E18.17654
G1 X160.122 Y101.079 E18.28105
G1 X159.669 Y101.866 E18.32624
G1 X158.51 Y103.605 E18.43024
G1 X157.953 Y104.332 E18.47582
G1 X156.574 Y105.907 E18.58
G1 X155.924 Y106.557 E18.62575
G1 X154.349 Y107.938 E18.72999
G1 X153.627 Y108.493 E18.77531
G1 X151.888 Y109.656 E18.87942
G1 X151.099 Y110.111 E18.92475
G1 X149.225 Y111.037 E19.02877
G1 X148.378 Y111.389 E19.07442
G1 X146.397 Y112.062 E19.17854
G1 X145.517 Y112.298 E19.22388
G1 X143.467 Y112.707 E19.32791
G1 X142.561 Y112.827 E19.37339
G1 X140.469 Y112.965 E19.47773
G1 X139.562 Y112.966 E19.52286
G1 X137.471 Y112.832 E19.62714
G1 X136.568 Y112.714 E19.67246
G1 X134.528 Y112.312 E19.77593
G1 X133.637 Y112.075 E19.82181
G1 X131.663 Y111.406 E19.92554
G1 X130.824 Y111.059 E19.97072
G1 X128.936 Y110.131 E20.07542
G1 X128.146 Y109.676 E20.12079
G1 X126.407 Y108.518 E20.22476
G1 X125.679 Y107.961 E20.27038
G1 X124.103 Y106.582 E20.37459
G1 X123.455 Y105.936 E20.42013
G1 X122.073 Y104.363 E20.52433
G1 X121.516 Y103.638 E20.56983
G1 X120.352 Y101.899 E20.67397
G1 X119.897 Y101.114 E20.71912
G1 X118.97 Y99.242 E20.82308
G1 X118.619 Y98.396 E20.86866
G1 X117.944 Y96.416 E20.97277
G1 X117.706 Y95.533 E21.01828
G1 X117.296 Y93.484 E21.12227
G1 X117.176 Y92.58 E21.16765
G1 X117.036 Y90.487 E21.27204
G1 X117.034 Y89.581 E21.31713
G1 X117.166 Y87.491 E21.42135
G1 X117.284 Y86.578 E21.46716
G1 X117.692 Y84.512 E21.57196
G1 X117.932 Y83.618 E21.61803
G1 X118.603 Y81.644 E21.72179
G1 X118.95 Y80.805 E21.76697
G1 X119.878 Y78.921 E21.87148
G1 X120.331 Y78.134 E21.91667
G0 F2700 X120.663 Y78.356
G1 F1200 X121.822 Y76.617 E22.02068
G1 X122.347 Y75.931 E22.06366
G1 X123.726 Y74.356 E22.16784
G1 X124.339 Y73.743 E22.21099
G1 X125.914 Y72.362 E22.31523
G1 X126.595 Y71.839 E22.35796
G1 X128.334 Y70.676 E22.46207
G1 X129.077 Y70.246 E22.50479
G1 X130.951 Y69.32 E22.60882
G1 X131.75 Y68.989 E22.65186
G1 X133.731 Y68.316 E22.75598
G1 X134.561 Y68.093 E22.79875
G1 X136.611 Y67.684 E22.90278
G1 X137.466 Y67.571 E22.9457
G1 X139.558 Y67.433 E23.05003
G1 X140.412 Y67.432 E23.09253
G1 X142.503 Y67.566 E23.19681
G1 X143.355 Y67.677 E23.23956
G1 X145.395 Y68.079 E23.34304
G1 X146.235 Y68.303 E23.3863
G1 X148.209 Y68.972 E23.49003
G1 X149 Y69.299 E23.53262
G1 X150.886 Y70.226 E23.63721
G1 X151.631 Y70.654 E23.67996
G1 X153.372 Y71.813 E23.78405
G1 X154.058 Y72.339 E23.82707
G1 X155.633 Y73.717 E23.93121
G1 X156.244 Y74.326 E23.97414
G1 X157.627 Y75.9 E24.07842
G1 X158.152 Y76.584 E24.12133
G1 X159.316 Y78.323 E24.22547
G1 X159.745 Y79.062 E24.26799
G1 X160.672 Y80.933 E24.3719
G1 X161.004 Y81.732 E24.41496
G1 X161.679 Y83.713 E24.51911
G1 X161.903 Y84.545 E24.56199
G1 X162.313 Y86.593 E24.66594
G1 X162.426 Y87.445 E24.70871
G1 X162.566 Y89.537 E24.81305
G1 X162.568 Y90.392 E24.8556
G1 X162.436 Y92.484 E24.95992
G1 X162.324 Y93.345 E25.00312
G1 X161.916 Y95.411 E25.10793
G1 X161.691 Y96.254 E25.15135
G1 X161.02 Y98.228 E25.2551
G1 X160.692 Y99.018 E25.29767
G1 X159.764 Y100.902 E25.40219
G1 X159.337 Y101.644 E25.44479
G1 X158.178 Y103.383 E25.54879
G1 X157.653 Y104.069 E25.59178
G1 X156.274 Y105.644 E25.69596
G1 X155.661 Y106.257 E25.7391
G1 X154.086 Y107.638 E25.84335
G1 X153.405 Y108.161 E25.88608
G1 X151.666 Y109.324 E25.99019
G1 X150.923 Y109.754 E26.03291
G1 X149.049 Y110.68 E26.13694
G1 X148.25 Y111.011 E26.17998
G1 X146.269 Y111.684 E26.2841
G1 X145.439 Y111.907 E26.32687
G1 X143.389 Y112.316 E26.4309
G1 X142.534 Y112.429 E26.47382
G1 X140.442 Y112.567 E26.57815
G1 X139.588 Y112.568 E26.62065
G1 X137.497 Y112.434 E26.72492
G1 X136.645 Y112.323 E26.76768
G1 X134.605 Y111.921 E26.87116
G1 X133.765 Y111.697 E26.91442
G1 X131.791 Y111.028 E27.01815
G1 X131 Y110.701 E27.06074
G1 X129.112 Y109.773 E27.16543
G1 X128.367 Y109.344 E27.20822
G1 X126.628 Y108.186 E27.31219
G1 X125.941 Y107.661 E27.35522
G1 X124.365 Y106.282 E27.45944
G1 X123.755 Y105.673 E27.50233
G1 X122.373 Y104.1 E27.60653
G1 X121.848 Y103.416 E27.64944
G1 X120.684 Y101.677 E27.75358
G1 X120.255 Y100.937 E27.79615
G1 X119.328 Y99.065 E27.90011
G1 X118.996 Y98.267 E27.94312
G1 X118.321 Y96.287 E28.04723
G1 X118.097 Y95.455 E28.09011
G1 X117.687 Y93.406 E28.1941
G1 X117.574 Y92.553 E28.23692
G1 X117.434 Y90.46 E28.34131
G1 X117.432 Y89.606 E28.38381
G1 X117.564 Y87.516 E28.48803
G1 X117.676 Y86.655 E28.53123
G1 X118.084 Y84.589 E28.63604
G1 X118.309 Y83.746 E28.67946
G1 X118.98 Y81.772 E28.78321
G1 X119.308 Y80.982 E28.82578
G1 X120.236 Y79.098 E28.9303
G1 X120.663 Y78.356 E28.9729
G0 F2700 X120.995 Y78.577
G1 F1200 X122.154 Y76.838 E29.0769
G1 X122.648 Y76.194 E29.1173
G1 X124.027 Y74.619 E29.22147
G1 X124.602 Y74.043 E29.26198
G1 X126.177 Y72.662 E29.36622
G1 X126.817 Y72.171 E29.40636
G1 X128.556 Y71.008 E29.51048
G1 X129.254 Y70.604 E29.55061
G1 X131.128 Y69.678 E29.65464
G1 X131.878 Y69.367 E29.69504
G1 X133.859 Y68.694 E29.79916
G1 X134.639 Y68.485 E29.83935
G1 X136.689 Y68.076 E29.94338
G1 X137.492 Y67.969 E29.98369
G1 X139.584 Y67.831 E30.08803
G1 X140.387 Y67.831 E30.12799
G1 X142.478 Y67.965 E30.23226
G1 X143.278 Y68.069 E30.27241
G1 X145.318 Y68.471 E30.37588
G1 X146.107 Y68.681 E30.41652
G1 X148.081 Y69.35 E30.52024
G1 X148.824 Y69.657 E30.56025
G1 X150.71 Y70.584 E30.66483
G1 X151.409 Y70.986 E30.70496
G1 X153.15 Y72.145 E30.80904
G1 X153.796 Y72.639 E30.84952
G1 X155.371 Y74.017 E30.95366
G1 X155.944 Y74.59 E30.99399
G1 X157.327 Y76.164 E31.09826
G1 X157.821 Y76.806 E31.13857
G1 X158.985 Y78.545 E31.24271
G1 X159.387 Y79.239 E31.28263
G1 X160.314 Y81.11 E31.38654
G1 X160.626 Y81.861 E31.42701
G1 X161.301 Y83.842 E31.53116
G1 X161.512 Y84.623 E31.57142
G1 X161.922 Y86.671 E31.67536
G1 X162.028 Y87.472 E31.71557
G1 X162.168 Y89.564 E31.81992
G1 X162.17 Y90.366 E31.85983
G1 X162.038 Y92.458 E31.96414
G1 X161.933 Y93.267 E32.00474
G1 X161.525 Y95.333 E32.10954
G1 X161.313 Y96.126 E32.15039
G1 X160.642 Y98.1 E32.25415
G1 X160.334 Y98.842 E32.29413
G1 X159.406 Y100.726 E32.39865
G1 X159.005 Y101.423 E32.43866
G1 X157.846 Y103.162 E32.54267
G1 X157.352 Y103.806 E32.58306
G1 X155.973 Y105.381 E32.68724
G1 X155.398 Y105.957 E32.72774
G1 X153.823 Y107.338 E32.83198
G1 X153.183 Y107.829 E32.87213
G1 X151.444 Y108.992 E32.97624
G1 X150.746 Y109.396 E33.01637
G1 X148.872 Y110.322 E33.1204
G1 X148.122 Y110.633 E33.1608
G1 X146.141 Y111.306 E33.26492
G1 X145.361 Y111.515 E33.30511
G1 X143.311 Y111.924 E33.40914
G1 X142.508 Y112.031 E33.44945
G1 X140.416 Y112.169 E33.55379
G1 X139.613 Y112.169 E33.59375
G1 X137.522 Y112.035 E33.69802
G1 X136.722 Y111.931 E33.73817
G1 X134.682 Y111.529 E33.84165
G1 X133.893 Y111.319 E33.88228
G1 X131.919 Y110.65 E33.986
G1 X131.176 Y110.343 E34.02601
G1 X129.288 Y109.415 E34.1307
G1 X128.588 Y109.012 E34.1709
G1 X126.849 Y107.854 E34.27488
G1 X126.204 Y107.361 E34.31528
G1 X124.628 Y105.982 E34.41949
G1 X124.055 Y105.409 E34.45982
G1 X122.673 Y103.836 E34.56402
G1 X122.179 Y103.194 E34.60433
G1 X121.015 Y101.455 E34.70847
G1 X120.612 Y100.76 E34.74846
G1 X119.685 Y98.888 E34.85241
G1 X119.374 Y98.139 E34.89277
G1 X118.699 Y96.159 E34.99688
G1 X118.488 Y95.377 E35.03719
G1 X118.078 Y93.328 E35.14118
G1 X117.972 Y92.527 E35.18139
G1 X117.832 Y90.434 E35.28578
G1 X117.83 Y89.631 E35.32574
G1 X117.962 Y87.541 E35.42996
G1 X118.067 Y86.733 E35.47051
G1 X118.475 Y84.667 E35.57531
G1 X118.687 Y83.874 E35.61616
G1 X119.358 Y81.9 E35.71991
G1 X119.666 Y81.158 E35.75989
G1 X120.594 Y79.274 E35.86441
G1 X120.995 Y78.577 E35.90443
G0 F2700 X121.327 Y78.798
G1 F1200 X122.486 Y77.059 E36.00843
G1 X122.948 Y76.457 E36.04619
G1 X124.327 Y74.882 E36.15037
G1 X124.865 Y74.343 E36.18827
G1 X126.44 Y72.962 E36.29251
G1 X127.038 Y72.502 E36.33006
G1 X128.777 Y71.339 E36.43417
G1 X129.431 Y70.962 E36.47174
G1 X131.305 Y70.036 E36.57576
G1 X132.007 Y69.745 E36.61358
G1 X133.988 Y69.072 E36.7177
G1 X134.717 Y68.876 E36.75527
G1 X136.767 Y68.467 E36.8593
G1 X137.518 Y68.368 E36.897
G1 X139.61 Y68.23 E37.00133
G1 X140.361 Y68.229 E37.03871
G1 X142.452 Y68.363 E37.14298
G1 X143.201 Y68.46 E37.18056
G1 X145.241 Y68.862 E37.28404
G1 X145.979 Y69.059 E37.32205
G1 X147.953 Y69.728 E37.42578
G1 X148.648 Y70.015 E37.4632
G1 X150.534 Y70.942 E37.56778
G1 X151.188 Y71.319 E37.60535
G1 X152.929 Y72.478 E37.70943
G1 X153.533 Y72.939 E37.74724
G1 X155.108 Y74.317 E37.85139
G1 X155.645 Y74.853 E37.88915
G1 X157.028 Y76.427 E37.99342
G1 X157.489 Y77.028 E38.03111
G1 X158.653 Y78.767 E38.13525
G1 X159.03 Y79.416 E38.17261
G1 X159.957 Y81.287 E38.27652
G1 X160.249 Y81.99 E38.3144
G1 X160.924 Y83.971 E38.41855
G1 X161.12 Y84.701 E38.45617
G1 X161.53 Y86.749 E38.56011
G1 X161.63 Y87.499 E38.59776
G1 X161.77 Y89.591 E38.70211
G1 X161.772 Y90.341 E38.73943
