;FLAVOR:RepRap
;TIME:949
;Filament used: 0.843794m
;Layer height: 0.2
;Generated with Cura_SteamEngine 2.5.0-twosilly
M190 S50
M104 S210
M109 S210
G28 ;Home
G1 Z15.0 F6000 ;Move the platform down 15mm
;Prime the extruder
G92 E0
G1 F200 E10
G92 E0
;LAYER_COUNT:100
;LAYER:0
M107
G0 F2700 X126.885 Y79.056 Z0.3
;TYPE:SKIRT
G1 F1200 X127.299 Y78.459 E0.03615
G1 X127.775 Y77.911 E0.07228
G1 X128.309 Y77.419 E0.10841
G1 X128.894 Y76.988 E0.14457
G1 X129.523 Y76.624 E0.18074
G1 X130.187 Y76.332 E0.21684
G1 X130.88 Y76.114 E0.25299
G1 X131.593 Y75.974 E0.28915
G1 X132.509 Y75.91 E0.33485
G1 X147.491 Y75.911 E1.08043
G1 X148.217 Y75.951 E1.11662
G1 X148.933 Y76.07 E1.15274
G1 X149.632 Y76.268 E1.18889
G1 X150.305 Y76.541 E1.22504
G1 X150.944 Y76.886 E1.26118
G1 X151.541 Y77.3 E1.29733
G1 X152.089 Y77.777 E1.33349
G1 X152.581 Y78.311 E1.36962
G1 X153.012 Y78.895 E1.40574
G1 X153.376 Y79.524 E1.44191
G1 X153.668 Y80.189 E1.47805
G1 X153.886 Y80.882 E1.51421
G1 X154.026 Y81.594 E1.55032
G1 X154.09 Y82.51 E1.59601
G1 X154.09 Y97.491 E2.34155
G1 X154.05 Y98.216 E2.37769
G1 X153.931 Y98.933 E2.41385
G1 X153.733 Y99.632 E2.45001
G1 X153.46 Y100.305 E2.48615
G1 X153.115 Y100.944 E2.52229
G1 X152.701 Y101.541 E2.55845
G1 X152.225 Y102.089 E2.59457
G1 X151.691 Y102.581 E2.6307
G1 X151.106 Y103.012 E2.66686
G1 X150.477 Y103.376 E2.70303
G1 X149.813 Y103.668 E2.73913
G1 X149.12 Y103.886 E2.77528
G1 X148.407 Y104.026 E2.81144
G1 X147.491 Y104.09 E2.85714
G1 X132.509 Y104.09 E3.60273
G1 X131.784 Y104.05 E3.63886
G1 X131.067 Y103.931 E3.67503
G1 X130.368 Y103.733 E3.71119
G1 X129.695 Y103.46 E3.74733
G1 X129.056 Y103.115 E3.78347
G1 X128.459 Y102.701 E3.81962
G1 X127.911 Y102.225 E3.85574
G1 X127.419 Y101.691 E3.89188
G1 X126.988 Y101.106 E3.92804
G1 X126.624 Y100.477 E3.96421
G1 X126.332 Y99.813 E4.0003
G1 X126.114 Y99.12 E4.03646
G1 X125.974 Y98.407 E4.07262
G1 X125.91 Y97.491 E4.11832
G1 X125.91 Y82.509 E4.8639
G1 X125.95 Y81.784 E4.90004
G1 X126.069 Y81.067 E4.93621
G1 X126.267 Y80.368 E4.97236
G1 X126.54 Y79.695 E5.0085
G1 X126.885 Y79.056 E5.04464
G0 F2700 X127.283 Y79.174
G1 F1200 X127.694 Y78.603 E5.07965
G1 X128.168 Y78.082 E5.11471
G1 X128.698 Y77.618 E5.14976
G1 X129.277 Y77.218 E5.18478
G1 X129.898 Y76.886 E5.21983
G1 X130.552 Y76.626 E5.25485
G1 X131.232 Y76.442 E5.28991
G1 X131.928 Y76.336 E5.32495
G1 X132.509 Y76.309 E5.35389
G1 X147.491 Y76.31 E6.09948
G1 X148.194 Y76.35 E6.13452
G1 X148.888 Y76.469 E6.16956
G1 X149.564 Y76.667 E6.20462
G1 X150.213 Y76.939 E6.23963
G1 X150.827 Y77.284 E6.27468
G1 X151.398 Y77.696 E6.30972
G1 X151.918 Y78.17 E6.34474
G1 X152.382 Y78.7 E6.3798
G1 X152.782 Y79.279 E6.41482
G1 X153.115 Y79.899 E6.44984
G1 X153.374 Y80.554 E6.48489
G1 X153.558 Y81.233 E6.5199
G1 X153.664 Y81.929 E6.55494
G1 X153.691 Y82.51 E6.58388
G1 X153.691 Y97.491 E7.32942
G1 X153.651 Y98.194 E7.36446
G1 X153.532 Y98.888 E7.3995
G1 X153.334 Y99.563 E7.43451
G1 X153.062 Y100.212 E7.46953
G1 X152.717 Y100.826 E7.50458
G1 X152.306 Y101.397 E7.53959
G1 X151.832 Y101.918 E7.57464
G1 X151.302 Y102.382 E7.6097
G1 X150.723 Y102.782 E7.64472
G1 X150.102 Y103.114 E7.67976
G1 X149.448 Y103.374 E7.71479
G1 X148.768 Y103.558 E7.74985
G1 X148.072 Y103.664 E7.78488
G1 X147.491 Y103.691 E7.81383
G1 X132.509 Y103.691 E8.55941
G1 X131.806 Y103.651 E8.59446
G1 X131.112 Y103.532 E8.6295
G1 X130.437 Y103.334 E8.6645
G1 X129.788 Y103.062 E8.69952
G1 X129.174 Y102.717 E8.73457
G1 X128.603 Y102.306 E8.76958
G1 X128.082 Y101.832 E8.80464
G1 X127.618 Y101.302 E8.83969
G1 X127.218 Y100.723 E8.87471
G1 X126.886 Y100.102 E8.90976
G1 X126.626 Y99.448 E8.94478
G1 X126.442 Y98.768 E8.97984
G1 X126.336 Y98.072 E9.01488
G1 X126.309 Y97.491 E9.04382
G1 X126.309 Y82.509 E9.78941
G1 X126.349 Y81.806 E9.82445
G1 X126.468 Y81.112 E9.85949
G1 X126.666 Y80.437 E9.8945
G1 X126.938 Y79.788 E9.92952
G1 X127.283 Y79.174 E9.96457
G1 F3600 E3.46457
G0 F2700 X131.835 Y83.111
G0 X133.111 Y83.111
G0 X133.496 Y83.496
;TYPE:WALL-INNER
G1 F3600 E9.96457
G1 F1200 X146.504 Y83.496 E10.61192
G1 X146.504 Y96.504 E11.25926
G1 X133.496 Y96.504 E11.90661
G1 X133.496 Y83.496 E12.55396
G0 F2700 X133.097 Y83.097
G1 F1200 X146.903 Y83.097 E13.24103
G1 X146.903 Y96.903 E13.92809
G1 X133.097 Y96.903 E14.61515
G1 X133.097 Y83.097 E15.30221
G0 F2700 X132.699 Y82.699
;TYPE:WALL-OUTER
G1 F1200 X147.301 Y82.699 E16.02889
G1 X147.301 Y97.301 E16.75556
G1 X132.699 Y97.301 E17.48224
G1 X132.699 Y82.699 E18.20891
G0 F2700 X132.899 Y82.699
G0 X133.167 Y83.167
G0 X146.305 Y83.695
G0 X146.323 Y84.253
;TYPE:SKIN
G1 F1200 X145.746 Y83.676 E18.24952
G1 X145.676 Y83.606
G0 F2700 X145.181 Y83.676
G1 F1200 X146.323 Y84.818 E18.3299
G1 X146.393 Y84.888
G0 F2700 X146.323 Y85.382
G1 F1200 X144.617 Y83.676 E18.44996
G1 X144.547 Y83.606
G0 F2700 X144.053 Y83.676
G1 F1200 X146.323 Y85.946 E18.60972
G1 X146.393 Y86.016
G0 F2700 X146.323 Y86.51
G1 F1200 X143.488 Y83.676 E18.80921
G1 X143.418 Y83.606
G0 F2700 X142.924 Y83.676
G1 F1200 X146.323 Y87.075 E19.04843
G1 X146.393 Y87.145
G0 F2700 X146.323 Y87.639
G1 F1200 X142.36 Y83.676 E19.32734
G1 X142.29 Y83.606
G0 F2700 X141.796 Y83.676
G1 F1200 X146.323 Y88.203 E19.64595
G1 X146.393 Y88.273
G0 F2700 X146.323 Y88.768
G1 F1200 X141.231 Y83.676 E20.00432
G1 X141.161 Y83.606
G0 F2700 X140.667 Y83.676
G1 F1200 X146.323 Y89.332 E20.40238
G1 X146.393 Y89.402
G0 F2700 X146.323 Y89.896
G1 F1200 X140.103 Y83.676 E20.84014
G1 X140.033 Y83.606
G0 F2700 X139.539 Y83.676
G1 F1200 X146.323 Y90.46 E21.31759
G1 X146.393 Y90.53
G0 F2700 X146.323 Y91.025
G1 F1200 X138.974 Y83.676 E21.83481
G1 X138.904 Y83.606
G0 F2700 X138.41 Y83.676
G1 F1200 X146.323 Y91.589 E22.39171
G1 X146.393 Y91.659
G0 F2700 X146.323 Y92.153
G1 F1200 X137.846 Y83.676 E22.98832
G1 X137.776 Y83.606
G0 F2700 X137.281 Y83.676
G1 F1200 X146.323 Y92.717 E23.62465
G1 X146.393 Y92.787
G0 F2700 X146.323 Y93.282
G1 F1200 X136.717 Y83.676 E24.30071
G1 X136.647 Y83.606
G0 F2700 X136.153 Y83.676
G1 F1200 X146.323 Y93.846 E25.01646
G1 X146.393 Y93.916
G0 F2700 X146.323 Y94.41
G1 F1200 X135.589 Y83.676 E25.77191
G1 X135.519 Y83.606
G0 F2700 X135.024 Y83.676
G1 F1200 X146.323 Y94.975 E26.56713
G1 X146.393 Y95.045
G0 F2700 X146.323 Y95.539
G1 F1200 X134.46 Y83.676 E27.40203
G1 X134.39 Y83.606
G0 F2700 X133.896 Y83.676
G1 F1200 X146.323 Y96.103 E28.27663
G1 X146.393 Y96.173
G0 F2700 X145.98 Y96.324
G1 F1200 X133.675 Y84.019 E29.14265
G1 X133.605 Y83.949
G0 F2700 X133.675 Y84.583
G1 F1200 X145.415 Y96.324 E29.96893
G1 X145.485 Y96.394
G0 F2700 X144.851 Y96.324
G1 F1200 X133.675 Y85.147 E30.75552
G1 X133.605 Y85.077
G0 F2700 X133.675 Y85.711
G1 F1200 X144.287 Y96.324 E31.50242
G1 X144.357 Y96.394
G0 F2700 X143.722 Y96.324
G1 F1200 X133.675 Y86.276 E32.20955
G1 X133.605 Y86.206
G0 F2700 X133.675 Y86.84
G1 F1200 X143.158 Y96.324 E32.87699
G1 X143.228 Y96.394
G0 F2700 X142.594 Y96.324
G1 F1200 X133.675 Y87.404 E33.50474
G1 X133.605 Y87.334
G0 F2700 X133.675 Y87.969
G1 F1200 X142.03 Y96.324 E34.09275
G1 X142.1 Y96.394
G0 F2700 X141.465 Y96.324
G1 F1200 X133.675 Y88.533 E34.64104
G1 X133.605 Y88.463
G0 F2700 X133.675 Y89.097
G1 F1200 X140.901 Y96.324 E35.14964
G1 X140.971 Y96.394
G0 F2700 X140.337 Y96.324
G1 F1200 X133.675 Y89.661 E35.61854
G1 X133.606 Y89.591
G0 F2700 X133.675 Y90.226
G1 F1200 X139.773 Y96.324 E36.04771
G1 X139.843 Y96.394
G0 F2700 X139.208 Y96.324
G1 F1200 X133.675 Y90.79 E36.43715
G1 X133.605 Y90.72
G0 F2700 X133.675 Y91.354
G1 F1200 X138.644 Y96.324 E36.7869
G1 X138.714 Y96.394
G0 F2700 X138.08 Y96.324
G1 F1200 X133.675 Y91.918 E37.09695
G1 X133.606 Y91.848
G0 F2700 X133.675 Y92.483
G1 F1200 X137.516 Y96.324 E37.36728
G1 X137.586 Y96.394
G0 F2700 X136.951 Y96.324
G1 F1200 X133.675 Y93.047 E37.59787
G1 X133.605 Y92.977
G0 F2700 X133.675 Y93.611
G1 F1200 X136.387 Y96.324 E37.78878
G1 X136.456 Y96.394
G0 F2700 X135.823 Y96.324
G1 F1200 X133.675 Y94.176 E37.93995
G1 X133.605 Y94.106
G0 F2700 X133.675 Y94.74
G1 F1200 X135.258 Y96.324 E38.0514
G1 X135.327 Y96.394
G0 F2700 X134.694 Y96.324
G1 F1200 X133.675 Y95.304 E38.12315
G1 X133.605 Y95.234
G0 F2700 X133.675 Y95.868
G1 F1200 X134.13 Y96.324 E38.15521
G0 F2700 X133.496 Y83.496
;TIME_ELAPSED:43.780260
;LAYER:1
M140 S50
G1 F3600 E31.65521
M106 S255
G0 F4050 X133.496 Y83.496 Z0.5
;TYPE:WALL-INNER
G1 F3600 E38.15521
G1 F1500 X146.504 Y83.496 E38.58677
G1 X146.504 Y96.504 E39.01834
G1 X133.496 Y96.504 E39.4499
G1 X133.496 Y83.496 E39.88147
G0 F4050 X133.097 Y83.097
G1 F1500 X146.903 Y83.097 E40.33951
G1 X146.903 Y96.903 E40.79755
G1 X133.097 Y96.903 E41.2556
G1 X133.097 Y83.097 E41.71364
G0 F4050 X132.699 Y82.699
;TYPE:WALL-OUTER
G1 F1500 X147.301 Y82.699 E42.19809
G1 X147.301 Y97.301 E42.68254
G1 X132.699 Y97.301 E43.16699
G1 X132.699 Y82.699 E43.65144
G0 F4050 X132.899 Y82.699
G0 X133.167 Y83.167
G0 X133.695 Y83.695
G0 X134.132 Y83.676
;TYPE:SKIN
G1 F1500 X133.675 Y84.132 E43.67286
G0 F4050 X133.675 Y84.697
G1 F1500 X134.696 Y83.676 E43.72076
G1 X134.766 Y83.606
G0 F4050 X135.261 Y83.676
G1 F1500 X133.675 Y85.261 E43.79515
G1 X133.605 Y85.33
G0 F4050 X133.675 Y85.825
G1 F1500 X135.825 Y83.676 E43.89601
G1 X135.895 Y83.606
G0 F4050 X136.389 Y83.676
G1 F1500 X133.675 Y86.39 E44.02334
G1 X133.605 Y86.46
G0 F4050 X133.675 Y86.954
G1 F1500 X136.953 Y83.676 E44.17715
G1 X137.023 Y83.606
G0 F4050 X137.518 Y83.676
G1 F1500 X133.675 Y87.518 E44.35743
G1 X133.605 Y87.587
G0 F4050 X133.675 Y88.082
G1 F1500 X138.082 Y83.676 E44.56418
G1 X138.152 Y83.606
G0 F4050 X138.646 Y83.676
G1 F1500 X133.675 Y88.647 E44.79742
G1 X133.605 Y88.717
G0 F4050 X133.675 Y89.211
G1 F1500 X139.21 Y83.676 E45.05712
G1 X139.28 Y83.606
G0 F4050 X139.775 Y83.676
G1 F1500 X133.675 Y89.775 E45.3433
G1 X133.605 Y89.845
G0 F4050 X133.675 Y90.339
G1 F1500 X140.339 Y83.676 E45.65595
G1 X140.409 Y83.606
G0 F4050 X140.903 Y83.676
G1 F1500 X133.675 Y90.904 E45.99508
G1 X133.605 Y90.974
G0 F4050 X133.675 Y91.468
G1 F1500 X141.468 Y83.676 E46.3607
G1 X141.538 Y83.606
G0 F4050 X142.032 Y83.676
G1 F1500 X133.675 Y92.032 E46.75278
G1 X133.605 Y92.102
G0 F4050 X133.675 Y92.597
G1 F1500 X142.596 Y83.676 E47.17135
G1 X142.666 Y83.606
G0 F4050 X143.16 Y83.676
G1 F1500 X133.675 Y93.161 E47.61638
G1 X133.605 Y93.231
G0 F4050 X133.675 Y93.725
G1 F1500 X143.725 Y83.676 E48.0879
G1 X143.795 Y83.606
G0 F4050 X144.289 Y83.676
G1 F1500 X133.675 Y94.289 E48.58587
G1 X133.605 Y94.359
G0 F4050 X133.675 Y94.854
G1 F1500 X144.853 Y83.676 E49.11034
G1 X144.923 Y83.606
G0 F4050 X145.417 Y83.676
G1 F1500 X133.675 Y95.418 E49.66127
G1 X133.605 Y95.488
G0 F4050 X133.675 Y95.982
G1 F1500 X145.982 Y83.676 E50.23868
G1 X146.052 Y83.606
G0 F4050 X146.323 Y83.899
G1 F1500 X133.898 Y96.324 E50.82165
G1 X133.828 Y96.394
G0 F4050 X134.462 Y96.324
G1 F1500 X146.323 Y84.463 E51.37816
G1 X146.393 Y84.393
G0 F4050 X146.323 Y85.028
G1 F1500 X135.026 Y96.324 E51.90819
G1 X134.956 Y96.394
G0 F4050 X135.591 Y96.324
G1 F1500 X146.323 Y85.592 E52.41172
G1 X146.393 Y85.522
G0 F4050 X146.323 Y86.156
G1 F1500 X136.155 Y96.324 E52.8888
G1 X136.085 Y96.394
G0 F4050 X136.719 Y96.324
G1 F1500 X146.323 Y86.72 E53.33941
G1 X146.393 Y86.65
G0 F4050 X146.323 Y87.285
G1 F1500 X137.284 Y96.324 E53.76352
G1 X137.214 Y96.394
G0 F4050 X137.848 Y96.324
G1 F1500 X146.323 Y87.849 E54.16116
G1 X146.393 Y87.779
G0 F4050 X146.323 Y88.413
G1 F1500 X138.412 Y96.324 E54.53234
G1 X138.342 Y96.394
G0 F4050 X138.976 Y96.324
G1 F1500 X146.323 Y88.978 E54.87703
G1 X146.393 Y88.908
G0 F4050 X146.323 Y89.542
G1 F1500 X139.541 Y96.324 E55.19524
G1 X139.471 Y96.394
G0 F4050 X140.105 Y96.324
G1 F1500 X146.323 Y90.106 E55.48698
G1 X146.393 Y90.036
G0 F4050 X146.323 Y90.67
G1 F1500 X140.669 Y96.324 E55.75226
G1 X140.599 Y96.394
G0 F4050 X141.233 Y96.324
G1 F1500 X146.323 Y91.235 E55.99106
G1 X146.393 Y91.165
G0 F4050 X146.323 Y91.799
G1 F1500 X141.798 Y96.324 E56.20337
G1 X141.728 Y96.394
G0 F4050 X142.362 Y96.324
G1 F1500 X146.323 Y92.363 E56.38922
G1 X146.393 Y92.293
G0 F4050 X146.323 Y92.927
G1 F1500 X142.926 Y96.324 E56.5486
G1 X142.856 Y96.394
G0 F4050 X143.491 Y96.324
G1 F1500 X146.323 Y93.492 E56.68148
G1 X146.393 Y93.422
G0 F4050 X146.323 Y94.056
G1 F1500 X144.055 Y96.324 E56.78789
G1 X143.985 Y96.394
G0 F4050 X144.619 Y96.324
G1 F1500 X146.323 Y94.62 E56.86784
G1 X146.393 Y94.55
G0 F4050 X146.323 Y95.185
G1 F1500 X145.183 Y96.324 E56.92131
G1 X145.113 Y96.393
G0 F4050 X145.748 Y96.324
G1 F1500 X146.323 Y95.749 E56.94829
G1 X146.393 Y95.679
G0 F4050 X133.496 Y83.496
;TIME_ELAPSED:68.106859
;LAYER:2
G1 F3600 E50.44829
G0 F5400 X133.496 Y83.496 Z0.7
;TYPE:WALL-INNER
G1 F3600 E56.94829
G1 F1800 X146.504 Y83.496 E57.37985
G1 X146.504 Y96.504 E57.81142
G1 X133.496 Y96.504 E58.24298
G1 X133.496 Y83.496 E58.67455
G0 F5400 X133.097 Y83.097
G1 F1800 X146.903 Y83.097 E59.13259
G1 X146.903 Y96.903 E59.59063
G1 X133.097 Y96.903 E60.04867
G1 X133.097 Y83.097 E60.50672
G0 F5400 X132.699 Y82.699
;TYPE:WALL-OUTER
G1 F1800 X147.301 Y82.699 E60.99117
G1 X147.301 Y97.301 E61.47562
G1 X132.699 Y97.301 E61.96007
G1 X132.699 Y82.699 E62.44452
G0 F5400 X132.899 Y82.699
G0 X133.167 Y83.167
G0 X146.305 Y83.695
G0 X146.323 Y84.253
;TYPE:SKIN
G1 F1800 X145.746 Y83.676 E62.47159
G1 X145.676 Y83.606
G0 F5400 X145.181 Y83.676
G1 F1800 X146.323 Y84.818 E62.52517
G1 X146.393 Y84.888
G0 F5400 X146.323 Y85.382
G1 F1800 X144.617 Y83.676 E62.60522
G1 X144.547 Y83.606
G0 F5400 X144.053 Y83.676
G1 F1800 X146.323 Y85.946 E62.71172
G1 X146.393 Y86.016
G0 F5400 X146.323 Y86.51
G1 F1800 X143.488 Y83.676 E62.84472
G1 X143.418 Y83.606
G0 F5400 X142.924 Y83.676
G1 F1800 X146.323 Y87.075 E63.00419
G1 X146.393 Y87.145
G0 F5400 X146.323 Y87.639
G1 F1800 X142.36 Y83.676 E63.19014
G1 X142.29 Y83.606
G0 F5400 X141.796 Y83.676
G1 F1800 X146.323 Y88.203 E63.40254
G1 X146.393 Y88.273
G0 F5400 X146.323 Y88.768
G1 F1800 X141.231 Y83.676 E63.64145
G1 X141.161 Y83.606
G0 F5400 X140.667 Y83.676
G1 F1800 X146.323 Y89.332 E63.90683
G1 X146.393 Y89.402
G0 F5400 X146.323 Y89.896
G1 F1800 X140.103 Y83.676 E64.19867
G1 X140.033 Y83.606
G0 F5400 X139.539 Y83.676
G1 F1800 X146.323 Y90.46 E64.51697
G1 X146.393 Y90.53
G0 F5400 X146.323 Y91.025
G1 F1800 X138.974 Y83.676 E64.86178
G1 X138.904 Y83.606
G0 F5400 X138.41 Y83.676
G1 F1800 X146.323 Y91.589 E65.23305
G1 X146.393 Y91.659
G0 F5400 X146.323 Y92.153
G1 F1800 X137.846 Y83.676 E65.63079
G1 X137.776 Y83.606
G0 F5400 X137.281 Y83.676
G1 F1800 X146.323 Y92.717 E66.05501
G1 X146.393 Y92.787
G0 F5400 X146.323 Y93.282
G1 F1800 X136.717 Y83.676 E66.50572
G1 X136.647 Y83.606
G0 F5400 X136.153 Y83.676
G1 F1800 X146.323 Y93.846 E66.98288
G1 X146.393 Y93.916
G0 F5400 X146.323 Y94.41
G1 F1800 X135.589 Y83.676 E67.48652
G1 X135.519 Y83.606
G0 F5400 X135.024 Y83.676
G1 F1800 X146.323 Y94.975 E68.01666
G1 X146.393 Y95.045
G0 F5400 X146.323 Y95.539
G1 F1800 X134.46 Y83.676 E68.57326
G1 X134.39 Y83.606
G0 F5400 X133.896 Y83.676
G1 F1800 X146.323 Y96.103 E69.15633
G1 X146.393 Y96.173
G0 F5400 X145.98 Y96.324
G1 F1800 X133.675 Y84.019 E69.73367
G1 X133.605 Y83.949
G0 F5400 X133.675 Y84.583
G1 F1800 X145.415 Y96.324 E70.28453
G1 X145.485 Y96.394
G0 F5400 X144.851 Y96.324
G1 F1800 X133.675 Y85.147 E70.80892
G1 X133.605 Y85.077
G0 F5400 X133.675 Y85.711
G1 F1800 X144.287 Y96.324 E71.30685
G1 X144.357 Y96.394
G0 F5400 X143.722 Y96.324
G1 F1800 X133.675 Y86.276 E71.77828
G1 X133.605 Y86.206
G0 F5400 X133.675 Y86.84
G1 F1800 X143.158 Y96.324 E72.22324
G1 X143.228 Y96.394
G0 F5400 X142.594 Y96.324
G1 F1800 X133.675 Y87.404 E72.64173
G1 X133.605 Y87.334
G0 F5400 X133.675 Y87.969
G1 F1800 X142.03 Y96.324 E73.03374
G1 X142.1 Y96.394
G0 F5400 X141.465 Y96.324
G1 F1800 X133.675 Y88.533 E73.39927
G1 X133.605 Y88.463
G0 F5400 X133.675 Y89.097
G1 F1800 X140.901 Y96.324 E73.73833
G1 X140.971 Y96.394
G0 F5400 X140.337 Y96.324
G1 F1800 X133.675 Y89.661 E74.05093
G1 X133.606 Y89.591
G0 F5400 X133.675 Y90.226
G1 F1800 X139.773 Y96.324 E74.33705
G1 X139.843 Y96.394
G0 F5400 X139.208 Y96.324
G1 F1800 X133.675 Y90.79 E74.59667
G1 X133.605 Y90.72
G0 F5400 X133.675 Y91.354
G1 F1800 X138.644 Y96.324 E74.82984
G1 X138.714 Y96.394
G0 F5400 X138.08 Y96.324
G1 F1800 X133.675 Y91.918 E75.03654
G1 X133.606 Y91.848
