;FLAVOR:RepRap
;TIME:1765
;Filament used: 1.54719m
;Layer height: 0.2
;Generated with Cura_SteamEngine 2.5.0-twosilly
M190 S50
M104 S210
M109 S210
G28 ;Home
G1 Z15.0 F6000 ;Move the platform down 15mm
;Prime the extruder
G92 E0
G1 F200 E10
G92 E0
;LAYER_COUNT:150
;LAYER:0
M107
G0 F2700 X128.414 Y80.195 Z0.3
;TYPE:SKIRT
G1 F1200 X128.864 Y79.624 E0.03618
G1 X129.374 Y79.107 E0.07232
G1 X129.846 Y78.717 E0.10279
G1 X130.233 Y78.426 E0.12689
G1 X130.837 Y78.022 E0.16305
G1 X131.481 Y77.687 E0.19918
G1 X132.158 Y77.424 E0.23532
G1 X132.782 Y77.255 E0.26749
G1 X133.014 Y77.204 E0.27931
G1 X133.731 Y77.087 E0.31547
G1 X134.44 Y77.05 E0.3508
G1 X145.687 Y77.065 E0.91051
G1 X146.412 Y77.106 E0.94665
G1 X147.128 Y77.226 E0.98278
G1 X147.827 Y77.425 E1.01895
G1 X148.362 Y77.635 E1.04755
G1 X148.69 Y77.781 E1.06542
G1 X149.336 Y78.113 E1.10156
G1 X149.942 Y78.513 E1.1377
G1 X150.5 Y78.978 E1.17384
G1 X151.004 Y79.501 E1.20999
G1 X151.271 Y79.831 E1.23111
G1 X151.565 Y80.22 E1.25538
G1 X151.97 Y80.823 E1.29153
G1 X152.307 Y81.466 E1.32766
G1 X152.571 Y82.143 E1.36382
G1 X152.745 Y82.782 E1.39678
G1 X152.796 Y83.014 E1.4086
G1 X152.913 Y83.731 E1.44475
G1 X152.95 Y84.44 E1.48008
G1 X152.935 Y95.687 E2.0398
G1 X152.894 Y96.412 E2.07593
G1 X152.774 Y97.128 E2.11206
G1 X152.575 Y97.827 E2.14823
G1 X152.377 Y98.334 E2.17532
G1 X152.235 Y98.657 E2.19288
G1 X151.907 Y99.305 E2.22902
G1 X151.509 Y99.912 E2.26514
G1 X151.047 Y100.473 E2.30131
G1 X150.513 Y100.99 E2.3383
G1 X150.215 Y101.248 E2.35792
G1 X149.641 Y101.692 E2.39403
G1 X149.021 Y102.071 E2.43019
G1 X148.363 Y102.379 E2.46635
G1 X147.954 Y102.529 E2.48803
G1 X147.695 Y102.614 E2.50159
G1 X146.993 Y102.802 E2.53776
G1 X146.275 Y102.912 E2.57391
G1 X145.632 Y102.943 E2.60594
G1 X134.314 Y102.934 E3.16919
G1 X133.589 Y102.893 E3.20533
G1 X132.872 Y102.773 E3.24151
G1 X132.173 Y102.575 E3.27766
G1 X131.658 Y102.374 E3.30517
G1 X131.338 Y102.233 E3.32258
G1 X130.691 Y101.904 E3.3587
G1 X130.083 Y101.506 E3.39486
G1 X129.523 Y101.043 E3.43102
G1 X129.009 Y100.512 E3.4678
G1 X128.752 Y100.215 E3.48735
G1 X128.308 Y99.64 E3.5235
G1 X127.929 Y99.021 E3.55962
G1 X127.621 Y98.363 E3.59577
G1 X127.477 Y97.969 E3.61665
G1 X127.391 Y97.709 E3.63028
G1 X127.201 Y97.008 E3.66642
G1 X127.089 Y96.291 E3.70254
G1 X127.057 Y95.638 E3.73507
G1 X127.056 Y84.371 E4.29578
G1 X127.096 Y83.645 E4.33197
G1 X127.215 Y82.929 E4.36809
G1 X127.413 Y82.23 E4.40424
G1 X127.558 Y81.844 E4.42476
G1 X127.715 Y81.465 E4.44518
G1 X128.03 Y80.811 E4.4813
G1 X128.414 Y80.195 E4.51743
G0 F2700 X128.766 Y80.389
G1 F1200 X129.207 Y79.84 E4.55247
G1 X129.707 Y79.345 E4.58748
G1 X130.086 Y79.036 E4.61182
G1 X130.473 Y78.745 E4.63592
G1 X131.059 Y78.354 E4.67097
G1 X131.685 Y78.033 E4.70598
G1 X132.344 Y77.784 E4.74104
G1 X132.868 Y77.645 E4.76802
G1 X133.1 Y77.594 E4.77984
G1 X133.795 Y77.482 E4.81488
G1 X134.439 Y77.449 E4.84697
G1 X145.686 Y77.464 E5.40668
G1 X146.389 Y77.505 E5.44172
G1 X147.083 Y77.625 E5.47677
G1 X147.758 Y77.823 E5.51178
G1 X148.199 Y78 E5.53543
G1 X148.527 Y78.146 E5.5533
G1 X149.153 Y78.468 E5.58833
G1 X149.738 Y78.859 E5.62335
G1 X150.276 Y79.314 E5.65841
G1 X150.952 Y80.072 E5.70896
G1 X151.246 Y80.461 E5.73322
G1 X151.638 Y81.046 E5.76827
G1 X151.961 Y81.671 E5.80328
G1 X152.211 Y82.329 E5.83831
G1 X152.355 Y82.868 E5.86607
G1 X152.406 Y83.1 E5.87789
G1 X152.518 Y83.795 E5.91293
G1 X152.551 Y84.439 E5.94502
G1 X152.536 Y95.686 E6.50473
G1 X152.495 Y96.389 E6.53977
G1 X152.375 Y97.083 E6.57482
G1 X152.177 Y97.758 E6.60983
G1 X152.012 Y98.173 E6.63206
G1 X151.87 Y98.496 E6.64962
G1 X151.55 Y99.124 E6.68469
G1 X151.162 Y99.711 E6.71971
G1 X150.709 Y100.25 E6.75475
G1 X150.252 Y100.688 E6.78625
G1 X149.954 Y100.946 E6.80587
G1 X149.397 Y101.376 E6.84088
G1 X148.794 Y101.74 E6.87594
G1 X147.829 Y102.15 E6.92811
G1 X147.57 Y102.235 E6.94168
G1 X146.89 Y102.416 E6.9767
G1 X146.194 Y102.519 E7.01171
G1 X145.632 Y102.544 E7.03971
G1 X134.314 Y102.535 E7.60295
G1 X133.611 Y102.494 E7.638
G1 X132.918 Y102.375 E7.67299
G1 X132.242 Y102.177 E7.70805
G1 X131.819 Y102.009 E7.7307
G1 X131.499 Y101.868 E7.7481
G1 X130.872 Y101.548 E7.78313
G1 X130.285 Y101.159 E7.81818
G1 X129.746 Y100.706 E7.85321
G1 X129.311 Y100.251 E7.88454
G1 X129.054 Y99.954 E7.90409
G1 X128.624 Y99.396 E7.93914
G1 X128.26 Y98.794 E7.97415
G1 X127.856 Y97.844 E8.02553
G1 X127.77 Y97.584 E8.03916
G1 X127.587 Y96.904 E8.0742
G1 X127.482 Y96.208 E8.10923
G1 X127.456 Y95.638 E8.13763
G1 X127.455 Y84.371 E8.69833
G1 X127.495 Y83.668 E8.73338
G1 X127.614 Y82.974 E8.76842
G1 X127.927 Y81.997 E8.81947
G1 X128.084 Y81.618 E8.83989
G1 X128.39 Y80.984 E8.87492
G1 X128.766 Y80.389 E8.90995
G1 F3600 E2.40995
G0 F2700 X133.199 Y83.698
G0 X134.298 Y84.362
G0 X134.636 Y84.631
;TYPE:WALL-INNER
G1 F3600 E8.90995
G1 F1200 X145.369 Y84.636 E9.44408
G1 X145.364 Y95.369 E9.97821
G1 X134.631 Y95.364 E10.51235
G1 X134.636 Y84.631 E11.04648
G0 F2700 X134.538 Y84.232
G1 F1200 X145.543 Y84.237 E11.59415
G1 X145.618 Y84.26 E11.59805
G1 X145.689 Y84.311 E11.6024
G1 X145.74 Y84.382 E11.60675
G1 X145.763 Y84.457 E11.61066
G1 X145.768 Y84.518 E11.6137
G1 X145.763 Y95.524 E12.16142
G1 X145.763 Y95.543 E12.16237
G1 X145.74 Y95.618 E12.16627
G1 X145.689 Y95.689 E12.17062
G1 X145.618 Y95.74 E12.17497
G1 X145.543 Y95.763 E12.17888
G1 X145.481 Y95.768 E12.18197
G1 X145.462 Y95.768 E12.18292
G1 X134.457 Y95.763 E12.73059
G1 X134.382 Y95.74 E12.73449
G1 X134.311 Y95.689 E12.73884
G1 X134.26 Y95.618 E12.74319
G1 X134.237 Y95.543 E12.7471
G1 X134.232 Y95.482 E12.75014
G1 X134.237 Y84.476 E13.29786
G1 X134.237 Y84.457 E13.29881
G1 X134.26 Y84.382 E13.30271
G1 X134.311 Y84.311 E13.30706
G1 X134.382 Y84.26 E13.31141
G1 X134.457 Y84.237 E13.31532
G1 X134.519 Y84.232 E13.31841
G1 X134.538 Y84.232 E13.31936
G0 F2700 X134.501 Y83.834
;TYPE:WALL-OUTER
G1 F1200 X145.499 Y83.834 E13.86668
G1 X145.602 Y83.842 E13.87182
G1 X145.707 Y83.866 E13.87718
G1 X145.803 Y83.907 E13.88237
G1 X145.889 Y83.959 E13.88737
G1 X145.971 Y84.029 E13.89274
G1 X146.041 Y84.111 E13.89811
G1 X146.093 Y84.197 E13.90311
G1 X146.134 Y84.293 E13.9083
G1 X146.158 Y84.398 E13.91366
G1 X146.166 Y84.5 E13.91875
G1 X146.166 Y95.5 E14.46617
G1 X146.158 Y95.602 E14.47127
G1 X146.134 Y95.707 E14.47663
G1 X146.093 Y95.803 E14.48182
G1 X146.041 Y95.889 E14.48682
G1 X145.971 Y95.971 E14.49219
G1 X145.889 Y96.041 E14.49755
G1 X145.803 Y96.093 E14.50255
G1 X145.707 Y96.134 E14.50775
G1 X145.602 Y96.158 E14.51311
G1 X145.499 Y96.166 E14.51825
G1 X134.501 Y96.166 E15.06557
G1 X134.398 Y96.158 E15.07071
G1 X134.293 Y96.134 E15.07607
G1 X134.197 Y96.093 E15.08127
G1 X134.111 Y96.041 E15.08627
G1 X134.029 Y95.971 E15.09163
G1 X133.959 Y95.889 E15.097
G1 X133.907 Y95.803 E15.102
G1 X133.866 Y95.707 E15.1072
G1 X133.842 Y95.602 E15.11256
G1 X133.834 Y95.5 E15.11765
G1 X133.834 Y84.5 E15.66507
G1 X133.842 Y84.398 E15.67016
G1 X133.866 Y84.293 E15.67552
G1 X133.907 Y84.197 E15.68072
G1 X133.959 Y84.111 E15.68572
G1 X134.029 Y84.029 E15.69108
G1 X134.111 Y83.959 E15.69645
G1 X134.197 Y83.907 E15.70145
G1 X134.293 Y83.866 E15.70664
G1 X134.398 Y83.842 E15.712
G1 X134.501 Y83.834 E15.71715
G0 F2700 X134.701 Y83.834
G0 X134.7 Y84.332
G0 X145.17 Y84.835
G0 X145.188 Y85.376
;TYPE:SKIN
G1 F1200 X144.628 Y84.816 E15.75656
G0 F2700 X144.064 Y84.816
G1 F1200 X145.188 Y85.94 E15.83566
G1 X145.258 Y86.01
G0 F2700 X145.188 Y86.503
G1 F1200 X143.499 Y84.815 E15.9545
G1 X143.429 Y84.745
G0 F2700 X142.935 Y84.815
G1 F1200 X145.188 Y87.068 E16.11306
G1 X145.258 Y87.138
G0 F2700 X145.187 Y87.631
G1 F1200 X142.371 Y84.815 E16.31125
G1 X142.301 Y84.745
G0 F2700 X141.806 Y84.814
G1 F1200 X145.187 Y88.196 E16.54924
G1 X145.256 Y88.266
G0 F2700 X145.186 Y88.759
G1 F1200 X141.241 Y84.814 E16.82688
G1 X141.171 Y84.744
G0 F2700 X140.676 Y84.813
G1 F1200 X145.186 Y89.323 E17.14429
G1 X145.256 Y89.393
G0 F2700 X145.186 Y89.888
G1 F1200 X140.112 Y84.813 E17.50143
G1 X140.042 Y84.743
G0 F2700 X139.548 Y84.813
G1 F1200 X145.185 Y90.451 E17.89819
G1 X145.255 Y90.521
G0 F2700 X145.185 Y91.015
G1 F1200 X138.983 Y84.813 E18.33468
G1 X138.913 Y84.743
G0 F2700 X138.418 Y84.813
G1 F1200 X145.185 Y91.579 E18.8109
G1 X145.255 Y91.649
G0 F2700 X145.185 Y92.143
G1 F1200 X137.854 Y84.813 E19.32681
G1 X137.784 Y84.743
G0 F2700 X137.289 Y84.812
G1 F1200 X145.184 Y92.707 E19.88246
G1 X145.254 Y92.777
G0 F2700 X145.184 Y93.271
G1 F1200 X136.725 Y84.812 E20.47779
G1 X136.655 Y84.742
G0 F2700 X136.16 Y84.811
G1 F1200 X145.184 Y93.835 E21.11289
G1 X145.254 Y93.905
G0 F2700 X145.183 Y94.399
G1 F1200 X135.596 Y84.811 E21.78765
G1 X135.526 Y84.741
G0 F2700 X135.031 Y84.811
G1 F1200 X145.183 Y94.963 E22.50214
G1 X145.253 Y95.033
G0 F2700 X144.844 Y95.188
G1 F1200 X134.814 Y85.158 E23.20804
G1 X134.744 Y85.088
G0 F2700 X134.814 Y85.722
G1 F1200 X144.28 Y95.188 E23.87425
G1 X144.35 Y95.258
G0 F2700 X143.715 Y95.188
G1 F1200 X134.814 Y86.286 E24.50073
G1 X134.744 Y86.216
G0 F2700 X134.813 Y86.85
G1 F1200 X143.15 Y95.187 E25.08748
G1 X143.22 Y95.257
G0 F2700 X142.586 Y95.187
G1 F1200 X134.813 Y87.414 E25.63453
G1 X134.743 Y87.344
G0 F2700 X134.813 Y87.978
G1 F1200 X142.021 Y95.187 E26.14186
G1 X142.091 Y95.257
G0 F2700 X141.457 Y95.187
G1 F1200 X134.812 Y88.542 E26.60953
G1 X134.742 Y88.472
G0 F2700 X134.812 Y89.106
G1 F1200 X140.893 Y95.187 E27.0375
G1 X140.963 Y95.257
G0 F2700 X140.328 Y95.186
G1 F1200 X134.812 Y89.671 E27.42568
G1 X134.742 Y89.602
G0 F2700 X134.812 Y90.234
G1 F1200 X139.763 Y95.186 E27.77416
G1 X139.833 Y95.256
G0 F2700 X139.198 Y95.185
G1 F1200 X134.812 Y90.798 E28.08288
G1 X134.742 Y90.728
G0 F2700 X134.812 Y91.363
G1 F1200 X138.634 Y95.185 E28.35187
G1 X138.704 Y95.255
G0 F2700 X138.07 Y95.185
G1 F1200 X134.811 Y91.926 E28.58123
G1 X134.741 Y91.856
G0 F2700 X134.811 Y92.49
G1 F1200 X137.505 Y95.185 E28.77087
G1 X137.575 Y95.255
G0 F2700 X136.941 Y95.185
G1 F1200 X134.811 Y93.055 E28.92078
G1 X134.741 Y92.985
G0 F2700 X134.81 Y93.618
G1 F1200 X136.376 Y95.185 E29.03102
G1 X136.445 Y95.255
G0 F2700 X135.811 Y95.184
G1 F1200 X134.81 Y94.183 E29.10147
G1 X134.74 Y94.113
G0 F2700 X134.81 Y94.747
G1 F1200 X135.247 Y95.184 E29.13223
G0 F2700 X134.367 Y84.404
G0 X134.339 Y84.383
;TIME_ELAPSED:34.432771
;LAYER:1
M140 S50
G1 F3600 E22.63223
M106 S255
G0 F4050 X134.339 Y84.383 Z0.5
;TYPE:WALL-INNER
G1 F3600 E29.13223
G1 F1500 X134.383 Y84.339 E29.13429
G1 X134.431 Y84.313 E29.13611
G1 X134.467 Y84.304 E29.13734
G1 X134.544 Y84.298 E29.1399
G1 X145.456 Y84.298 E29.50193
G1 X145.533 Y84.304 E29.50449
G1 X145.59 Y84.321 E29.50646
G1 X145.641 Y84.359 E29.50857
G1 X145.679 Y84.41 E29.51068
G1 X145.695 Y84.465 E29.51258
G1 X145.702 Y84.543 E29.51518
G1 X145.702 Y95.431 E29.87641
G1 X145.702 Y95.457 E29.87727
G1 X145.687 Y95.569 E29.88102
G1 X145.661 Y95.617 E29.88283
G1 X145.617 Y95.661 E29.8849
G1 X145.569 Y95.687 E29.88671
G1 X145.533 Y95.696 E29.88794
G1 X145.456 Y95.702 E29.8905
G1 X145.43 Y95.702 E29.89137
G1 X134.528 Y95.7 E30.25306
G1 X134.432 Y95.684 E30.25629
G1 X134.382 Y95.656 E30.25819
G1 X134.326 Y95.596 E30.26091
G1 X134.311 Y95.562 E30.26215
G1 X134.298 Y95.457 E30.26566
G1 X134.298 Y84.543 E30.62775
G1 X134.313 Y84.431 E30.6315
G1 X134.339 Y84.383 E30.63331
G0 F4050 X133.899 Y84.521
G1 F1500 X133.909 Y84.404 E30.63721
G1 X133.93 Y84.314 E30.64027
G1 X133.966 Y84.226 E30.64343
G1 X134.015 Y84.148 E30.64648
G1 X134.076 Y84.076 E30.64961
G1 X134.148 Y84.015 E30.65275
G1 X134.226 Y83.966 E30.6558
G1 X134.314 Y83.93 E30.65896
G1 X134.404 Y83.909 E30.66202
G1 X134.523 Y83.899 E30.66598
G1 X145.477 Y83.899 E31.0294
G1 X145.596 Y83.909 E31.03337
G1 X145.686 Y83.93 E31.03643
G1 X145.774 Y83.966 E31.03959
G1 X145.852 Y84.015 E31.04264
G1 X145.924 Y84.076 E31.04577
G1 X145.985 Y84.148 E31.0489
G1 X146.034 Y84.226 E31.05196
G1 X146.07 Y84.314 E31.05512
G1 X146.091 Y84.404 E31.05818
G1 X146.101 Y84.521 E31.06208
G1 X146.101 Y95.479 E31.42563
G1 X146.091 Y95.596 E31.42953
G1 X146.07 Y95.686 E31.43259
G1 X146.034 Y95.774 E31.43575
G1 X145.985 Y95.852 E31.4388
G1 X145.924 Y95.924 E31.44193
G1 X145.852 Y95.985 E31.44506
G1 X145.774 Y96.034 E31.44812
G1 X145.686 Y96.07 E31.45128
G1 X145.596 Y96.091 E31.45434
G1 X145.477 Y96.101 E31.4583
G1 X134.509 Y96.099 E31.82219
G1 X134.398 Y96.088 E31.82589
G1 X134.304 Y96.064 E31.82911
G1 X134.227 Y96.03 E31.8319
G1 X134.137 Y95.973 E31.83543
G1 X134.072 Y95.915 E31.83833
G1 X134.009 Y95.84 E31.84157
G1 X133.964 Y95.768 E31.84439
G1 X133.93 Y95.686 E31.84734
G1 X133.909 Y95.596 E31.8504
G1 X133.899 Y95.479 E31.8543
G1 X133.899 Y84.521 E32.21785
G0 F4050 X133.501 Y84.5
;TYPE:WALL-OUTER
G1 F1500 X133.514 Y84.343 E32.22308
G1 X133.55 Y84.193 E32.2282
G1 X133.612 Y84.042 E32.23361
G1 X133.691 Y83.914 E32.2386
G1 X133.794 Y83.794 E32.24385
G1 X133.914 Y83.691 E32.2491
G1 X134.042 Y83.612 E32.25409
G1 X134.193 Y83.55 E32.2595
G1 X134.343 Y83.514 E32.26462
G1 X134.503 Y83.501 E32.26995
G1 X145.497 Y83.501 E32.63469
G1 X145.657 Y83.514 E32.64002
G1 X145.807 Y83.55 E32.64514
G1 X145.958 Y83.612 E32.65055
G1 X146.086 Y83.691 E32.65554
G1 X146.206 Y83.794 E32.66079
G1 X146.309 Y83.914 E32.66604
G1 X146.388 Y84.042 E32.67103
G1 X146.45 Y84.193 E32.67644
G1 X146.486 Y84.343 E32.68156
G1 X146.499 Y84.5 E32.68679
G1 X146.499 Y95.5 E33.05173
G1 X146.486 Y95.657 E33.05696
G1 X146.45 Y95.807 E33.06208
G1 X146.388 Y95.958 E33.06749
G1 X146.309 Y96.086 E33.07248
G1 X146.206 Y96.206 E33.07773
G1 X146.086 Y96.309 E33.08298
G1 X145.958 Y96.388 E33.08797
G1 X145.807 Y96.45 E33.09338
G1 X145.657 Y96.486 E33.0985
G1 X145.497 Y96.499 E33.10383
G1 X134.49 Y96.497 E33.46901
G1 X134.329 Y96.481 E33.47437
G1 X134.175 Y96.441 E33.47965
G1 X134.036 Y96.381 E33.48468
G1 X133.898 Y96.293 E33.49011
G1 X133.786 Y96.194 E33.49507
G1 X133.687 Y96.074 E33.50023
G1 X133.61 Y95.951 E33.50504
G1 X133.55 Y95.807 E33.51022
G1 X133.514 Y95.657 E33.51533
G1 X133.501 Y95.5 E33.52056
G1 X133.501 Y84.5 E33.88551
G0 F4050 X133.514 Y84.343
G0 X133.524 Y84.302
G0 X134.008 Y84.416
G0 X134.503 Y84.5
G0 X135.023 Y84.478
;TYPE:SKIN
G1 F1500 X134.477 Y85.023 E33.9111
G0 F4050 X134.477 Y85.588
G1 F1500 X135.587 Y84.478 E33.96318
G1 X135.657 Y84.408
G0 F4050 X136.151 Y84.478
G1 F1500 X134.477 Y86.152 E34.04173
G1 X134.407 Y86.222
G0 F4050 X134.477 Y86.716
G1 F1500 X136.716 Y84.478 E34.14675
G1 X136.786 Y84.408
G0 F4050 X137.28 Y84.478
G1 F1500 X134.477 Y87.281 E34.27827
G1 X134.407 Y87.351
G0 F4050 X134.477 Y87.845
G1 F1500 X137.844 Y84.478 E34.43625
G1 X137.914 Y84.408
G0 F4050 X138.409 Y84.478
G1 F1500 X134.477 Y88.409 E34.62071
G1 X134.407 Y88.479
G0 F4050 X134.477 Y88.973
G1 F1500 X138.973 Y84.478 E34.83164
G1 X139.043 Y84.408
G0 F4050 X139.537 Y84.478
G1 F1500 X134.477 Y89.538 E35.06905
G1 X134.407 Y89.608
G0 F4050 X134.477 Y90.102
G1 F1500 X140.101 Y84.478 E35.33292
G1 X140.171 Y84.408
G0 F4050 X140.666 Y84.478
G1 F1500 X134.477 Y90.666 E35.62328
G1 X134.407 Y90.736
G0 F4050 X134.477 Y91.23
G1 F1500 X141.23 Y84.478 E35.94011
G1 X141.3 Y84.408
G0 F4050 X141.794 Y84.478
G1 F1500 X134.477 Y91.795 E36.28341
G1 X134.407 Y91.865
G0 F4050 X134.477 Y92.359
G1 F1500 X142.358 Y84.478 E36.65319
G1 X142.428 Y84.408
G0 F4050 X142.923 Y84.478
G1 F1500 X134.477 Y92.923 E37.04944
G1 X134.407 Y92.993
G0 F4050 X134.477 Y93.488
G1 F1500 X143.487 Y84.478 E37.47219
G1 X143.557 Y84.408
G0 F4050 X144.051 Y84.478
G1 F1500 X134.477 Y94.052 E37.92139
G1 X134.407 Y94.122
G0 F4050 X134.477 Y94.616
G1 F1500 X144.616 Y84.478 E38.39708
G1 X144.686 Y84.408
G0 F4050 X145.18 Y84.478
G1 F1500 X134.477 Y95.18 E38.89924
G1 X134.407 Y95.25
G0 F4050 X134.702 Y95.52
G1 F1500 X145.521 Y84.701 E39.40686
G1 X145.591 Y84.631
G0 F4050 X145.521 Y85.265
G1 F1500 X135.266 Y95.52 E39.88802
G1 X135.196 Y95.59
G0 F4050 X135.83 Y95.52
G1 F1500 X145.521 Y85.83 E40.34269
G1 X145.591 Y85.76
G0 F4050 X145.521 Y86.394
G1 F1500 X136.395 Y95.52 E40.77087
G1 X136.325 Y95.59
G0 F4050 X136.959 Y95.52
G1 F1500 X145.521 Y86.958 E41.1726
G1 X145.591 Y86.888
G0 F4050 X145.521 Y87.522
G1 F1500 X137.523 Y95.52 E41.54786
G1 X137.453 Y95.59
G0 F4050 X138.087 Y95.52
G1 F1500 X145.521 Y88.087 E41.89663
G1 X145.591 Y88.017
G0 F4050 X145.521 Y88.651
