;FLAVOR:RepRap
;TIME:3743
;Filament used: 3.38631m
;Layer height: 0.2
;Generated with Cura_SteamEngine 2.5.0-twosilly
M190 S50
M104 S210
M109 S210
G28 ;Home
G1 Z15.0 F6000 ;Move the platform down 15mm
;Prime the extruder
G92 E0
G1 F200 E10
G92 E0
;LAYER_COUNT:17
;LAYER:0
M107
G0 F2700 X66.412 Y122.049 Z0.3
;TYPE:SKIRT
G1 F1200 X67.056 Y121.713 E0.03615
G1 X67.733 Y121.449 E0.07231
G1 X68.434 Y121.262 E0.10842
G1 X68.831 Y121.191 E0.12849
G1 X73.169 Y120.557 E0.34666
G1 X75.675 Y120.104 E0.4734
G1 X80.91 Y118.924 E0.74046
G1 X83.406 Y118.25 E0.86912
G1 X88.467 Y116.648 E1.1333
G1 X93.423 Y114.765 E1.39714
G1 X98.223 Y112.622 E1.65874
G1 X102.936 Y110.191 E1.92265
G1 X107.482 Y107.51 E2.18529
G1 X111.874 Y104.572 E2.44826
G1 X116.079 Y101.403 E2.71029
G1 X122.18 Y96.17 E3.1103
G1 X122.857 Y95.661 E3.15245
G1 X126.442 Y93.31 E3.3658
G1 X130.727 Y90.193 E3.6295
G1 X134.827 Y86.839 E3.89311
G1 X138.714 Y83.275 E4.15555
G1 X142.378 Y79.512 E4.41693
G1 X146.865 Y74.276 E4.76009
G1 X147.443 Y73.682 E4.80134
G1 X151.307 Y70.177 E5.06095
G1 X155.088 Y66.408 E5.32664
G1 X158.604 Y62.483 E5.58888
G1 X161.904 Y58.35 E5.85208
G1 X164.96 Y54.045 E6.11481
G1 X167.762 Y49.583 E6.37702
G1 X170.321 Y44.945 E6.64063
G1 X172.609 Y40.179 E6.90373
G1 X174.619 Y35.299 E7.16638
G1 X176.351 Y30.317 E7.42886
G1 X177.818 Y25.174 E7.69502
G1 X178.399 Y22.77 E7.8181
G1 X178.608 Y22.074 E7.85426
G1 X178.893 Y21.406 E7.8904
G1 X179.249 Y20.773 E7.92654
G1 X179.672 Y20.183 E7.96267
G1 X180.158 Y19.643 E7.99883
G1 X180.701 Y19.16 E8.03499
G1 X181.293 Y18.739 E8.07114
G1 X181.927 Y18.386 E8.10726
G1 X182.597 Y18.105 E8.14341
G1 X183.294 Y17.899 E8.17958
G1 X184.008 Y17.771 E8.21568
G1 X184.733 Y17.722 E8.25184
G1 X185.459 Y17.754 E8.28801
G1 X186.177 Y17.864 E8.32416
G1 X186.878 Y18.053 E8.36029
G1 X187.554 Y18.318 E8.39642
G1 X188.197 Y18.656 E8.43257
G1 X188.799 Y19.062 E8.46871
G1 X189.353 Y19.532 E8.50486
G1 X189.741 Y19.933 E8.53263
G1 X212.954 Y46.003 E10.26979
G1 X213.407 Y46.571 E10.30594
G1 X213.794 Y47.185 E10.34206
G1 X214.111 Y47.839 E10.37823
G1 X214.355 Y48.523 E10.41437
G1 X214.522 Y49.23 E10.45053
G1 X214.61 Y49.951 E10.48667
G1 X214.619 Y50.677 E10.52281
G1 X214.547 Y51.4 E10.55896
G1 X214.397 Y52.11 E10.59508
G1 X214.17 Y52.8 E10.63123
G1 X213.868 Y53.461 E10.66739
G1 X213.495 Y54.084 E10.70353
G1 X213.056 Y54.663 E10.73969
G1 X212.413 Y55.32 E10.78544
G1 X96.882 Y158.151 E18.48247
G1 X96.314 Y158.604 E18.51863
G1 X95.7 Y158.991 E18.55475
G1 X95.046 Y159.308 E18.59092
G1 X94.362 Y159.551 E18.62704
G1 X93.655 Y159.718 E18.66319
G1 X92.934 Y159.806 E18.69934
G1 X92.208 Y159.815 E18.73547
G1 X91.485 Y159.743 E18.77163
G1 X90.775 Y159.593 E18.80774
G1 X90.085 Y159.365 E18.84391
G1 X89.424 Y159.063 E18.88007
G1 X88.801 Y158.69 E18.91621
G1 X88.222 Y158.251 E18.95237
G1 X87.567 Y157.611 E18.99794
G1 X64.857 Y132.11 E20.6973
G1 X64.404 Y131.542 E20.73346
G1 X64.017 Y130.927 E20.76962
G1 X63.7 Y130.274 E20.80575
G1 X63.456 Y129.59 E20.84189
G1 X63.289 Y128.883 E20.87804
G1 X63.201 Y128.162 E20.91419
G1 X63.192 Y127.436 E20.95032
G1 X63.263 Y126.713 E20.98647
G1 X63.414 Y126.002 E21.02264
G1 X63.641 Y125.312 E21.05879
G1 X63.943 Y124.652 E21.09491
G1 X64.316 Y124.028 E21.13109
G1 X64.755 Y123.45 E21.16721
G1 X65.255 Y122.923 E21.20336
G1 X65.809 Y122.454 E21.23949
G1 X66.412 Y122.049 E21.27564
G0 F2700 X66.314 Y122.584
G1 F1200 X66.918 Y122.223 E21.31065
G1 X67.56 Y121.934 E21.34569
G1 X68.23 Y121.719 E21.38071
G1 X68.889 Y121.586 E21.41417
G1 X73.209 Y120.955 E21.63143
G1 X75.782 Y120.489 E21.76156
G1 X81.01 Y119.311 E22.02826
G1 X83.497 Y118.639 E22.15647
G1 X88.603 Y117.023 E22.42299
G1 X93.564 Y115.138 E22.6871
G1 X98.412 Y112.975 E22.95129
G1 X103.13 Y110.54 E23.21551
G1 X107.694 Y107.848 E23.4792
G1 X112.103 Y104.9 E23.74315
G1 X116.33 Y101.713 E24.0066
G1 X122.44 Y96.473 E24.40717
G1 X123.076 Y95.994 E24.44679
G1 X126.674 Y93.635 E24.6609
G1 X130.978 Y90.503 E24.9258
G1 X135.077 Y87.15 E25.18934
G1 X138.997 Y83.557 E25.45397
G1 X142.677 Y79.777 E25.71651
G1 X147.168 Y74.536 E26.05999
G1 X147.711 Y73.978 E26.09874
G1 X151.586 Y70.463 E26.3591
G1 X155.368 Y66.693 E26.62485
G1 X158.915 Y62.735 E26.88934
G1 X162.218 Y58.596 E27.15287
G1 X165.286 Y54.275 E27.41659
G1 X168.111 Y49.775 E27.68101
G1 X170.68 Y45.119 E27.94565
G1 X172.971 Y40.347 E28.20908
G1 X174.993 Y35.44 E28.4732
G1 X176.734 Y30.432 E28.73706
G1 X178.203 Y25.281 E29.00362
G1 X178.787 Y22.864 E29.12736
G1 X178.991 Y22.19 E29.16241
G1 X179.27 Y21.544 E29.19743
G1 X179.62 Y20.933 E29.23247
G1 X180.038 Y20.366 E29.26752
G1 X180.517 Y19.851 E29.30253
G1 X181.052 Y19.392 E29.33761
G1 X181.635 Y18.998 E29.37262
G1 X182.259 Y18.672 E29.40766
G1 X182.915 Y18.419 E29.44265
G1 X183.597 Y18.241 E29.47773
G1 X184.294 Y18.143 E29.51276
G1 X184.998 Y18.124 E29.5478
G1 X185.699 Y18.185 E29.58282
G1 X186.389 Y18.325 E29.61786
G1 X187.058 Y18.542 E29.65286
G1 X187.699 Y18.834 E29.68791
G1 X188.303 Y19.196 E29.72296
G1 X188.861 Y19.625 E29.75798
G1 X189.443 Y20.198 E29.79863
G1 X212.656 Y46.268 E31.53578
G1 X213.094 Y46.82 E31.57085
G1 X213.466 Y47.417 E31.60586
G1 X213.768 Y48.053 E31.6409
G1 X213.996 Y48.719 E31.67593
G1 X214.147 Y49.407 E31.71098
G1 X214.219 Y50.107 E31.746
G1 X214.212 Y50.811 E31.78104
G1 X214.124 Y51.509 E31.81605
G1 X213.958 Y52.193 E31.85108
G1 X213.716 Y52.854 E31.88611
G1 X213.4 Y53.483 E31.92114
G1 X213.015 Y54.073 E31.9562
G1 X212.565 Y54.614 E31.99122
G1 X212.148 Y55.022 E32.02025
G1 X96.617 Y157.853 E39.71729
G1 X96.066 Y158.291 E39.75232
G1 X95.468 Y158.663 E39.78736
G1 X94.832 Y158.965 E39.8224
G1 X94.166 Y159.193 E39.85743
G1 X93.478 Y159.344 E39.89249
G1 X92.778 Y159.416 E39.92751
G1 X92.074 Y159.408 E39.96254
G1 X91.376 Y159.32 E39.99756
G1 X90.691 Y159.154 E40.03263
G1 X90.031 Y158.911 E40.06763
G1 X89.402 Y158.595 E40.10266
G1 X88.812 Y158.21 E40.13772
G1 X88.271 Y157.76 E40.17274
G1 X87.865 Y157.345 E40.20163
G1 X65.155 Y131.844 E41.901
G1 X64.717 Y131.293 E41.93603
G1 X64.345 Y130.695 E41.97107
G1 X64.043 Y130.06 E42.00607
G1 X63.815 Y129.393 E42.04115
G1 X63.664 Y128.706 E42.07615
G1 X63.592 Y128.006 E42.11117
G1 X63.599 Y127.302 E42.14621
G1 X63.687 Y126.603 E42.18127
G1 X63.853 Y125.919 E42.21629
G1 X64.095 Y125.258 E42.25133
G1 X64.411 Y124.629 E42.28636
G1 X64.796 Y124.04 E42.32137
G1 X65.246 Y123.498 E42.35643
G1 X65.754 Y123.011 E42.39145
G1 X66.314 Y122.584 E42.4265
G1 F3600 E35.9265
G0 F2700 X70.917 Y126.95
G0 X71.024 Y128.215
G0 X72.232 Y128.506
;TYPE:WALL-INNER
G1 F3600 E42.4265
G1 F1200 X99.859 Y126.189 E43.8062
G1 X126.237 Y102.71 E45.5636
G1 X126.385 Y102.578 E45.57347
G1 X126.517 Y102.726 E45.57985
G1 X134.448 Y111.637 E46.17352
G1 X161.333 Y87.708 E47.96466
G1 X153.402 Y78.797 E48.55832
G1 X153.27 Y78.649 E48.56819
G1 X153.418 Y78.517 E48.57457
G1 X180.561 Y54.359 E50.38288
G1 X185.365 Y26.9 E51.77015
G1 X185.366 Y26.899 E51.77022
G1 X185.436 Y26.495 E51.79062
G1 X185.709 Y26.802 E51.80186
G1 X206.634 Y50.31 E53.36807
G1 X92.57 Y151.835 E60.96736
G1 X72.1 Y128.837 E62.49956
G1 X71.835 Y128.539 E62.51941
G1 X72.232 Y128.506 E62.53036
G0 F2700 X99.708 Y125.839
G0 X122.907 Y118.367
G1 F1200 X123.05 Y118.765 E62.5514
G1 X123.258 Y119.137 E62.57261
G1 X123.528 Y119.465 E62.59376
G1 X123.847 Y119.742 E62.61478
G1 X124.211 Y119.964 E62.636
G1 X124.603 Y120.117 E62.65694
G1 X125.018 Y120.207 E62.67807
G1 X125.443 Y120.221 E62.69923
G1 X125.863 Y120.165 E62.72032
G1 X126.265 Y120.039 E62.74129
G1 X126.643 Y119.847 E62.76238
G1 X126.985 Y119.591 E62.78364
G1 X127.276 Y119.284 E62.8047
G1 X127.512 Y118.933 E62.82574
G1 X127.686 Y118.541 E62.84709
G1 X127.788 Y118.132 E62.86807
G1 X127.821 Y117.711 E62.88908
G1 X127.783 Y117.288 E62.91022
G1 X127.675 Y116.88 E62.93122
G1 X127.499 Y116.494 E62.95233
G1 X127.258 Y116.144 E62.97348
G1 X126.964 Y115.839 E62.99456
G1 X126.621 Y115.589 E63.01568
G1 X126.24 Y115.399 E63.03687
G1 X125.835 Y115.279 E63.05789
G1 X125.416 Y115.227 E63.0789
G1 X124.992 Y115.247 E63.10003
G1 X124.576 Y115.339 E63.12123
G1 X124.184 Y115.5 E63.14232
G1 X123.844 Y115.713 E63.16229
G1 X123.656 Y115.865 E63.17432
G1 X123.493 Y116.024 E63.18565
G1 X123.244 Y116.336 E63.20552
G1 X123.039 Y116.707 E63.22661
G1 X122.9 Y117.108 E63.24773
G1 X122.831 Y117.527 E63.26886
G1 X122.833 Y117.95 E63.28991
G1 X122.907 Y118.367 E63.31099
G0 F2700 X123.369 Y116.854
G0 X123.761 Y116.266
G0 X124.349 Y115.821
G0 X134.479 Y111.113
G0 X160.809 Y87.677
G0 X167.674 Y80.172
G1 F1200 X167.993 Y80.449 E63.33202
G1 X168.357 Y80.671 E63.35323
G1 X168.749 Y80.824 E63.37417
G1 X169.164 Y80.914 E63.39531
G1 X169.589 Y80.928 E63.41647
G1 X170.008 Y80.872 E63.43751
G1 X170.412 Y80.746 E63.45857
G1 X170.791 Y80.554 E63.47971
G1 X171.131 Y80.298 E63.50089
G1 X171.422 Y79.992 E63.52191
G1 X171.657 Y79.639 E63.54301
G1 X171.832 Y79.251 E63.56419
G1 X171.934 Y78.838 E63.58536
G1 X171.967 Y78.418 E63.60633
G1 X171.929 Y77.995 E63.62746
G1 X171.821 Y77.587 E63.64847
G1 X171.645 Y77.201 E63.66958
G1 X171.404 Y76.851 E63.69073
G1 X171.11 Y76.546 E63.71181
G1 X170.767 Y76.296 E63.73293
G1 X170.386 Y76.106 E63.75412
G1 X169.981 Y75.986 E63.77514
G1 X169.562 Y75.934 E63.79615
G1 X169.138 Y75.954 E63.81728
G1 X168.722 Y76.046 E63.83848
G1 X168.33 Y76.207 E63.85957
G1 X167.99 Y76.42 E63.87953
G1 X167.802 Y76.572 E63.89157
G1 X167.639 Y76.731 E63.9029
G1 X167.39 Y77.045 E63.92284
G1 X167.185 Y77.415 E63.94389
G1 X167.046 Y77.815 E63.96497
G1 X166.977 Y78.234 E63.9861
G1 X166.979 Y78.657 E64.00715
G1 X167.053 Y79.074 E64.02823
G1 X167.196 Y79.472 E64.04927
G1 X167.404 Y79.844 E64.07048
G1 X167.674 Y80.172 E64.09162
G0 F2700 X167.961 Y79.893
G1 F1200 X168.229 Y80.126 E64.1093
G1 X168.535 Y80.312 E64.12712
G1 X168.864 Y80.441 E64.1447
G1 X169.213 Y80.516 E64.16247
G1 X169.569 Y80.528 E64.18019
G1 X169.922 Y80.481 E64.19792
G1 X170.261 Y80.375 E64.21559
G1 X170.579 Y80.214 E64.23333
G1 X170.865 Y79.999 E64.25114
G1 X171.109 Y79.742 E64.26877
G1 X171.307 Y79.445 E64.28654
G1 X171.453 Y79.12 E64.30427
G1 X171.539 Y78.774 E64.32201
G1 X171.567 Y78.42 E64.33968
G1 X171.535 Y78.065 E64.35742
G1 X171.444 Y77.722 E64.37508
G1 X171.296 Y77.398 E64.39281
G1 X171.094 Y77.104 E64.41056
G1 X170.847 Y76.848 E64.42826
G1 X170.559 Y76.638 E64.446
G1 X170.239 Y76.479 E64.46378
G1 X169.899 Y76.378 E64.48143
G1 X169.547 Y76.334 E64.49909
G1 X169.191 Y76.351 E64.51682
G1 X168.842 Y76.428 E64.53461
G1 X168.513 Y76.563 E64.55231
G1 X168.222 Y76.745 E64.56939
G1 X168.068 Y76.87 E64.57926
G1 X167.936 Y76.999 E64.58844
G1 X167.723 Y77.267 E64.60548
G1 X167.551 Y77.578 E64.62317
G1 X167.434 Y77.914 E64.64087
G1 X167.376 Y78.266 E64.65863
G1 X167.378 Y78.621 E64.67629
G1 X167.44 Y78.971 E64.69398
G1 X167.56 Y79.306 E64.71169
G1 X167.735 Y79.618 E64.72949
G1 X167.961 Y79.893 E64.74721
G0 F2700 X167.89 Y79.962
G0 X160.869 Y87.68
G0 X160.77 Y87.675
G1 F1200 X152.839 Y78.764 E65.34087
G1 X152.707 Y78.616 E65.35074
G1 X152.855 Y78.484 E65.35712
G1 X180.192 Y54.153 E67.17837
G1 X185.114 Y26.018 E68.59978
G1 X185.115 Y26.017 E68.59985
G1 X185.185 Y25.613 E68.62026
G1 X185.458 Y25.92 E68.63149
G1 X207.065 Y50.195 E70.24878
G1 X207.197 Y50.343 E70.25865
G1 X207.049 Y50.475 E70.26503
G1 X92.537 Y152.398 E77.89415
G1 X71.271 Y128.506 E79.48592
G1 X71.006 Y128.208 E79.50576
G1 X71.403 Y128.175 E79.51671
G1 X99.693 Y125.803 E80.92952
G1 X126.27 Y102.147 E82.70018
G1 X126.418 Y102.015 E82.71005
G1 X126.55 Y102.163 E82.71643
G1 X134.349 Y110.926 E83.30022
G1 X134.481 Y111.074 E83.31009
G1 X134.629 Y110.942 E83.31647
G1 X160.77 Y87.675 E85.05805
G0 F2700 X160.869 Y87.68
G0 X134.479 Y111.113
G0 X127.025 Y116.334
G0 X126.948 Y116.397
G1 F1200 X126.701 Y116.141 E85.07575
G1 X126.413 Y115.931 E85.09349
G1 X126.093 Y115.772 E85.11128
G1 X125.753 Y115.671 E85.12893
G1 X125.401 Y115.627 E85.14658
G1 X125.045 Y115.644 E85.16432
G1 X124.696 Y115.721 E85.1821
G1 X124.367 Y115.856 E85.1998
G1 X124.076 Y116.038 E85.21688
G1 X123.922 Y116.163 E85.22675
G1 X123.79 Y116.292 E85.23594
G1 X123.577 Y116.559 E85.25293
G1 X123.405 Y116.87 E85.27062
G1 X123.288 Y117.207 E85.28837
G1 X123.23 Y117.559 E85.30613
G1 X123.232 Y117.914 E85.32379
G1 X123.294 Y118.264 E85.34148
G1 X123.414 Y118.599 E85.35919
G1 X123.589 Y118.911 E85.37699
G1 X123.815 Y119.186 E85.39471
G1 X124.083 Y119.419 E85.41238
G1 X124.389 Y119.605 E85.4302
G1 X124.718 Y119.734 E85.44779
G1 X125.067 Y119.809 E85.46555
G1 X125.423 Y119.821 E85.48328
G1 X125.776 Y119.774 E85.501
G1 X126.114 Y119.668 E85.51863
G1 X126.432 Y119.507 E85.53637
G1 X126.719 Y119.292 E85.55421
G1 X126.963 Y119.034 E85.57189
G1 X127.161 Y118.739 E85.58957
G1 X127.307 Y118.411 E85.60744
G1 X127.393 Y118.067 E85.62508
G1 X127.421 Y117.713 E85.64275
G1 X127.389 Y117.358 E85.66049
G1 X127.298 Y117.015 E85.67815
G1 X127.15 Y116.691 E85.69588
G1 X126.948 Y116.397 E85.71363
G0 F2700 X126.639 Y116.65
;TYPE:WALL-OUTER
G1 F1200 X126.438 Y116.442 E85.72802
G1 X126.206 Y116.272 E85.74234
G1 X125.947 Y116.144 E85.75672
G1 X125.671 Y116.062 E85.77104
G1 X125.386 Y116.026 E85.78534
G1 X125.098 Y116.04 E85.79969
G1 X124.815 Y116.102 E85.81411
G1 X124.549 Y116.211 E85.82841
G1 X124.308 Y116.362 E85.84257
G1 X124.187 Y116.46 E85.85032
G1 X124.086 Y116.559 E85.85735
G1 X123.909 Y116.781 E85.87148
G1 X123.77 Y117.033 E85.88581
G1 X123.675 Y117.306 E85.90019
G1 X123.628 Y117.59 E85.91452
G1 X123.63 Y117.878 E85.92885
G1 X123.68 Y118.162 E85.9432
G1 X123.777 Y118.433 E85.95752
G1 X123.919 Y118.685 E85.97192
G1 X124.102 Y118.908 E85.98627
G1 X124.319 Y119.097 E86.0006
G1 X124.566 Y119.247 E86.01498
G1 X124.833 Y119.352 E86.02925
G1 X125.116 Y119.412 E86.04365
G1 X125.404 Y119.422 E86.05799
G1 X125.69 Y119.384 E86.07235
G1 X125.964 Y119.298 E86.08664
G1 X126.221 Y119.168 E86.10097
G1 X126.453 Y118.994 E86.11541
G1 X126.651 Y118.785 E86.12973
G1 X126.811 Y118.546 E86.14405
G1 X126.929 Y118.281 E86.15848
G1 X126.999 Y118.002 E86.1728
G1 X127.022 Y117.715 E86.18713
G1 X126.996 Y117.428 E86.20147
G1 X126.922 Y117.15 E86.21578
G1 X126.802 Y116.888 E86.23013
G1 X126.639 Y116.65 E86.24448
G0 F2700 X126.5 Y116.507
G0 X126.859 Y116.161
G0 X134.143 Y110.843
G0 X134.514 Y110.512
G1 F1200 X134.662 Y110.38 E86.25435
G1 X160.208 Y87.642 E87.95631
G1 X152.277 Y78.731 E88.54998
G1 X152.145 Y78.583 E88.55984
G1 X152.293 Y78.451 E88.56622
G1 X179.824 Y53.948 E90.40037
G1 X184.864 Y25.138 E91.85589
G1 X184.865 Y25.137 E91.85596
G1 X184.935 Y24.733 E91.87637
G1 X185.208 Y25.04 E91.8876
G1 X207.627 Y50.228 E93.5657
G1 X207.759 Y50.376 E93.57557
G1 X207.611 Y50.508 E93.58195
G1 X92.504 Y152.96 E101.25068
G1 X70.444 Y128.176 E102.90188
G1 X70.179 Y127.878 E102.92173
G1 X70.576 Y127.845 E102.93267
G1 X99.528 Y125.417 E104.37854
G1 X126.303 Y101.585 E106.16239
G1 X126.451 Y101.453 E106.17225
G1 X126.583 Y101.601 E106.17863
G1 X134.382 Y110.364 E106.76243
G1 X134.514 Y110.512 E106.76881
G0 F2700 X134.662 Y110.38
G0 X134.663 Y110.379
G0 X134.993 Y110.751
G0 X160.809 Y87.677
G0 X167.864 Y79.931
G0 X168.248 Y79.615
G1 F1200 X168.465 Y79.804 E106.78313
G1 X168.712 Y79.954 E106.79751
G1 X168.979 Y80.059 E106.81179
G1 X169.262 Y80.119 E106.82619
G1 X169.55 Y80.129 E106.84053
G1 X169.836 Y80.091 E106.85489
G1 X170.111 Y80.005 E106.86922
G1 X170.368 Y79.875 E106.88356
G1 X170.599 Y79.701 E106.89795
G1 X170.797 Y79.493 E106.91224
G1 X170.957 Y79.252 E106.92664
G1 X171.075 Y78.989 E106.94098
G1 X171.145 Y78.709 E106.95535
G1 X171.168 Y78.422 E106.96967
G1 X171.142 Y78.135 E106.98402
G1 X171.068 Y77.857 E106.99833
G1 X170.948 Y77.595 E107.01267
G1 X170.785 Y77.357 E107.02703
G1 X170.584 Y77.149 E107.04142
G1 X170.352 Y76.979 E107.05574
G1 X170.093 Y76.851 E107.07011
G1 X169.817 Y76.769 E107.08444
G1 X169.532 Y76.733 E107.09874
G1 X169.244 Y76.747 E107.11309
G1 X168.961 Y76.809 E107.12751
G1 X168.695 Y76.918 E107.14181
G1 X168.454 Y77.069 E107.15596
G1 X168.333 Y77.167 E107.16371
G1 X168.232 Y77.266 E107.17075
G1 X168.055 Y77.488 E107.18488
G1 X167.916 Y77.741 E107.19925
G1 X167.821 Y78.013 E107.21359
G1 X167.774 Y78.297 E107.22791
G1 X167.776 Y78.585 E107.24224
G1 X167.826 Y78.869 E107.25659
G1 X167.923 Y79.14 E107.27092
