;FLAVOR:RepRap
;TIME:7009
;Filament used: 6.03464m
;Layer height: 0.2
;Generated with Cura_SteamEngine 2.5.0-twosilly
M190 S50
M104 S210
M109 S210
G28 ;Home
G1 Z15.0 F6000 ;Move the platform down 15mm
;Prime the extruder
G92 E0
G1 F200 E10
G92 E0
;LAYER_COUNT:129
;LAYER:0
M107
G0 F2700 X106.637 Y77.749 Z0.3
;TYPE:SKIRT
G1 F1200 X107.084 Y77.176 E0.03617
G1 X107.391 Y76.848 E0.05852
G1 X107.635 Y76.604 E0.0757
G1 X108.176 Y76.119 E0.11185
G1 X108.767 Y75.697 E0.14799
G1 X109.401 Y75.342 E0.18415
G1 X110.07 Y75.06 E0.22028
G1 X110.766 Y74.852 E0.25644
G1 X111.48 Y74.722 E0.29255
G1 X112.305 Y74.671 E0.33369
G1 X150.246 Y74.696 E2.22184
G1 X150.508 Y74.701 E2.23488
G1 X155.239 Y74.892 E2.47051
G1 X168.645 Y74.911 E3.13767
G1 X169.37 Y74.952 E3.17381
G1 X170.087 Y75.072 E3.20998
G1 X170.785 Y75.271 E3.24611
G1 X171.458 Y75.545 E3.28227
G1 X172.096 Y75.891 E3.31839
G1 X172.693 Y76.305 E3.35454
G1 X173.372 Y76.915 E3.39996
G1 X173.601 Y77.151 E3.41633
G1 X174.077 Y77.699 E3.45245
G1 X174.49 Y78.296 E3.48858
G1 X174.835 Y78.935 E3.52472
G1 X175.108 Y79.608 E3.56086
G1 X175.305 Y80.307 E3.597
G1 X175.411 Y80.91 E3.62747
G1 X176.349 Y88.254 E3.99592
G1 X176.402 Y89.121 E4.03914
G1 X176.392 Y91.259 E4.14554
G1 X176.322 Y92.186 E4.19181
G1 X175.756 Y96.041 E4.38571
G1 X175.426 Y98.975 E4.53264
G1 X175.305 Y99.691 E4.56878
G1 X175.106 Y100.39 E4.60495
G1 X174.832 Y101.062 E4.64106
G1 X174.485 Y101.701 E4.67725
G1 X174.07 Y102.297 E4.71339
G1 X173.593 Y102.844 E4.74951
G1 X173.236 Y103.183 E4.77401
G1 X172.945 Y103.44 E4.79333
G1 X172.375 Y103.89 E4.82947
G1 X171.759 Y104.275 E4.86562
G1 X171.105 Y104.59 E4.90175
G1 X170.419 Y104.831 E4.93793
G1 X169.712 Y104.995 E4.97405
G1 X168.991 Y105.08 E5.01018
G1 X168.587 Y105.093 E5.0303
G1 X137.957 Y105.14 E6.55462
G1 X133.034 Y105.331 E6.79979
G1 X132.776 Y105.336 E6.81264
G1 X112.315 Y105.329 E7.83089
G1 X111.59 Y105.289 E7.86702
G1 X110.873 Y105.169 E7.9032
G1 X110.174 Y104.971 E7.93936
G1 X109.501 Y104.698 E7.9755
G1 X108.863 Y104.353 E8.01159
G1 X108.266 Y103.939 E8.04775
G1 X107.812 Y103.552 E8.07744
G1 X107.736 Y103.481 E8.08261
G1 X107.519 Y103.268 E8.09774
G1 X107.356 Y103.101 E8.10936
G1 X106.878 Y102.554 E8.14551
G1 X106.463 Y101.958 E8.18165
G1 X106.116 Y101.32 E8.21779
G1 X105.841 Y100.648 E8.25393
G1 X105.578 Y99.63 E8.30625
G1 X105.267 Y97.854 E8.39598
G1 X105.218 Y97.525 E8.41253
G1 X104.885 Y94.828 E8.54777
G1 X104.835 Y94.028 E8.58766
G1 X104.824 Y85.974 E8.98847
G1 X104.854 Y85.337 E9.02021
G1 X105.005 Y83.757 E9.0992
G1 X105.066 Y83.29 E9.12263
G1 X105.549 Y80.419 E9.26752
G1 X105.709 Y79.711 E9.30364
G1 X105.946 Y79.024 E9.33981
G1 X106.256 Y78.367 E9.37596
G1 X106.637 Y77.749 E9.41209
G0 F2700 X107.015 Y77.906
G1 F1200 X107.673 Y77.13 E9.46272
G1 X107.917 Y76.886 E9.4799
G1 X108.442 Y76.417 E9.51493
G1 X109.017 Y76.011 E9.54996
G1 X109.635 Y75.673 E9.58501
G1 X110.286 Y75.406 E9.62003
G1 X110.964 Y75.216 E9.65507
G1 X111.659 Y75.103 E9.69011
G1 X112.305 Y75.07 E9.7223
G1 X150.246 Y75.095 E11.61045
G1 X150.492 Y75.1 E11.6227
G1 X155.222 Y75.291 E11.85828
G1 X168.645 Y75.31 E12.52628
G1 X169.347 Y75.351 E12.56128
G1 X170.041 Y75.471 E12.59633
G1 X170.717 Y75.67 E12.6314
G1 X171.365 Y75.943 E12.66639
G1 X171.979 Y76.288 E12.70144
G1 X172.549 Y76.701 E12.73647
G1 X173.086 Y77.192 E12.77268
G1 X173.315 Y77.428 E12.78905
G1 X173.775 Y77.961 E12.82408
G1 X174.173 Y78.542 E12.85913
G1 X174.502 Y79.164 E12.89415
G1 X174.758 Y79.82 E12.92919
G1 X174.939 Y80.5 E12.96421
G1 X175.015 Y80.96 E12.98741
G1 X175.953 Y88.304 E13.35586
G1 X176.003 Y89.119 E13.39649
G1 X175.993 Y91.257 E13.50289
G1 X175.927 Y92.128 E13.54636
G1 X175.359 Y95.999 E13.74107
G1 X175.029 Y98.93 E13.88785
G1 X174.911 Y99.624 E13.92289
G1 X174.715 Y100.3 E13.95791
G1 X174.443 Y100.95 E13.99298
G1 X174.099 Y101.564 E14.028
G1 X173.689 Y102.136 E14.06303
G1 X172.972 Y102.884 E14.11459
G1 X172.681 Y103.141 E14.13391
G1 X172.128 Y103.576 E14.16893
G1 X171.529 Y103.946 E14.20396
G1 X170.892 Y104.246 E14.239
G1 X170.225 Y104.471 E14.27404
G1 X169.537 Y104.619 E14.30906
G1 X168.586 Y104.694 E14.35653
G1 X137.941 Y104.741 E15.8816
G1 X133.019 Y104.932 E16.12673
G1 X132.776 Y104.937 E16.13882
G1 X112.315 Y104.93 E17.15707
G1 X111.612 Y104.89 E17.19212
G1 X110.918 Y104.77 E17.22717
G1 X110.243 Y104.573 E17.26216
G1 X109.594 Y104.3 E17.2972
G1 X108.98 Y103.955 E17.33225
G1 X108.409 Y103.543 E17.36729
G1 X108.085 Y103.261 E17.38866
G1 X108.009 Y103.19 E17.39384
G1 X107.804 Y102.99 E17.40809
G1 X107.641 Y102.823 E17.41971
G1 X107.179 Y102.292 E17.45473
G1 X106.78 Y101.712 E17.48977
G1 X106.449 Y101.09 E17.52483
G1 X106.19 Y100.436 E17.55984
G1 X105.971 Y99.561 E17.60473
G1 X105.66 Y97.785 E17.69445
G1 X105.614 Y97.476 E17.71
G1 X105.281 Y94.779 E17.84524
G1 X105.234 Y94.027 E17.88273
G1 X105.223 Y85.973 E18.28355
G1 X105.251 Y85.375 E18.31334
G1 X105.402 Y83.795 E18.39233
G1 X105.46 Y83.356 E18.41436
G1 X105.943 Y80.485 E18.55925
G1 X106.099 Y79.799 E18.59426
G1 X106.332 Y79.135 E18.62928
G1 X106.638 Y78.501 E18.66431
G1 X107.015 Y77.906 E18.69937
G0 F2700 X112.231 Y81.609
;TYPE:SUPPORT
G1 F1200 X112.381 Y81.459 E18.70992
G1 X149.788 Y81.467 E20.5715
G1 X150.111 Y81.702 E20.59138
G1 X168.559 Y81.699 E21.50945
G1 X168.675 Y81.817 E21.51769
G1 X168.675 Y86.743 E21.76283
G1 X168.639 Y86.707 E21.76536
G1 X127.878 Y86.726 E23.79386
G1 X111.61 Y86.615 E24.60346
G1 X111.612 Y85.978 E24.63516
G1 X111.721 Y85.179 E24.67529
G1 X111.724 Y84.692 E24.69953
G1 X112.231 Y81.609 E24.85501
G1 F3600 E18.35501
G0 F2700 X110.839 Y87.575
G0 X110.839 Y92.405
G0 X111.666 Y93.831
G1 F3600 E24.85501
G1 F1200 X111.613 Y93.777 E24.85878
G1 X111.611 Y93.392 E24.87794
G1 X168.641 Y93.294 E27.71607
G1 X168.675 Y93.26 E27.71846
G1 X168.675 Y98.184 E27.96351
G1 X168.558 Y98.302 E27.97178
G1 X161.866 Y98.308 E28.30481
G1 X134.046 Y98.302 E29.68928
G1 X133.725 Y98.538 E29.70911
G1 X122.194 Y98.543 E30.28296
G1 X112.396 Y98.541 E30.77056
G1 X112.264 Y98.409 E30.77985
G1 X112.264 Y98.227 E30.78891
G1 X112.218 Y98.181 E30.79214
G1 X112.218 Y97.308 E30.83559
G1 X112.023 Y97.112 E30.84935
G1 X111.726 Y95.212 E30.94505
G1 X111.726 Y94.415 E30.98471
G1 X111.67 Y94.359 E30.98865
G1 X111.666 Y93.831 E31.01493
G1 F3600 E24.51493
G0 F2700 X168.834 Y92.815
G0 X169.335 Y92.309
G0 X169.339 Y91.357
G0 X168.962 Y91.357
G1 F3600 E31.01493
G1 F1200 X168.873 Y91.491 E31.02294
G1 X168.873 Y88.51 E31.17129
G1 X168.962 Y88.644 E31.17929
G1 X169.605 Y88.913 E31.21398
G1 X169.605 Y91.088 E31.32222
G1 X168.962 Y91.357 E31.35691
G0 F2700 X169.034 Y90.644
G1 F1200 X169.444 Y90.644 E31.37731
G1 F3600 E24.87731
G0 F2700 X169.335 Y92.309
G0 X168.834 Y92.815
G0 X167.958 Y93.455
G1 F3600 E31.37731
G1 F1200 X167.958 Y98.142 E31.61056
G0 F2700 X168.514 Y95.976
G1 F1200 X112.007 Y95.976 E34.42266
G0 F2700 X111.972 Y95.747
G1 F1200 X111.972 Y93.551 E34.53194
G0 F2700 X114.638 Y93.547
G1 F1200 X114.638 Y98.38 E34.77246
G0 F2700 X117.304 Y98.38
G1 F1200 X117.304 Y93.542 E35.01323
G0 F2700 X119.97 Y93.537
G1 F1200 X119.97 Y98.381 E35.25429
G0 F2700 X122.636 Y98.382
G1 F1200 X122.636 Y93.533 E35.4956
G0 F2700 X125.302 Y93.528
G1 F1200 X125.302 Y98.381 E35.73711
G0 F2700 X127.968 Y98.38
G1 F1200 X127.968 Y93.524 E35.97878
G0 F2700 X130.634 Y93.519
G1 F1200 X130.634 Y98.379 E36.22064
G0 F2700 X133.3 Y98.378
G1 F1200 X133.3 Y93.515 E36.46265
G0 F2700 X135.966 Y93.51
G1 F1200 X135.966 Y98.141 E36.69311
G0 F2700 X138.632 Y98.141
G1 F1200 X138.632 Y93.506 E36.92377
G0 F2700 X141.298 Y93.501
G1 F1200 X141.298 Y98.142 E37.15473
G0 F2700 X143.964 Y98.143
G1 F1200 X143.964 Y93.496 E37.38599
G0 F2700 X146.63 Y93.492
G1 F1200 X146.63 Y98.143 E37.61745
G0 F2700 X149.296 Y98.144
G1 F1200 X149.296 Y93.487 E37.84921
G0 F2700 X151.962 Y93.483
G1 F1200 X151.962 Y98.144 E38.08117
G0 F2700 X154.628 Y98.145
G1 F1200 X154.628 Y93.478 E38.31342
G0 F2700 X157.294 Y93.474
G1 F1200 X157.294 Y98.146 E38.54593
G0 F2700 X159.96 Y98.146
G1 F1200 X159.96 Y93.469 E38.77868
G0 F2700 X162.626 Y93.465
G1 F1200 X162.626 Y98.147 E39.01168
G0 F2700 X165.292 Y98.144
G1 F1200 X165.292 Y93.46 E39.24478
G1 F3600 E32.74478
G0 F2700 X168.834 Y92.815
G0 X169.335 Y92.309
G0 X169.335 Y87.692
G0 X168.833 Y87.186
G0 X165.292 Y86.548
G1 F3600 E39.24478
G1 F1200 X165.292 Y81.86 E39.47808
G0 F2700 X162.626 Y81.86
G1 F1200 X162.626 Y86.549 E39.71144
G0 F2700 X159.96 Y86.55
G1 F1200 X159.96 Y81.861 E39.94479
G0 F2700 X157.294 Y81.861
G1 F1200 X157.294 Y86.552 E40.17824
G0 F2700 X154.628 Y86.553
G1 F1200 X154.628 Y81.862 E40.41169
G0 F2700 X151.962 Y81.862
G1 F1200 X151.962 Y86.554 E40.64518
G0 F2700 X149.296 Y86.555
G1 F1200 X149.296 Y81.628 E40.89038
G0 F2700 X146.63 Y81.628
G1 F1200 X146.63 Y86.557 E41.13567
G0 F2700 X143.964 Y86.558
G1 F1200 X143.964 Y81.627 E41.38107
G0 F2700 X141.298 Y81.627
G1 F1200 X141.298 Y86.559 E41.62651
G0 F2700 X138.632 Y86.56
G1 F1200 X138.632 Y81.626 E41.87205
G0 F2700 X135.966 Y81.626
G1 F1200 X135.966 Y86.562 E42.1177
G0 F2700 X133.3 Y86.563
G1 F1200 X133.3 Y81.625 E42.36344
G0 F2700 X130.634 Y81.624
G1 F1200 X130.634 Y86.564 E42.60928
G0 F2700 X127.968 Y86.565
G1 F1200 X127.968 Y81.624 E42.85517
G0 F2700 X125.302 Y81.623
G1 F1200 X125.302 Y86.547 E43.10022
G0 F2700 X122.636 Y86.529
G1 F1200 X122.636 Y81.623 E43.34436
G0 F2700 X119.97 Y81.622
G1 F1200 X119.97 Y86.511 E43.58767
G0 F2700 X117.304 Y86.493
G1 F1200 X117.304 Y81.622 E43.83008
G0 F2700 X114.638 Y81.621
G1 F1200 X114.638 Y86.475 E44.07164
G0 F2700 X111.972 Y86.457
G1 F1200 X111.972 Y84.182 E44.18485
G0 F2700 X111.866 Y85.312
G1 F1200 X168.514 Y85.312 E47.00397
G0 F2700 X167.958 Y86.547
G1 F1200 X167.958 Y81.86 E47.23722
G0 F2700 X168.514 Y82.646
G1 F1200 X112.225 Y82.646 E50.03847
G1 F3600 E43.53847
G0 F2700 X112.216 Y87.068
G0 X112.214 Y88.35
G0 X112.693 Y88.73
;TYPE:WALL-INNER
G1 F3600 E50.03847
G1 F1200 X150.996 Y88.802 E51.94464
G1 X157.763 Y88.848 E52.28141
G1 X167.479 Y88.843 E52.76493
G1 X167.678 Y88.843 E52.77483
G1 X167.678 Y89.042 E52.78124
G1 X167.678 Y91.16 E52.88665
G1 X154.094 Y91.182 E53.56266
G1 X129.304 Y91.256 E54.79635
G1 X112.494 Y91.249 E55.63291
G1 X112.494 Y88.929 E55.74837
G1 X112.494 Y88.73 E55.75827
G1 X112.693 Y88.73 E55.76468
G0 F2700 X112.294 Y88.33
G1 F1200 X150.999 Y88.403 E57.69085
G1 X157.764 Y88.449 E58.02752
G1 X167.878 Y88.444 E58.53085
G1 X168.077 Y88.444 E58.54076
G1 X168.077 Y88.643 E58.54716
G1 X168.077 Y91.558 E58.69223
G1 X154.095 Y91.581 E59.38805
G1 X129.305 Y91.655 E60.62174
G1 X112.095 Y91.648 E61.47821
G1 X112.095 Y88.529 E61.63342
G1 X112.095 Y88.33 E61.64333
G1 X112.294 Y88.33 E61.64974
G0 F2700 X112.294 Y88.43
G0 X112.195 Y89.991
G0 X111.693 Y89.991
;TYPE:WALL-OUTER
G1 F1200 X111.698 Y87.931 E61.75225
G1 X151.002 Y88.005 E63.70824
G1 X157.765 Y88.051 E64.04481
G1 X168.276 Y88.046 E64.5679
G1 X168.475 Y88.046 E64.5778
G1 X168.475 Y88.245 E64.58421
G1 X168.475 Y91.955 E64.76884
G1 X154.096 Y91.979 E65.48441
G1 X129.306 Y92.053 E66.71811
G1 X111.698 Y92.046 E67.59438
G1 X111.693 Y89.991 E67.69665
G0 F2700 X111.693 Y89.791
G0 X112.195 Y89.791
G0 X112.693 Y91.05
G0 X113.075 Y91.068
;TYPE:SKIN
G1 F1200 X112.673 Y90.666 E67.72494
G0 F2700 X112.673 Y90.102
G1 F1200 X113.639 Y91.068 E67.79292
G1 X113.709 Y91.138
G0 F2700 X114.204 Y91.068
G1 F1200 X112.673 Y89.538 E67.90064
G1 X112.603 Y89.469
G0 F2700 X112.673 Y88.973
G1 F1200 X114.769 Y91.069 E68.04815
G1 X114.839 Y91.139
G0 F2700 X115.333 Y91.069
G1 F1200 X113.174 Y88.91 E68.2001
G1 X113.104 Y88.84
G0 F2700 X113.74 Y88.912
G1 F1200 X115.897 Y91.069 E68.35191
G1 X115.967 Y91.139
G0 F2700 X116.462 Y91.07
G1 F1200 X114.305 Y88.913 E68.50372
G1 X114.235 Y88.843
G0 F2700 X114.87 Y88.914
G1 F1200 X117.026 Y91.07 E68.65545
G1 X117.096 Y91.14
G0 F2700 X117.591 Y91.07
G1 F1200 X115.436 Y88.915 E68.80712
G1 X115.366 Y88.845
G0 F2700 X116.001 Y88.916
G1 F1200 X118.156 Y91.071 E68.95879
G1 X118.226 Y91.141
G0 F2700 X118.72 Y91.071
G1 F1200 X116.567 Y88.917 E69.11035
G1 X116.498 Y88.847
G0 F2700 X117.132 Y88.918
G1 F1200 X119.284 Y91.071 E69.26184
G1 X119.353 Y91.141
G0 F2700 X119.849 Y91.071
G1 F1200 X117.697 Y88.92 E69.41326
G1 X117.627 Y88.85
G0 F2700 X118.262 Y88.92
G1 F1200 X120.413 Y91.071 E69.56465
G1 X120.483 Y91.141
G0 F2700 X120.978 Y91.071
G1 F1200 X118.828 Y88.922 E69.71592
G1 X118.758 Y88.852
G0 F2700 X119.393 Y88.922
G1 F1200 X121.543 Y91.072 E69.86724
G1 X121.613 Y91.142
G0 F2700 X122.107 Y91.072
G1 F1200 X119.959 Y88.924 E70.01841
G1 X119.889 Y88.854
G0 F2700 X120.524 Y88.925
G1 F1200 X122.672 Y91.073 E70.16959
G1 X122.742 Y91.143
G0 F2700 X123.236 Y91.073
G1 F1200 X121.089 Y88.926 E70.32069
G1 X121.019 Y88.856
G0 F2700 X121.654 Y88.927
G1 F1200 X123.8 Y91.073 E70.47172
G1 X123.87 Y91.143
G0 F2700 X124.365 Y91.073
G1 F1200 X122.22 Y88.928 E70.62269
G1 X122.15 Y88.858
G0 F2700 X122.785 Y88.929
G1 F1200 X124.93 Y91.073 E70.77362
G1 X125 Y91.143
G0 F2700 X125.494 Y91.073
G1 F1200 X123.351 Y88.93 E70.92444
G1 X123.281 Y88.86
G0 F2700 X123.916 Y88.931
G1 F1200 X126.059 Y91.074 E71.07526
G1 X126.129 Y91.144
G0 F2700 X126.623 Y91.074
G1 F1200 X124.481 Y88.932 E71.22601
G1 X124.411 Y88.862
G0 F2700 X125.046 Y88.933
G1 F1200 X127.188 Y91.074 E71.37673
G1 X127.258 Y91.143
G0 F2700 X127.752 Y91.075
G1 F1200 X125.612 Y88.934 E71.52737
G1 X125.543 Y88.864
G0 F2700 X126.177 Y88.935
G1 F1200 X128.317 Y91.075 E71.67799
G1 X128.387 Y91.145
G0 F2700 X128.881 Y91.075
G1 F1200 X126.743 Y88.937 E71.82846
G1 X126.673 Y88.867
G0 F2700 X127.308 Y88.937
G1 F1200 X129.445 Y91.075 E71.97889
G1 X129.515 Y91.145
G0 F2700 X130.008 Y91.073
G1 F1200 X127.873 Y88.939 E72.12912
G1 X127.803 Y88.869
G0 F2700 X128.438 Y88.939
G1 F1200 X130.57 Y91.071 E72.27916
G1 X130.64 Y91.141
G0 F2700 X131.133 Y91.07
G1 F1200 X129.004 Y88.941 E72.429
G1 X128.934 Y88.871
G0 F2700 X129.569 Y88.942
G1 F1200 X131.695 Y91.068 E72.57863
G1 X131.765 Y91.138
G0 F2700 X132.258 Y91.066
G1 F1200 X130.135 Y88.943 E72.72804
G1 X130.065 Y88.873
G0 F2700 X130.7 Y88.944
G1 F1200 X132.821 Y91.065 E72.87731
G1 X132.891 Y91.135
G0 F2700 X133.383 Y91.063
G1 F1200 X131.265 Y88.945 E73.02638
G1 X131.195 Y88.875
G0 F2700 X131.83 Y88.946
G1 F1200 X133.946 Y91.061 E73.17526
G1 X134.016 Y91.131
G0 F2700 X134.509 Y91.06
G1 F1200 X132.396 Y88.947 E73.32398
G1 X132.326 Y88.877
G0 F2700 X132.961 Y88.948
G1 F1200 X135.071 Y91.058 E73.47247
G1 X135.141 Y91.128
G0 F2700 X135.634 Y91.056
G1 F1200 X133.527 Y88.949 E73.62076
G1 X133.457 Y88.879
G0 F2700 X134.092 Y88.95
G1 F1200 X136.197 Y91.055 E73.76891
G1 X136.267 Y91.125
G0 F2700 X136.759 Y91.053
G1 F1200 X134.657 Y88.951 E73.91685
G1 X134.587 Y88.881
G0 F2700 X135.222 Y88.952
G1 F1200 X137.322 Y91.052 E74.06464
G1 X137.392 Y91.122
G0 F2700 X137.884 Y91.049
G1 F1200 X135.788 Y88.954 E74.21212
G1 X135.718 Y88.885
G0 F2700 X136.353 Y88.954
G1 F1200 X138.447 Y91.048 E74.3595
G1 X138.517 Y91.118
G0 F2700 X139.01 Y91.047
G1 F1200 X136.919 Y88.956 E74.50666
G1 X136.849 Y88.886
G0 F2700 X137.484 Y88.956
G1 F1200 X139.572 Y91.044 E74.65361
G1 X139.642 Y91.114
G0 F2700 X140.135 Y91.043
G1 F1200 X138.049 Y88.958 E74.80039
G1 X137.979 Y88.889
G0 F2700 X138.614 Y88.958
G1 F1200 X140.697 Y91.042 E74.94702
G1 X140.766 Y91.112
G0 F2700 X141.26 Y91.039
G1 F1200 X139.18 Y88.96 E75.09337
G1 X139.11 Y88.89
G0 F2700 X139.745 Y88.961
G1 F1200 X141.822 Y91.038 E75.23955
G1 X141.892 Y91.108
G0 F2700 X142.385 Y91.037
G1 F1200 X140.311 Y88.962 E75.38555
G1 X140.241 Y88.892
G0 F2700 X140.876 Y88.963
G1 F1200 X142.947 Y91.035 E75.53134
G1 X143.016 Y91.105
G0 F2700 X143.51 Y91.033
G1 F1200 X141.441 Y88.964 E75.67696
G1 X141.371 Y88.894
G0 F2700 X142.006 Y88.965
G1 F1200 X144.073 Y91.032 E75.82243
G1 X144.143 Y91.102
G0 F2700 X144.635 Y91.03
G1 F1200 X142.572 Y88.966 E75.96766
G1 X142.503 Y88.896
G0 F2700 X143.138 Y88.968
G1 F1200 X145.198 Y91.028 E76.11264
G1 X145.268 Y91.098
G0 F2700 X145.76 Y91.026
G1 F1200 X143.703 Y88.968 E76.25744
G1 X143.633 Y88.898
G0 F2700 X144.268 Y88.97
G1 F1200 X146.323 Y91.025 E76.40207
G1 X146.393 Y91.095
G0 F2700 X146.886 Y91.023
G1 F1200 X144.833 Y88.971 E76.54652
G1 X144.763 Y88.901
G0 F2700 X145.399 Y88.972
G1 F1200 X147.448 Y91.021 E76.69073
