;FLAVOR:RepRap
;TIME:1924
;Filament used: 1.60248m
;Layer height: 0.2
;Generated with Cura_SteamEngine 2.5.0-twosilly
M190 S50
M104 S210
M109 S210
G28 ;Home
G1 Z15.0 F6000 ;Move the platform down 15mm
;Prime the extruder
G92 E0
G1 F200 E10
G92 E0
;LAYER_COUNT:86
;LAYER:0
M107
G0 F2700 X123.553 Y79.392 Z0.3
;TYPE:SKIRT
G1 F1200 X124.783 Y77.7 E0.1041
G1 X125.331 Y77.041 E0.14675
G1 X126.274 Y76.046 E0.21498
G1 X126.947 Y75.428 E0.26045
G1 X128.737 Y73.999 E0.37443
G1 X129.478 Y73.486 E0.41928
G1 X130.548 Y72.849 E0.48125
G1 X131.162 Y72.526 E0.51578
G1 X132.442 Y71.936 E0.58592
G1 X133.441 Y71.57 E0.63887
G1 X136.146 Y70.82 E0.77856
G1 X136.855 Y70.665 E0.81468
G1 X137.385 Y70.601 E0.84125
G1 X139.392 Y70.441 E0.94144
G1 X140.207 Y70.426 E0.98201
G1 X141.542 Y70.485 E1.04851
G1 X142.282 Y70.56 E1.08553
G1 X143.8 Y70.8 E1.16201
G1 X144.503 Y70.951 E1.19779
G1 X145.792 Y71.302 E1.26427
G1 X146.451 Y71.519 E1.2988
G1 X147.731 Y72.017 E1.36715
G1 X148.381 Y72.311 E1.40266
G1 X149.655 Y72.973 E1.47411
G1 X150.458 Y73.467 E1.52102
G1 X152.364 Y74.834 E1.63775
G1 X153.102 Y75.449 E1.68556
G1 X154.092 Y76.405 E1.75405
G1 X154.551 Y76.896 E1.7875
G1 X155.378 Y77.876 E1.85131
G1 X155.905 Y78.593 E1.89559
G1 X157.02 Y80.348 E1.99907
G1 X157.434 Y81.105 E2.04201
G1 X158.042 Y82.413 E2.11379
G1 X158.364 Y83.25 E2.15842
G1 X159.012 Y85.351 E2.26784
G1 X159.187 Y86.056 E2.30399
G1 X159.252 Y86.463 E2.3245
G1 X159.508 Y88.475 E2.42543
G1 X159.558 Y89.5 E2.4765
G1 X159.493 Y91.733 E2.58768
G1 X159.405 Y92.632 E2.63263
G1 X159.196 Y93.879 E2.69555
G1 X158.984 Y94.763 E2.74079
G1 X158.338 Y96.822 E2.84818
G1 X157.961 Y97.765 E2.89872
G1 X157.05 Y99.613 E3.00126
G1 X156.646 Y100.318 E3.0417
G1 X156.265 Y100.898 E3.07623
G1 X155.911 Y101.387 E3.10627
G1 X154.593 Y103.041 E3.21152
G1 X154.11 Y103.584 E3.24769
G1 X153.819 Y103.859 E3.26761
G1 X152.23 Y105.273 E3.37347
G1 X151.551 Y105.802 E3.4163
G1 X150.407 Y106.579 E3.48512
G1 X149.794 Y106.948 E3.52073
G1 X148.566 Y107.6 E3.58992
G1 X147.946 Y107.889 E3.62396
G1 X146.74 Y108.377 E3.68871
G1 X145.878 Y108.659 E3.73384
G1 X143.593 Y109.235 E3.85112
G1 X142.673 Y109.399 E3.89762
G1 X141.404 Y109.533 E3.96112
G1 X140.72 Y109.569 E3.99521
G1 X139.324 Y109.571 E4.06468
G1 X138.602 Y109.532 E4.10067
G1 X137.185 Y109.378 E4.1716
G1 X136.484 Y109.264 E4.20694
G1 X135.121 Y108.965 E4.27639
G1 X134.239 Y108.706 E4.32213
G1 X132.256 Y107.97 E4.4274
G1 X131.451 Y107.608 E4.47132
G1 X130.183 Y106.933 E4.54281
G1 X129.426 Y106.462 E4.58718
G1 X127.651 Y105.183 E4.69605
G1 X126.924 Y104.575 E4.74322
G1 X125.897 Y103.583 E4.81428
G1 X125.432 Y103.085 E4.84818
G1 X124.6 Y102.096 E4.9125
G1 X124.186 Y101.547 E4.94672
G1 X123.4 Y100.386 E5.01649
G1 X122.932 Y99.579 E5.06292
G1 X121.994 Y97.655 E5.16944
G1 X121.616 Y96.694 E5.22083
G1 X120.98 Y94.616 E5.32898
G1 X120.772 Y93.717 E5.3749
G1 X120.568 Y92.429 E5.4398
G1 X120.496 Y91.75 E5.47378
G1 X120.42 Y90.33 E5.54455
G1 X120.436 Y89.406 E5.59054
G1 X120.616 Y87.332 E5.69414
G1 X120.745 Y86.486 E5.73673
G1 X121.048 Y85.108 E5.80694
G1 X121.298 Y84.252 E5.85132
G1 X122.051 Y82.2 E5.9601
G1 X122.432 Y81.351 E6.00641
G1 X123.077 Y80.15 E6.07425
G1 X123.553 Y79.392 E6.11879
G0 F2700 X123.876 Y79.626
G1 F1200 X125.106 Y77.934 E6.2229
G1 X125.621 Y77.315 E6.26297
G1 X126.564 Y76.32 E6.33119
G1 X127.196 Y75.74 E6.37388
G1 X128.986 Y74.311 E6.48786
G1 X129.682 Y73.829 E6.53
G1 X130.752 Y73.192 E6.59197
G1 X131.329 Y72.888 E6.62442
G1 X132.609 Y72.298 E6.69456
G1 X133.547 Y71.954 E6.74428
G1 X136.252 Y71.204 E6.88398
G1 X136.94 Y71.055 E6.91901
G1 X137.416 Y70.999 E6.94286
G1 X139.423 Y70.839 E7.04306
G1 X140.19 Y70.825 E7.08123
G1 X141.525 Y70.884 E7.14774
G1 X142.219 Y70.954 E7.18245
G1 X143.737 Y71.194 E7.25893
G1 X144.398 Y71.336 E7.29258
G1 X145.687 Y71.687 E7.35906
G1 X146.306 Y71.891 E7.39149
G1 X147.586 Y72.389 E7.45985
G1 X148.197 Y72.665 E7.49321
G1 X149.471 Y73.327 E7.56466
G1 X150.225 Y73.791 E7.60872
G1 X152.131 Y75.158 E7.72545
G1 X152.825 Y75.736 E7.77039
G1 X153.815 Y76.692 E7.83888
G1 X154.246 Y77.153 E7.87029
G1 X155.073 Y78.133 E7.9341
G1 X155.568 Y78.807 E7.97572
G1 X156.683 Y80.562 E8.07919
G1 X157.072 Y81.274 E8.11957
G1 X157.68 Y82.582 E8.19135
G1 X157.983 Y83.368 E8.23327
G1 X158.631 Y85.469 E8.34269
G1 X158.8 Y86.152 E8.37771
G1 X158.856 Y86.513 E8.39589
G1 X159.112 Y88.525 E8.49682
G1 X159.159 Y89.488 E8.5448
G1 X159.094 Y91.721 E8.65598
G1 X159.012 Y92.566 E8.69823
G1 X158.803 Y93.813 E8.76115
G1 X158.604 Y94.644 E8.80367
G1 X157.958 Y96.703 E8.91107
G1 X157.603 Y97.588 E8.95852
G1 X156.692 Y99.436 E9.06105
G1 X156.313 Y100.099 E9.09906
G1 X155.932 Y100.679 E9.13359
G1 X155.599 Y101.139 E9.16185
G1 X154.281 Y102.793 E9.2671
G1 X153.812 Y103.318 E9.30214
G1 X153.554 Y103.561 E9.31977
G1 X151.965 Y104.975 E9.42563
G1 X151.327 Y105.472 E9.46588
G1 X150.183 Y106.249 E9.5347
G1 X149.606 Y106.596 E9.5682
G1 X148.378 Y107.248 E9.6374
G1 X147.797 Y107.519 E9.6693
G1 X146.591 Y108.007 E9.73404
G1 X145.78 Y108.272 E9.7765
G1 X143.495 Y108.848 E9.89378
G1 X142.631 Y109.002 E9.93745
G1 X141.362 Y109.136 E10.00095
G1 X140.72 Y109.17 E10.03295
G1 X139.324 Y109.172 E10.10242
G1 X138.645 Y109.136 E10.13626
G1 X137.228 Y108.982 E10.20719
G1 X136.57 Y108.874 E10.24038
G1 X135.207 Y108.575 E10.30982
G1 X134.378 Y108.332 E10.35281
G1 X132.395 Y107.596 E10.45807
G1 X131.639 Y107.256 E10.49933
G1 X130.371 Y106.581 E10.57081
G1 X129.659 Y106.138 E10.61254
G1 X127.884 Y104.859 E10.72142
G1 X127.202 Y104.288 E10.76569
G1 X126.175 Y103.296 E10.83675
G1 X125.738 Y102.828 E10.86861
G1 X124.906 Y101.839 E10.93293
G1 X124.516 Y101.324 E10.96508
G1 X123.73 Y100.163 E11.03485
G1 X123.291 Y99.404 E11.07849
G1 X122.353 Y97.48 E11.18501
G1 X121.997 Y96.578 E11.23326
G1 X121.361 Y94.5 E11.34141
G1 X121.166 Y93.655 E11.38457
G1 X120.962 Y92.367 E11.44947
G1 X120.895 Y91.728 E11.48144
G1 X120.819 Y90.308 E11.55221
G1 X120.833 Y89.441 E11.59536
G1 X121.013 Y87.367 E11.69896
G1 X121.135 Y86.572 E11.73899
G1 X121.438 Y85.194 E11.8092
G1 X121.673 Y84.389 E11.85094
G1 X122.426 Y82.337 E11.95972
G1 X122.784 Y81.54 E12.0032
G1 X123.429 Y80.339 E12.07104
G1 X123.876 Y79.626 E12.11292
G1 F3600 E5.61292
G0 F2700 X129.281 Y81.543
G0 X129.356 Y81.57
G0 X133.109 Y82.902
G0 X133.185 Y82.929
G0 X133.436 Y83.019
;TYPE:SUPPORT
G1 F3600 E12.11292
G1 F1200 X133.435 Y83.019 E12.11297
G1 X133.562 Y82.891 E12.12194
G1 X133.674 Y82.789 E12.12948
G1 X134.398 Y82.221 E12.17527
G1 X134.58 Y82.08 E12.18673
G1 X135.52 Y81.514 E12.24134
G1 X135.651 Y81.459 E12.24841
G1 X136.41 Y81.109 E12.29
G1 X136.534 Y81.052 E12.29679
G1 X136.72 Y80.987 E12.3066
G1 X137.537 Y80.73 E12.34922
G1 X137.89 Y80.641 E12.36734
G1 X138.521 Y80.53 E12.39922
G1 X138.954 Y80.466 E12.42101
G1 X139.722 Y80.42 E12.45929
G1 X140.023 Y80.405 E12.47429
G1 X141.119 Y80.47 E12.52893
G1 X141.475 Y80.531 E12.54691
G1 X141.498 Y80.534 E12.54806
G1 X142.227 Y80.668 E12.58495
G1 X142.449 Y80.729 E12.5964
G1 X143.178 Y80.952 E12.63434
G1 X143.462 Y81.062 E12.6495
G1 X143.59 Y81.119 E12.65647
G1 X143.68 Y81.161 E12.66141
G1 X143.745 Y81.187 E12.6649
G1 X143.745 Y81.188 E12.66495
G1 X143.789 Y81.208 E12.66735
G1 X143.835 Y81.228 E12.66985
G1 X143.86 Y81.24 E12.67123
G1 X143.987 Y81.294 E12.6781
G1 X144.045 Y81.318 E12.68122
G1 X144.127 Y81.354 E12.68568
G1 X144.242 Y81.404 E12.69192
G1 X144.471 Y81.518 E12.70465
G1 X144.562 Y81.57 E12.70987
G1 X144.562 Y81.571 E12.70991
G1 X144.883 Y81.762 E12.7285
G1 X145.082 Y81.88 E12.74002
G1 X145.131 Y81.909 E12.74285
G1 X145.131 Y81.908 E12.7429
G1 X145.295 Y82.007 E12.75243
G1 X145.47 Y82.118 E12.76275
G1 X145.61 Y82.227 E12.77158
G1 X145.993 Y82.526 E12.79576
G1 X146.375 Y82.829 E12.82002
G1 X146.453 Y82.906 E12.82548
G1 X146.582 Y83.035 E12.83456
G1 X147.134 Y83.59 E12.87351
G1 X147.175 Y83.639 E12.87669
G1 X147.176 Y83.638 E12.87676
G1 X147.4 Y83.919 E12.89464
G1 X147.54 Y84.098 E12.90595
G1 X147.637 Y84.218 E12.91363
G1 X147.636 Y84.219 E12.9137
G1 X147.711 Y84.314 E12.91973
G1 X147.786 Y84.404 E12.92556
G1 X148.015 Y84.733 E12.9455
G1 X148.192 Y85.029 E12.96267
G1 X148.369 Y85.324 E12.97979
G1 X148.541 Y85.635 E12.99747
G1 X148.832 Y86.278 E13.0326
G1 X148.99 Y86.641 E13.0523
G1 X149.252 Y87.49 E13.09652
G1 X149.293 Y87.628 E13.10368
G1 X149.319 Y87.717 E13.1083
G1 X149.338 Y87.801 E13.11258
G1 X149.348 Y87.861 E13.11561
G1 X149.373 Y88.012 E13.12323
G1 X149.382 Y88.055 E13.12541
G1 X149.425 Y88.295 E13.13755
G1 X149.435 Y88.334 E13.13955
G1 X149.512 Y88.762 E13.16119
G1 X149.54 Y89.048 E13.17549
G1 X149.574 Y89.58 E13.20202
G1 X149.59 Y89.869 E13.21643
G1 X149.581 Y90.289 E13.23733
G1 X149.576 Y90.363 E13.24102
G1 X149.551 Y90.769 E13.26127
G1 X149.552 Y90.769 E13.26132
G1 X149.53 Y91.018 E13.27376
G1 X149.464 Y91.462 E13.29609
G1 X149.455 Y91.519 E13.29897
G1 X149.43 Y91.583 E13.30239
G1 X149.396 Y91.86 E13.31627
G1 X149.362 Y92.048 E13.32578
G1 X149.36 Y92.071 E13.32693
G1 X149.327 Y92.252 E13.33609
G1 X149.317 Y92.297 E13.33838
G1 X149.109 Y92.974 E13.37363
G1 X148.946 Y93.464 E13.39932
G1 X148.851 Y93.677 E13.41093
G1 X148.58 Y94.278 E13.44374
G1 X148.38 Y94.637 E13.46419
G1 X147.974 Y95.323 E13.50386
G1 X147.873 Y95.466 E13.51257
G1 X147.66 Y95.737 E13.52973
G1 X147.623 Y95.79 E13.53294
G1 X147.522 Y95.921 E13.54118
G1 X147.419 Y95.818 E13.54843
G1 X146.836 Y95.875 E13.57758
G1 X146.584 Y96.257 E13.60035
G1 X146.499 Y96.172 E13.60633
G1 X146.097 Y96.238 E13.62661
G1 X145.693 Y97.058 E13.6721
G1 X145.149 Y97.88 E13.72115
G1 X144.475 Y98.684 E13.77336
G1 X143.728 Y99.403 E13.82496
G1 X143.287 Y99.748 E13.85283
G1 X142.814 Y99.908 E13.87767
G1 X142.475 Y99.987 E13.895
G1 X142.288 Y100.023 E13.90447
G1 X142.283 Y100.023 E13.90472
G1 X141.683 Y100.159 E13.93534
G1 X141.374 Y100.2 E13.95085
G1 X141.291 Y99.967 E13.96316
G1 X140.88 Y99.657 E13.98878
G1 X139.295 Y99.563 E14.0678
G1 X139.295 Y99.564 E14.06785
G1 X138.85 Y99.53 E14.09006
G1 X137.769 Y99.336 E14.14471
G1 X137.403 Y99.233 E14.16364
G1 X137.035 Y99.119 E14.18281
G1 X136.179 Y98.779 E14.22864
G1 X135.958 Y98.681 E14.24068
G1 X135.732 Y98.592 E14.25276
G1 X135.372 Y98.406 E14.27293
G1 X134.892 Y98.116 E14.30084
G1 X134.449 Y97.829 E14.32711
G1 X133.721 Y97.254 E14.37327
G1 X133.633 Y97.181 E14.37896
G1 X132.852 Y96.399 E14.43396
G1 X132.606 Y96.089 E14.45366
G1 X132.491 Y95.945 E14.46283
G1 X132.131 Y95.485 E14.4919
G1 X131.953 Y95.22 E14.50778
G1 X131.623 Y94.672 E14.53962
G1 X131.406 Y94.266 E14.56253
G1 X131.158 Y93.711 E14.59278
G1 X131.1 Y93.57 E14.60037
G1 X130.989 Y93.301 E14.61485
G1 X130.76 Y92.558 E14.65354
G1 X130.674 Y92.274 E14.66831
G1 X130.479 Y91.203 E14.72248
G1 X130.45 Y90.855 E14.73986
G1 X130.406 Y90.055 E14.77974
G1 X130.41 Y89.871 E14.78889
G1 X130.458 Y89.017 E14.83146
G1 X130.476 Y88.867 E14.83898
G1 X130.573 Y88.34 E14.86565
G1 X130.578 Y88.291 E14.8681
G1 X130.607 Y88.133 E14.87609
G1 X130.621 Y88.048 E14.88038
G1 X130.628 Y87.991 E14.88324
G1 X130.635 Y87.95 E14.88531
G1 X130.641 Y87.906 E14.88752
G1 X130.693 Y87.665 E14.89979
G1 X130.991 Y86.711 E14.94953
G1 X131.036 Y86.572 E14.9568
G1 X131.284 Y86.023 E14.98678
G1 X131.499 Y85.543 E15.01295
G1 X131.753 Y85.127 E15.03721
G1 X131.792 Y85.062 E15.04098
G1 X131.88 Y84.916 E15.04946
G1 X131.894 Y84.89 E15.05093
G1 X132.047 Y84.64 E15.06552
G1 X132.269 Y84.345 E15.08389
G1 X132.411 Y84.168 E15.09518
G1 X132.461 Y84.091 E15.09975
G1 X132.546 Y83.986 E15.10648
G1 X132.59 Y83.927 E15.11014
G1 X132.68 Y83.812 E15.11741
G1 X132.898 Y83.568 E15.13369
G1 X132.961 Y83.499 E15.13834
G1 X133.043 Y83.421 E15.14397
G1 X133.103 Y83.359 E15.14827
G1 X133.219 Y83.246 E15.15632
G1 X133.262 Y83.196 E15.15961
G1 X133.337 Y83.122 E15.16485
G1 X133.361 Y83.096 E15.16661
G1 X133.413 Y83.043 E15.17031
G1 X133.436 Y83.019 E15.17196
G0 F2700 X133.931 Y84.054
G1 F1200 X133.302 Y84.768 E15.21931
G1 X132.812 Y85.467 E15.2618
G1 X132.403 Y86.199 E15.30352
G1 X132.042 Y87.007 E15.34757
G1 X131.812 Y87.724 E15.38504
G1 X131.632 Y88.531 E15.42619
G1 X131.523 Y89.421 E15.47081
G1 X131.51 Y90.34 E15.51655
G1 X131.578 Y91.142 E15.5566
G1 X131.754 Y92.059 E15.60307
G1 X131.992 Y92.851 E15.64423
G1 X132.332 Y93.664 E15.68808
G1 X132.743 Y94.419 E15.73086
G1 X133.177 Y95.069 E15.76976
G1 X133.73 Y95.735 E15.81284
G1 X134.052 Y96.056 E15.83546
G1 X134.12 Y96.115 E15.83994
G1 X134.44 Y96.42 E15.86194
G1 X135.022 Y96.891 E15.8992
G1 X135.735 Y97.352 E15.94146
G1 X136.169 Y97.572 E15.96567
G1 X136.534 Y97.76 E15.9861
G1 X137.213 Y98.026 E16.02239
G1 X137.455 Y98.101 E16.035
G1 X137.909 Y98.226 E16.05844
G1 X137.909 Y98.225 E16.05849
G1 X138.155 Y98.295 E16.07121
G1 X139.008 Y98.44 E16.11427
G1 X139.903 Y98.497 E16.1589
G1 X140.668 Y98.472 E16.19699
G1 X141.029 Y98.429 E16.21509
G1 X141.15 Y98.403 E16.22125
G1 X141.651 Y98.336 E16.2464
G1 X142.41 Y98.147 E16.28533
G1 X143.16 Y97.89 E16.32478
G1 X143.723 Y97.63 E16.35564
G1 X143.988 Y97.504 E16.37024
G1 X144.7 Y97.079 E16.41151
G1 X145.406 Y96.56 E16.45512
G1 X146.104 Y95.92 E16.50224
G1 X146.697 Y95.23 E16.54752
G1 X146.841 Y95.033 E16.55967
G1 X147.228 Y94.473 E16.59354
G1 X147.634 Y93.74 E16.63524
G1 X147.992 Y92.889 E16.68119
G1 X148.24 Y92.093 E16.72268
G1 X148.377 Y91.402 E16.75773
G1 X148.407 Y91.211 E16.76736
G1 X148.463 Y90.825 E16.78677
G1 X148.452 Y90.737 E16.79118
G1 X148.487 Y90.384 E16.80883
G1 X148.49 Y89.571 E16.84929
G1 X148.289 Y87.454 E16.95512
G1 X148.004 Y87.149 E16.97589
G1 X147.976 Y87.06 E16.98054
G1 X147.638 Y86.272 E17.02321
G1 X147.21 Y85.5 E17.06714
G1 X146.73 Y84.814 E17.1088
G1 X146.171 Y84.155 E17.15181
G1 X145.721 Y83.733 E17.18251
G1 X145.557 Y83.564 E17.19423
G1 X144.863 Y83.042 E17.23744
G1 X144.241 Y82.637 E17.27438
G1 X144.216 Y82.628 E17.2757
G1 X144.118 Y82.566 E17.28148
G1 X143.445 Y82.227 E17.31898
G1 X142.586 Y81.905 E17.36463
G1 X141.761 Y81.687 E17.4071
G1 X140.726 Y81.523 E17.45925
G1 X140.605 Y81.533 E17.46529
G1 X140.058 Y81.503 E17.49255
G1 X139.149 Y81.543 E17.53783
G1 X138.271 Y81.683 E17.58208
G1 X137.449 Y81.895 E17.62432
G1 X136.804 Y82.131 E17.6585
G1 X136.669 Y82.18 E17.66565
G1 X135.986 Y82.507 E17.70333
G1 X135.192 Y82.988 E17.74953
G1 X134.533 Y83.49 E17.79076
G1 X133.931 Y84.054 E17.83181
G0 F2700 X133.3 Y84.527
G1 F1200 X133.3 Y83.392 E17.8883
G0 F2700 X134.115 Y82.646
G1 F1200 X135.444 Y82.646 E17.95444
G0 F2700 X135.966 Y82.339
G1 F1200 X135.966 Y81.491 E17.99664
G0 F2700 X138.632 Y81.463
G1 F1200 X138.632 Y80.676 E18.0358
G0 F2700 X141.298 Y80.664
G1 F1200 X141.298 Y81.45 E18.07492
G0 F2700 X143.964 Y81.46
G1 F1200 X143.964 Y82.308 E18.11712
G0 F2700 X144.552 Y82.646
G1 F1200 X145.887 Y82.646 E18.18356
G0 F2700 X146.63 Y83.312
G1 F1200 X146.63 Y84.447 E18.24004
G0 F2700 X147.275 Y85.312
G1 F1200 X148.176 Y85.312 E18.28488
G0 F2700 X148.499 Y87.978
G1 F1200 X149.204 Y87.978 E18.31996
G0 F2700 X149.296 Y88.475
G1 F1200 X149.296 Y91.483 E18.46966
G0 F2700 X149.398 Y90.644
G1 F1200 X148.624 Y90.644 E18.50818
G0 F2700 X148.826 Y93.31
G1 F1200 X147.99 Y93.31 E18.54978
G0 F2700 X146.63 Y95.554
G1 F1200 X146.63 Y95.896 E18.5668
G0 F2700 X146.576 Y95.976
G1 F1200 X146.268 Y95.976 E18.58213
G0 F2700 X143.964 Y97.693
G1 F1200 X143.964 Y98.953 E18.64483
G0 F2700 X144.285 Y98.642
G1 F1200 X140.35 Y98.642 E18.84066
G0 F2700 X139.665 Y98.642
G1 F1200 X136.272 Y98.642 E19.00951
G0 F2700 X135.966 Y98.511
G1 F1200 X135.966 Y97.65 E19.05236
G0 F2700 X133.746 Y95.976
G1 F1200 X132.722 Y95.976 E19.10332
G0 F2700 X133.3 Y95.469
G1 F1200 X133.3 Y96.62 E19.1606
G0 F2700 X132.011 Y93.31
G1 F1200 X131.167 Y93.31 E19.2026
G0 F2700 X130.634 Y91.12
G1 F1200 X130.634 Y88.893 E19.31343
G0 F2700 X130.793 Y87.978
G1 F1200 X131.589 Y87.978 E19.35304
G0 F2700 X131.375 Y90.644
G1 F1200 X130.598 Y90.644 E19.39171
G0 F2700 X131.829 Y85.312
G1 F1200 X132.723 Y85.312 E19.4362
G0 F2700 X138.632 Y98.54
G1 F1200 X138.632 Y99.327 E19.47537
G0 F2700 X141.298 Y99.768
G1 F1200 X141.298 Y98.545 E19.53623
G1 F3600 E13.03623
G0 F2700 X141.551 Y99.695
G0 X141.836 Y100.924
G0 X141.669 Y101.37
;TYPE:WALL-INNER
G1 F3600 E19.53623
G1 F1200 X142.001 Y101.295 E19.55317
G1 X142.711 Y101.165 E19.58909
G1 X142.96 Y101.109 E19.60179
