;FLAVOR:RepRap
;TIME:1826
;Filament used: 1.53764m
;Layer height: 0.2
;Generated with Cura_SteamEngine 2.5.0-twosilly
M190 S50
M104 S210
M109 S210
G28 ;Home
G1 Z15.0 F6000 ;Move the platform down 15mm
;Prime the extruder
G92 E0
G1 F200 E10
G92 E0
;LAYER_COUNT:76
;LAYER:0
M107
G0 F2700 X123.513 Y79.461 Z0.3
;TYPE:SKIRT
G1 F1200 X123.989 Y78.739 E0.04304
G1 X124.844 Y77.613 E0.1134
G1 X125.284 Y77.092 E0.14733
G1 X126.175 Y76.141 E0.21219
G1 X126.844 Y75.52 E0.25761
G1 X128.667 Y74.047 E0.37425
G1 X129.466 Y73.494 E0.42261
G1 X130.665 Y72.788 E0.49185
G1 X131.297 Y72.46 E0.52729
G1 X132.597 Y71.873 E0.59827
G1 X133.225 Y71.627 E0.63184
G1 X134.43 Y71.225 E0.69505
G1 X135.3 Y70.999 E0.73979
G1 X137.371 Y70.61 E0.84465
G1 X138.229 Y70.507 E0.88766
G1 X139.637 Y70.43 E0.95783
G1 X140.345 Y70.429 E0.99307
G1 X141.728 Y70.502 E1.06199
G1 X142.44 Y70.579 E1.09763
G1 X143.829 Y70.805 E1.16766
G1 X144.545 Y70.962 E1.20414
G1 X145.98 Y71.363 E1.27829
G1 X146.836 Y71.668 E1.32351
G1 X148.834 Y72.537 E1.43194
G1 X149.629 Y72.948 E1.47648
G1 X150.73 Y73.617 E1.54059
G1 X151.577 Y74.229 E1.59259
G1 X153.698 Y76.032 E1.73113
G1 X154.225 Y76.532 E1.76728
G1 X154.56 Y76.916 E1.79264
G1 X155.8 Y78.453 E1.89092
G1 X156.394 Y79.323 E1.94335
G1 X157.558 Y81.36 E2.0601
G1 X157.978 Y82.242 E2.10872
G1 X158.498 Y83.579 E2.18011
G1 X158.723 Y84.268 E2.21618
G1 X159.085 Y85.623 E2.28598
G1 X159.231 Y86.317 E2.32127
G1 X159.445 Y87.7 E2.39091
G1 X159.517 Y88.421 E2.42697
G1 X159.58 Y89.862 E2.49875
G1 X159.573 Y90.566 E2.53379
G1 X159.487 Y91.928 E2.60171
G1 X159.409 Y92.604 E2.63557
G1 X159.192 Y93.897 E2.70082
G1 X159.041 Y94.574 E2.73534
G1 X158.67 Y95.907 E2.8042
G1 X158.377 Y96.741 E2.84819
G1 X157.589 Y98.577 E2.94762
G1 X157.095 Y99.513 E3.00029
G1 X155.832 Y101.501 E3.1175
G1 X155.409 Y102.091 E3.15363
G1 X155.137 Y102.409 E3.17445
G1 X153.808 Y103.866 E3.27259
G1 X153.213 Y104.442 E3.3138
G1 X152.172 Y105.329 E3.38187
G1 X151.611 Y105.757 E3.41698
G1 X150.437 Y106.558 E3.48771
G1 X149.83 Y106.926 E3.52304
G1 X148.607 Y107.58 E3.59205
G1 X147.935 Y107.893 E3.62895
G1 X146.525 Y108.454 E3.70447
G1 X145.659 Y108.731 E3.74971
G1 X143.574 Y109.243 E3.85656
G1 X142.65 Y109.401 E3.90321
G1 X141.216 Y109.543 E3.97492
G1 X140.487 Y109.575 E4.01123
G1 X139.062 Y109.558 E4.08216
G1 X138.361 Y109.512 E4.11712
G1 X136.992 Y109.349 E4.18573
G1 X136.284 Y109.225 E4.2215
G1 X134.901 Y108.905 E4.29214
G1 X134.215 Y108.707 E4.32767
G1 X132.894 Y108.246 E4.3973
G1 X132.274 Y107.993 E4.43063
G1 X131.127 Y107.457 E4.49363
G1 X130.346 Y107.026 E4.53802
G1 X128.571 Y105.882 E4.64312
G1 X127.759 Y105.264 E4.6939
G1 X126.176 Y103.855 E4.79936
G1 X125.535 Y103.2 E4.84497
G1 X124.634 Y102.14 E4.9142
G1 X124.196 Y101.563 E4.95025
G1 X123.389 Y100.37 E5.02193
G1 X122.928 Y99.574 E5.06771
G1 X122.016 Y97.711 E5.17094
G1 X121.689 Y96.915 E5.21376
G1 X121.238 Y95.575 E5.28412
G1 X121.048 Y94.89 E5.3195
G1 X120.744 Y93.51 E5.38982
G1 X120.629 Y92.818 E5.42473
G1 X120.483 Y91.502 E5.49062
G1 X120.443 Y90.828 E5.52423
G1 X120.432 Y89.486 E5.59101
G1 X120.488 Y88.574 E5.63648
G1 X120.792 Y86.256 E5.75283
G1 X120.984 Y85.323 E5.80023
G1 X121.341 Y84.057 E5.86569
G1 X121.564 Y83.4 E5.90022
G1 X122.091 Y82.081 E5.97091
G1 X122.487 Y81.26 E6.01627
G1 X123.513 Y79.461 E6.11933
G0 F2700 X123.859 Y79.658
G1 F1200 X124.307 Y78.981 E6.15973
G1 X125.162 Y77.855 E6.23009
G1 X125.576 Y77.365 E6.26202
G1 X126.467 Y76.414 E6.32687
G1 X127.094 Y75.831 E6.36948
G1 X128.917 Y74.358 E6.48612
G1 X129.668 Y73.837 E6.5316
G1 X130.867 Y73.131 E6.60085
G1 X131.462 Y72.823 E6.63419
G1 X132.762 Y72.236 E6.70517
G1 X133.351 Y72.006 E6.73664
G1 X134.556 Y71.604 E6.79986
G1 X135.373 Y71.392 E6.84186
G1 X137.444 Y71.003 E6.94673
G1 X138.25 Y70.905 E6.98714
G1 X139.658 Y70.828 E7.05731
G1 X140.324 Y70.828 E7.09045
G1 X141.707 Y70.901 E7.15938
G1 X142.376 Y70.972 E7.19286
G1 X143.765 Y71.198 E7.26289
G1 X144.438 Y71.347 E7.29719
G1 X145.873 Y71.748 E7.37134
G1 X146.677 Y72.033 E7.41379
G1 X148.675 Y72.902 E7.52222
G1 X149.422 Y73.289 E7.56409
G1 X150.523 Y73.958 E7.6282
G1 X151.319 Y74.533 E7.67707
G1 X153.44 Y76.336 E7.81561
G1 X153.949 Y76.822 E7.85063
G1 X154.249 Y77.167 E7.87338
G1 X155.489 Y78.704 E7.97166
G1 X156.047 Y79.521 E8.0209
G1 X157.211 Y81.558 E8.13765
G1 X157.606 Y82.387 E8.18335
G1 X158.126 Y83.724 E8.25474
G1 X158.338 Y84.371 E8.28863
G1 X158.7 Y85.726 E8.35842
G1 X158.837 Y86.378 E8.39158
G1 X159.051 Y87.761 E8.46122
G1 X159.118 Y88.438 E8.49508
G1 X159.181 Y89.879 E8.56686
G1 X159.175 Y90.541 E8.59981
G1 X159.089 Y91.903 E8.66772
G1 X159.015 Y92.538 E8.69954
G1 X158.798 Y93.831 E8.76478
G1 X158.657 Y94.467 E8.7972
G1 X158.286 Y95.8 E8.86606
G1 X158.01 Y96.583 E8.90738
G1 X157.222 Y98.419 E9.00681
G1 X156.758 Y99.299 E9.05631
G1 X155.495 Y101.287 E9.17353
G1 X155.085 Y101.859 E9.20855
G1 X154.843 Y102.14 E9.227
G1 X153.514 Y103.597 E9.32515
G1 X152.954 Y104.138 E9.3639
G1 X151.913 Y105.025 E9.43196
G1 X151.386 Y105.428 E9.46497
G1 X150.212 Y106.229 E9.5357
G1 X149.642 Y106.574 E9.56886
G1 X148.419 Y107.228 E9.63788
G1 X147.787 Y107.522 E9.67257
G1 X146.377 Y108.083 E9.74808
G1 X145.564 Y108.343 E9.79056
G1 X143.479 Y108.855 E9.89741
G1 X142.611 Y109.004 E9.94123
G1 X141.177 Y109.146 E10.01295
G1 X140.492 Y109.176 E10.04707
G1 X139.067 Y109.159 E10.11799
G1 X138.408 Y109.116 E10.15086
G1 X137.039 Y108.953 E10.21947
G1 X136.374 Y108.836 E10.25307
G1 X134.991 Y108.516 E10.32371
G1 X134.346 Y108.33 E10.35712
G1 X133.025 Y107.869 E10.42675
G1 X132.443 Y107.632 E10.45802
G1 X131.296 Y107.096 E10.52103
G1 X130.562 Y106.69 E10.56277
G1 X128.787 Y105.546 E10.66786
G1 X128.024 Y104.966 E10.71556
G1 X126.441 Y103.557 E10.82102
G1 X125.839 Y102.941 E10.86388
G1 X124.938 Y101.881 E10.93312
G1 X124.527 Y101.34 E10.96693
G1 X123.72 Y100.147 E11.03861
G1 X123.286 Y99.399 E11.08164
G1 X122.374 Y97.536 E11.18487
G1 X122.067 Y96.788 E11.22511
G1 X121.616 Y95.448 E11.29547
G1 X121.437 Y94.804 E11.32873
G1 X121.133 Y93.424 E11.39906
G1 X121.026 Y92.774 E11.43184
G1 X120.88 Y91.458 E11.49773
G1 X120.842 Y90.825 E11.52929
G1 X120.831 Y89.483 E11.59608
G1 X120.884 Y88.626 E11.63881
G1 X121.188 Y86.308 E11.75515
G1 X121.368 Y85.431 E11.79971
G1 X121.725 Y84.165 E11.86517
G1 X121.935 Y83.548 E11.8976
G1 X122.462 Y82.229 E11.96829
G1 X122.833 Y81.457 E12.01091
G1 X123.859 Y79.658 E12.11398
G1 F3600 E5.61398
G0 F2700 X128.872 Y82.094
G0 X128.944 Y82.129
G0 X132.313 Y83.768
G0 X132.385 Y83.803
G0 X132.739 Y83.976
;TYPE:SUPPORT
G1 F3600 E12.11398
G1 F1200 X133.319 Y83.921 E12.14297
G1 X133.574 Y83.547 E12.1655
G1 X133.647 Y83.62 E12.17064
G1 X134.043 Y83.562 E12.19055
G1 X134.468 Y82.772 E12.2352
G1 X134.99 Y82.01 E12.28116
G1 X135.686 Y81.198 E12.33438
G1 X136.452 Y80.49 E12.38629
G1 X136.825 Y80.213 E12.40942
G1 X137.321 Y80.053 E12.43535
G1 X138.423 Y79.823 E12.49137
G1 X138.748 Y79.786 E12.50765
G1 X138.756 Y79.785 E12.50805
G1 X138.84 Y80.032 E12.52104
G1 X139.251 Y80.345 E12.54675
G1 X140.766 Y80.439 E12.62229
G1 X140.766 Y80.438 E12.62234
G1 X141.204 Y80.477 E12.64422
G1 X141.803 Y80.585 E12.67451
G1 X142.304 Y80.684 E12.69992
G1 X143.251 Y80.97 E12.74916
G1 X143.652 Y81.13 E12.77064
G1 X144.265 Y81.406 E12.8041
G1 X144.652 Y81.608 E12.82582
G1 X145.215 Y81.949 E12.85858
G1 X145.519 Y82.146 E12.87661
G1 X145.979 Y82.507 E12.90571
G1 X146.377 Y82.826 E12.93109
G1 X147.161 Y83.609 E12.98623
G1 X147.322 Y83.804 E12.99882
G1 X147.814 Y84.433 E13.03856
G1 X148.039 Y84.766 E13.05856
G1 X148.371 Y85.314 E13.09044
G1 X148.574 Y85.691 E13.11175
G1 X148.782 Y86.152 E13.13692
G1 X149.003 Y86.676 E13.16522
G1 X149.322 Y87.708 E13.21898
G1 X149.517 Y88.787 E13.27354
G1 X149.529 Y88.945 E13.28143
G1 X149.528 Y88.945 E13.28148
G1 X149.587 Y89.847 E13.32646
G1 X149.588 Y89.851 E13.32667
G1 X149.587 Y89.963 E13.33224
G1 X149.576 Y90.254 E13.34674
G1 X149.562 Y90.504 E13.3592
G1 X149.555 Y90.636 E13.36577
G1 X149.555 Y90.644 E13.36617
G1 X149.55 Y90.73 E13.37046
G1 X149.55 Y90.736 E13.37076
G1 X149.537 Y90.984 E13.38312
G1 X149.502 Y91.312 E13.39953
G1 X149.384 Y91.96 E13.43231
G1 X149.307 Y92.345 E13.45185
G1 X149.179 Y92.758 E13.47337
G1 X149.178 Y92.758 E13.47342
G1 X148.97 Y93.409 E13.50743
G1 X148.815 Y93.757 E13.52639
G1 X148.532 Y94.385 E13.56067
G1 X148.409 Y94.593 E13.57269
G1 X148.272 Y94.825 E13.5861
G1 X148.078 Y95.149 E13.60489
G1 X148.017 Y95.26 E13.6112
G1 X147.839 Y95.52 E13.62688
G1 X147.343 Y96.163 E13.66729
G1 X147.087 Y96.465 E13.68699
G1 X146.7 Y96.852 E13.71423
G1 X146.326 Y97.215 E13.74017
G1 X145.469 Y97.885 E13.7943
G1 X145.447 Y97.899 E13.7956
G1 X144.89 Y98.236 E13.828
G1 X144.467 Y98.492 E13.8526
G1 X144.33 Y98.561 E13.86024
G1 X143.596 Y98.888 E13.90023
G1 X143.259 Y99.018 E13.9182
G1 X142.434 Y99.276 E13.96122
G1 X142.251 Y99.329 E13.9707
G1 X141.591 Y99.451 E14.0041
G1 X141.138 Y99.528 E14.02697
G1 X141.078 Y99.533 E14.02997
G1 X141.078 Y99.532 E14.03002
G1 X140.051 Y99.593 E14.08122
G1 X139.656 Y99.578 E14.10089
G1 X139.614 Y99.576 E14.10298
G1 X137.98 Y99.369 E14.18495
G1 X137.835 Y99.342 E14.19229
G1 X137.753 Y99.324 E14.19646
G1 X137.516 Y99.253 E14.20878
G1 X137.413 Y99.222 E14.21413
G1 X137.297 Y99.187 E14.22016
G1 X137.065 Y99.116 E14.23223
G1 X136.824 Y99.043 E14.24477
G1 X136.782 Y99.031 E14.24694
G1 X136.579 Y98.963 E14.25759
G1 X135.532 Y98.494 E14.31469
G1 X135.274 Y98.339 E14.32966
G1 X135.049 Y98.204 E14.34272
G1 X134.69 Y97.988 E14.36357
G1 X134.646 Y97.962 E14.36612
G1 X134.412 Y97.782 E14.38081
G1 X134.123 Y97.562 E14.39888
G1 X134.012 Y97.477 E14.40584
G1 X133.252 Y96.795 E14.45666
G1 X133.118 Y96.659 E14.46616
G1 X133.074 Y96.62 E14.46909
G1 X133.017 Y96.56 E14.4732
G1 X132.977 Y96.523 E14.47592
G1 X132.95 Y96.496 E14.47782
G1 X132.75 Y96.284 E14.49232
G1 X132.367 Y95.793 E14.52331
G1 X132.12 Y95.475 E14.54335
G1 X132.075 Y95.413 E14.54716
G1 X131.578 Y94.589 E14.59505
G1 X131.535 Y94.517 E14.59922
G1 X131.535 Y94.511 E14.59952
G1 X131.243 Y93.887 E14.63381
G1 X131.144 Y93.666 E14.64586
G1 X131.114 Y93.603 E14.64933
G1 X131.102 Y93.577 E14.65076
G1 X131.053 Y93.468 E14.6567
G1 X131.011 Y93.354 E14.66275
G1 X130.71 Y92.39 E14.71301
G1 X130.664 Y92.204 E14.72254
G1 X130.499 Y91.298 E14.76837
G1 X130.477 Y91.145 E14.77606
G1 X130.406 Y89.945 E14.83589
G1 X130.409 Y89.878 E14.83922
G1 X130.472 Y88.877 E14.88914
G1 X130.51 Y88.634 E14.90138
G1 X130.654 Y87.848 E14.94115
G1 X130.656 Y87.84 E14.94156
G1 X130.736 Y87.537 E14.95715
G1 X130.737 Y87.537 E14.9572
G1 X130.852 Y87.154 E14.9771
G1 X130.944 Y86.855 E14.99267
G1 X131.035 Y86.612 E15.00558
G1 X131.07 Y86.523 E15.01034
G1 X131.469 Y85.617 E15.05961
G1 X131.511 Y85.528 E15.06451
G1 X131.595 Y85.386 E15.07272
G1 X132.007 Y84.702 E15.11245
G1 X132.047 Y84.641 E15.11608
G1 X132.111 Y84.537 E15.12216
G1 X132.246 Y84.363 E15.13312
G1 X132.341 Y84.24 E15.14086
G1 X132.606 Y83.904 E15.16215
G1 X132.633 Y83.87 E15.16431
G1 X132.739 Y83.976 E15.17177
G0 F2700 X133.822 Y84.113
G1 F1200 X132.993 Y85.185 E15.23921
G1 X132.498 Y85.99 E15.28624
G1 X132.431 Y86.145 E15.29465
G1 X132.212 Y86.476 E15.3144
G1 X131.335 Y89.187 E15.45619
G1 X131.636 Y91.513 E15.57291
G1 X131.834 Y92.361 E15.61625
G1 X132.164 Y93.301 E15.66583
G1 X132.546 Y94.088 E15.70936
G1 X133.055 Y94.896 E15.75689
G1 X133.629 Y95.627 E15.80314
G1 X134.327 Y96.336 E15.85265
G1 X135.04 Y96.902 E15.89796
G1 X135.809 Y97.399 E15.94352
G1 X136.657 Y97.82 E15.99064
G1 X137.431 Y98.1 E16.0316
G1 X137.59 Y98.153 E16.03994
G1 X138.428 Y98.354 E16.08283
G1 X139.375 Y98.476 E16.13035
G1 X140.357 Y98.489 E16.17922
G1 X141.272 Y98.401 E16.22497
G1 X142.16 Y98.223 E16.27004
G1 X143.079 Y97.924 E16.31813
G1 X143.911 Y97.548 E16.36357
G1 X144.754 Y97.044 E16.41245
G1 X145.472 Y96.501 E16.45725
G1 X146.161 Y95.857 E16.50418
G1 X146.754 Y95.165 E16.54953
G1 X147.297 Y94.359 E16.5979
G1 X147.739 Y93.517 E16.64522
G1 X148.069 Y92.676 E16.69018
G1 X148.314 Y91.791 E16.73588
G1 X148.472 Y90.741 E16.78872
G1 X148.505 Y89.904 E16.83041
G1 X148.438 Y88.943 E16.87835
G1 X148.356 Y88.5 E16.90077
G1 X148.275 Y88.052 E16.92343
G1 X147.994 Y87.111 E16.9723
G1 X147.623 Y86.243 E17.01928
G1 X147.171 Y85.432 E17.06548
G1 X146.615 Y84.662 E17.11275
G1 X146.01 Y83.986 E17.15789
G1 X145.548 Y83.573 E17.18873
G1 X145.315 Y83.361 E17.20441
G1 X144.546 Y82.816 E17.25131
G1 X143.713 Y82.353 E17.29874
G1 X142.869 Y81.995 E17.34437
G1 X141.943 Y81.723 E17.3924
G1 X141.033 Y81.559 E17.43841
G1 X140.259 Y81.512 E17.477
G1 X140.125 Y81.499 E17.4837
G1 X139.156 Y81.542 E17.53197
G1 X138.203 Y81.69 E17.57997
G1 X137.324 Y81.931 E17.62532
G1 X136.451 Y82.278 E17.67208
G1 X135.626 Y82.709 E17.7184
G1 X134.831 Y83.252 E17.76631
G1 X133.822 Y84.113 E17.83232
G0 F2700 X133.3 Y84.085
G1 F1200 X133.3 Y84.526 E17.85427
G0 F2700 X132.724 Y85.312
G1 F1200 X131.828 Y85.312 E17.89886
G0 F2700 X131.556 Y87.978
G1 F1200 X130.794 Y87.978 E17.93678
G0 F2700 X130.634 Y88.88
G1 F1200 X130.634 Y91.087 E18.04661
G0 F2700 X130.607 Y90.644
G1 F1200 X131.362 Y90.644 E18.08418
G0 F2700 X131.166 Y93.31
G1 F1200 X131.998 Y93.31 E18.12559
G0 F2700 X133.3 Y95.468
G1 F1200 X133.3 Y96.614 E18.18262
G0 F2700 X133.748 Y95.976
G1 F1200 X132.715 Y95.976 E18.23403
G0 F2700 X135.966 Y97.657
G1 F1200 X135.966 Y98.511 E18.27653
G0 F2700 X136.259 Y98.642
G1 F1200 X139.826 Y98.642 E18.45404
G0 F2700 X140.435 Y98.642
G1 F1200 X143.752 Y98.642 E18.61911
G0 F2700 X143.964 Y98.549
G1 F1200 X143.964 Y97.699 E18.66141
G0 F2700 X141.298 Y98.56
G1 F1200 X141.298 Y99.339 E18.70018
G0 F2700 X138.632 Y99.289
G1 F1200 X138.632 Y98.543 E18.7373
G0 F2700 X146.269 Y95.976
G1 F1200 X147.283 Y95.976 E18.78777
G0 F2700 X146.63 Y95.556
G1 F1200 X146.63 Y96.696 E18.8445
G0 F2700 X147.993 Y93.31
G1 F1200 X148.833 Y93.31 E18.8863
G0 F2700 X149.296 Y91.547
G1 F1200 X149.296 Y88.469 E19.03948
G0 F2700 X149.208 Y87.978
G1 F1200 X148.421 Y87.978 E19.07865
G0 F2700 X148.638 Y90.644
G1 F1200 X149.394 Y90.644 E19.11627
G0 F2700 X148.182 Y85.312
G1 F1200 X147.283 Y85.312 E19.16101
G0 F2700 X146.63 Y84.437
G1 F1200 X146.63 Y83.306 E19.21729
G0 F2700 X145.898 Y82.646
G1 F1200 X144.572 Y82.646 E19.28328
G0 F2700 X143.964 Y82.308
G1 F1200 X143.964 Y81.448 E19.32608
G0 F2700 X141.298 Y81.442
G1 F1200 X141.298 Y80.658 E19.3651
G1 F3600 E12.8651
G0 F2700 X138.775 Y80.246
G0 X138.654 Y79.98
G1 F3600 E19.3651
G1 F1200 X138.456 Y79.98 E19.37495
G0 F2700 X138.632 Y79.96
G1 F1200 X138.632 Y81.461 E19.44965
G0 F2700 X135.966 Y81.159
G1 F1200 X135.966 Y82.35 E19.50892
G0 F2700 X135.431 Y82.646
G1 F1200 X134.749 Y82.646 E19.54286
G1 F3600 E13.04286
G0 F2700 X134.376 Y82.38
G0 X133.347 Y81.651
G0 X132.728 Y80.989
;TYPE:WALL-INNER
G1 F3600 E19.54286
G1 F1200 X132.588 Y81.135 E19.55292
G1 X131.389 Y82.384 E19.63909
G1 X130.537 Y83.471 E19.70782
G1 X129.804 Y84.689 E19.77856
G1 X129.25 Y85.925 E19.84597
G1 X128.832 Y87.265 E19.91582
G1 X128.586 Y88.614 E19.98406
G1 X128.502 Y89.998 E20.05307
G1 X128.591 Y91.422 E20.12407
G1 X128.837 Y92.753 E20.19143
G1 X129.255 Y94.093 E20.26129
G1 X129.821 Y95.343 E20.32957
G1 X130.538 Y96.531 E20.39863
G1 X131.383 Y97.612 E20.46691
G1 X132.377 Y98.604 E20.5368
G1 X133.48 Y99.47 E20.60658
G1 X134.656 Y100.181 E20.67497
G1 X135.925 Y100.752 E20.74422
G1 X137.287 Y101.172 E20.81515
G1 X138.615 Y101.412 E20.88231
G1 X140.012 Y101.498 E20.95197
G1 X141.385 Y101.415 E21.02042
G1 X142.737 Y101.168 E21.08882
G1 X144.078 Y100.75 E21.15872
G1 X145.367 Y100.168 E21.2291
G1 X146.531 Y99.461 E21.29688
G1 X147.624 Y98.606 E21.36594
G1 X148.589 Y97.643 E21.43378
G1 X149.461 Y96.531 E21.50411
G1 X150.192 Y95.32 E21.5745
G1 X150.75 Y94.076 E21.64235
G1 X151.163 Y92.753 E21.71133
G1 X151.403 Y91.45 E21.77726
G1 X151.422 Y91.29 E21.78528
G1 X151.496 Y89.998 E21.84968
G1 X151.411 Y88.591 E21.91983
G1 X151.164 Y87.25 E21.98769
G1 X150.761 Y85.949 E22.05547
G1 X150.18 Y84.659 E22.12588
G1 X149.529 Y83.572 E22.18893
G1 X149.418 Y83.407 E22.19883
G1 X148.604 Y82.376 E22.2642
G1 X147.626 Y81.395 E22.33313
G1 X146.587 Y80.578 E22.39891
G1 X146.384 Y80.445 E22.41099
G1 X145.364 Y79.834 E22.47016
G1 X145.226 Y79.763 E22.47788
G1 X144.245 Y79.321 E22.53143
