;FLAVOR:RepRap
;TIME:2493
;Filament used: 1.97527m
;Layer height: 0.2
;Generated with Cura_SteamEngine 2.5.0-twosilly
M190 S50
M104 S210
M109 S210
G28 ;Home
G1 Z15.0 F6000 ;Move the platform down 15mm
;Prime the extruder
G92 E0
G1 F200 E10
G92 E0
;LAYER_COUNT:125
;LAYER:0
M107
G0 F2700 X124.037 Y80.507 Z0.3
;TYPE:SKIRT
G1 F1200 X124.754 Y79.393 E0.06593
G1 X125.196 Y78.785 E0.10334
G1 X126.074 Y77.712 E0.17233
G1 X126.697 Y77.05 E0.21757
G1 X128.188 Y75.669 E0.31871
G1 X128.951 Y75.06 E0.36729
G1 X130.086 Y74.285 E0.43569
G1 X130.721 Y73.902 E0.47259
G1 X131.925 Y73.265 E0.54038
G1 X132.613 Y72.95 E0.57804
G1 X133.908 Y72.445 E0.64721
G1 X134.844 Y72.158 E0.69593
G1 X136.834 Y71.706 E0.79749
G1 X137.887 Y71.555 E0.85043
G1 X139.917 Y71.429 E0.95165
G1 X140.886 Y71.44 E0.99987
G1 X142.271 Y71.558 E1.06905
G1 X142.99 Y71.659 E1.10518
G1 X143.39 Y71.751 E1.1256
G1 X146.036 Y72.447 E1.26176
G1 X146.727 Y72.67 E1.2979
G1 X147.098 Y72.826 E1.31793
G1 X148.32 Y73.384 E1.38478
G1 X149.165 Y73.847 E1.43273
G1 X150.88 Y74.957 E1.53439
G1 X151.725 Y75.607 E1.58745
G1 X153.261 Y76.999 E1.69061
G1 X153.772 Y77.516 E1.72678
G1 X154.077 Y77.887 E1.75068
G1 X155.337 Y79.539 E1.85408
G1 X155.913 Y80.437 E1.90717
G1 X156.864 Y82.221 E2.00778
G1 X157.252 Y83.096 E2.05542
G1 X157.703 Y84.353 E2.12188
G1 X157.916 Y85.073 E2.15924
G1 X158.238 Y86.444 E2.22933
G1 X158.382 Y87.316 E2.27331
G1 X158.553 Y89.079 E2.36146
G1 X158.583 Y89.813 E2.39802
G1 X158.569 Y90.765 E2.4454
G1 X158.527 Y91.417 E2.47791
G1 X158.371 Y92.783 E2.54633
G1 X158.243 Y93.526 E2.58385
G1 X157.933 Y94.862 E2.65211
G1 X157.721 Y95.585 E2.6896
G1 X157.255 Y96.893 E2.7587
G1 X156.974 Y97.562 E2.79481
G1 X156.783 Y97.926 E2.81527
G1 X155.447 Y100.289 E2.95036
G1 X155.056 Y100.9 E2.98646
G1 X154.671 Y101.384 E3.01724
G1 X153.308 Y102.943 E3.12029
G1 X152.659 Y103.59 E3.1659
G1 X151.64 Y104.472 E3.23297
G1 X151.042 Y104.932 E3.27051
G1 X149.882 Y105.724 E3.34041
G1 X149.228 Y106.117 E3.37838
G1 X148.026 Y106.748 E3.44594
G1 X147.347 Y107.057 E3.48307
G1 X146.09 Y107.545 E3.55017
G1 X145.372 Y107.777 E3.58772
G1 X144.011 Y108.133 E3.65773
G1 X143.261 Y108.284 E3.69581
G1 X141.918 Y108.473 E3.7633
G1 X141.028 Y108.537 E3.80771
G1 X139.02 Y108.546 E3.90764
G1 X138.294 Y108.509 E3.94381
G1 X137.834 Y108.444 E3.96693
G1 X135.772 Y108.077 E4.07116
G1 X134.731 Y107.802 E4.12474
G1 X132.831 Y107.131 E4.22502
G1 X131.953 Y106.748 E4.27269
G1 X130.736 Y106.107 E4.34114
G1 X130.092 Y105.72 E4.37853
G1 X128.969 Y104.954 E4.44618
G1 X128.37 Y104.492 E4.48383
G1 X127.324 Y103.587 E4.55266
G1 X126.776 Y103.055 E4.59067
G1 X125.858 Y102.053 E4.6583
G1 X125.392 Y101.483 E4.69494
G1 X124.584 Y100.375 E4.76319
G1 X124.172 Y99.736 E4.80102
G1 X123.505 Y98.557 E4.86843
G1 X123.172 Y97.88 E4.90598
G1 X122.631 Y96.602 E4.97505
G1 X122.377 Y95.892 E5.01257
G1 X121.994 Y94.59 E5.08011
G1 X121.824 Y93.859 E5.11746
G1 X121.588 Y92.502 E5.18601
G1 X121.492 Y91.531 E5.23456
G1 X121.442 Y89.473 E5.33701
G1 X121.484 Y88.553 E5.38284
G1 X121.642 Y87.19 E5.45113
G1 X121.806 Y86.308 E5.49577
G1 X122.312 Y84.339 E5.59695
G1 X122.531 Y83.646 E5.63311
G1 X122.717 Y83.203 E5.65702
G1 X123.6 Y81.3 E5.76143
G1 X124.037 Y80.507 E5.80649
G0 F2700 X124.373 Y80.722
G1 F1200 X125.09 Y79.608 E5.87242
G1 X125.505 Y79.038 E5.9075
G1 X126.383 Y77.965 E5.9765
G1 X126.968 Y77.342 E6.01903
G1 X128.459 Y75.961 E6.12017
G1 X129.176 Y75.39 E6.16578
G1 X130.311 Y74.615 E6.23418
G1 X130.908 Y74.255 E6.26887
G1 X132.112 Y73.618 E6.33666
G1 X132.758 Y73.322 E6.37202
G1 X134.053 Y72.817 E6.44119
G1 X134.933 Y72.547 E6.487
G1 X136.923 Y72.095 E6.58856
G1 X137.912 Y71.953 E6.63828
G1 X139.942 Y71.827 E6.7395
G1 X140.852 Y71.837 E6.78479
G1 X142.237 Y71.955 E6.85396
G1 X142.934 Y72.055 E6.88901
G1 X143.288 Y72.137 E6.90709
G1 X145.934 Y72.833 E7.04325
G1 X146.604 Y73.05 E7.0783
G1 X146.932 Y73.189 E7.09602
G1 X148.154 Y73.747 E7.16288
G1 X148.948 Y74.182 E7.20793
G1 X150.663 Y75.292 E7.3096
G1 X151.457 Y75.903 E7.35946
G1 X152.993 Y77.295 E7.46262
G1 X153.487 Y77.796 E7.49763
G1 X153.76 Y78.129 E7.51906
G1 X155.02 Y79.781 E7.62246
G1 X155.561 Y80.624 E7.6723
G1 X156.512 Y82.408 E7.77291
G1 X156.877 Y83.231 E7.81772
G1 X157.328 Y84.488 E7.88418
G1 X157.528 Y85.164 E7.91926
G1 X157.85 Y86.535 E7.98934
G1 X157.985 Y87.354 E8.03065
G1 X158.156 Y89.117 E8.1188
G1 X158.184 Y89.807 E8.15317
G1 X158.17 Y90.759 E8.20055
G1 X158.131 Y91.371 E8.23107
G1 X157.975 Y92.737 E8.29949
G1 X157.855 Y93.435 E8.33473
G1 X157.545 Y94.771 E8.40299
G1 X157.345 Y95.451 E8.43826
G1 X156.879 Y96.759 E8.50736
G1 X156.606 Y97.407 E8.54236
G1 X156.436 Y97.729 E8.56048
G1 X155.1 Y100.092 E8.69557
G1 X154.719 Y100.685 E8.73064
G1 X154.371 Y101.122 E8.75844
G1 X153.008 Y102.681 E8.8615
G1 X152.398 Y103.288 E8.90432
G1 X151.379 Y104.17 E8.97139
G1 X150.817 Y104.602 E9.00667
G1 X149.657 Y105.394 E9.07657
G1 X149.043 Y105.764 E9.11224
G1 X147.841 Y106.395 E9.1798
G1 X147.203 Y106.685 E9.21468
G1 X145.946 Y107.173 E9.28178
G1 X145.271 Y107.391 E9.31708
G1 X143.91 Y107.747 E9.38709
G1 X143.205 Y107.889 E9.42288
G1 X141.862 Y108.078 E9.49038
G1 X141.026 Y108.138 E9.53209
G1 X139.018 Y108.147 E9.63202
G1 X138.315 Y108.11 E9.66705
G1 X137.904 Y108.051 E9.68771
G1 X135.842 Y107.684 E9.79194
G1 X134.863 Y107.426 E9.84233
G1 X132.963 Y106.755 E9.94261
G1 X132.139 Y106.395 E9.98735
G1 X130.922 Y105.754 E10.05581
G1 X130.317 Y105.39 E10.09094
G1 X129.194 Y104.624 E10.15859
G1 X128.631 Y104.191 E10.19394
G1 X127.585 Y103.286 E10.26277
G1 X127.071 Y102.785 E10.29849
G1 X126.153 Y101.783 E10.36612
G1 X125.715 Y101.248 E10.40053
G1 X124.907 Y100.14 E10.46878
G1 X124.52 Y99.54 E10.50431
G1 X123.853 Y98.361 E10.57172
G1 X123.539 Y97.725 E10.60702
G1 X122.998 Y96.447 E10.67608
G1 X122.76 Y95.78 E10.71133
G1 X122.377 Y94.478 E10.77887
G1 X122.217 Y93.79 E10.81402
G1 X121.981 Y92.433 E10.88256
G1 X121.891 Y91.522 E10.92812
G1 X121.841 Y89.464 E11.03057
G1 X121.88 Y88.599 E11.07366
G1 X122.038 Y87.236 E11.14194
G1 X122.192 Y86.407 E11.1839
G1 X122.698 Y84.438 E11.28508
G1 X122.912 Y83.767 E11.32013
G1 X123.079 Y83.371 E11.34151
G1 X123.962 Y81.468 E11.44592
G1 X124.373 Y80.722 E11.4883
G1 F3600 E4.9883
G0 F2700 X129.182 Y83.441
G0 X130.297 Y84.07
G0 X130.739 Y84.057
;TYPE:WALL-INNER
G1 F3600 E11.4883
G1 F1200 X131.479 Y83.039 E11.55093
G1 X132.341 Y82.101 E11.61433
G1 X133.272 Y81.294 E11.67565
G1 X134.318 Y80.58 E11.73867
G1 X135.437 Y79.988 E11.80167
G1 X136.601 Y79.536 E11.86381
G1 X137.812 Y79.218 E11.92612
G1 X139.057 Y79.038 E11.98873
G1 X140.312 Y79.003 E12.05121
G1 X141.573 Y79.11 E12.11419
G1 X142.806 Y79.36 E12.17679
G1 X143.982 Y79.743 E12.23834
G1 X145.133 Y80.268 E12.3013
G1 X146.207 Y80.917 E12.36375
G1 X147.206 Y81.687 E12.42652
G1 X148.11 Y82.566 E12.48927
G1 X148.897 Y83.529 E12.55116
G1 X149.582 Y84.594 E12.61418
G1 X150.136 Y85.721 E12.67667
G1 X150.555 Y86.895 E12.73871
G1 X150.842 Y88.134 E12.802
G1 X150.984 Y89.374 E12.86411
G1 X151.003 Y90.019 E12.89623
G1 X150.984 Y90.626 E12.92645
G1 X150.842 Y91.866 E12.98856
G1 X150.555 Y93.105 E13.05185
G1 X150.136 Y94.279 E13.11389
G1 X149.582 Y95.406 E13.17638
G1 X148.897 Y96.471 E13.2394
G1 X148.11 Y97.434 E13.30129
G1 X147.206 Y98.313 E13.36404
G1 X146.207 Y99.083 E13.42681
G1 X145.133 Y99.732 E13.48926
G1 X143.982 Y100.257 E13.55222
G1 X142.806 Y100.64 E13.61377
G1 X141.573 Y100.89 E13.67638
G1 X140.312 Y100.997 E13.73936
G1 X139.057 Y100.962 E13.80184
G1 X137.812 Y100.782 E13.86444
G1 X136.601 Y100.464 E13.92675
G1 X135.437 Y100.012 E13.98889
G1 X134.318 Y99.42 E14.05189
G1 X133.272 Y98.706 E14.11491
G1 X132.34 Y97.898 E14.1763
G1 X131.479 Y96.961 E14.23963
G1 X130.739 Y95.943 E14.30226
G1 X130.131 Y94.865 E14.36385
G1 X129.638 Y93.698 E14.4269
G1 X129.283 Y92.488 E14.48965
G1 X129.07 Y91.255 E14.55192
G1 X128.997 Y89.997 E14.61463
G1 X129.07 Y88.745 E14.67704
G1 X129.283 Y87.512 E14.73931
G1 X129.638 Y86.302 E14.80207
G1 X130.131 Y85.135 E14.86511
G1 X130.739 Y84.057 E14.9267
G0 F2700 X134.762 Y87.075
G1 F1200 X134.344 Y88 E14.97722
G1 X134.086 Y88.985 E15.02789
G1 X134.001 Y90 E15.07858
G1 X134.086 Y91.015 E15.12927
G1 X134.344 Y92 E15.17994
G1 X134.762 Y92.925 E15.23046
G1 X135.332 Y93.769 E15.28114
G1 X136.036 Y94.503 E15.33175
G1 X136.854 Y95.109 E15.38242
G1 X137.764 Y95.567 E15.43311
G1 X138.737 Y95.864 E15.48374
G1 X139.745 Y95.994 E15.53432
G1 X140.762 Y95.951 E15.58498
G1 X141.756 Y95.737 E15.63558
G1 X142.701 Y95.358 E15.68625
G1 X143.568 Y94.824 E15.73692
G1 X144.331 Y94.151 E15.78755
G1 X144.971 Y93.36 E15.83819
G1 X145.467 Y92.472 E15.88881
G1 X145.807 Y91.512 E15.93949
G1 X145.975 Y90.529 E15.98912
G1 X145.996 Y89.997 E16.01561
G1 X145.975 Y89.471 E16.04181
G1 X145.807 Y88.488 E16.09144
G1 X145.467 Y87.528 E16.14212
G1 X144.971 Y86.64 E16.19274
G1 X144.331 Y85.849 E16.24338
G1 X143.568 Y85.176 E16.29401
G1 X142.701 Y84.642 E16.34468
G1 X141.756 Y84.263 E16.39535
G1 X140.762 Y84.049 E16.44595
G1 X139.745 Y84.006 E16.49661
G1 X138.737 Y84.136 E16.54719
G1 X137.764 Y84.433 E16.59782
G1 X136.854 Y84.891 E16.64851
G1 X136.036 Y85.497 E16.69918
G1 X135.332 Y86.231 E16.74979
G1 X134.762 Y87.075 E16.80047
G0 F2700 X135.112 Y87.27
G1 F1200 X134.721 Y88.134 E16.84767
G1 X134.481 Y89.053 E16.89494
G1 X134.401 Y90 E16.94223
G1 X134.481 Y90.947 E16.98953
G1 X134.721 Y91.866 E17.0368
G1 X135.112 Y92.73 E17.08399
G1 X135.644 Y93.517 E17.13127
G1 X136.301 Y94.203 E17.17854
G1 X137.064 Y94.768 E17.22579
G1 X137.913 Y95.195 E17.27308
G1 X138.821 Y95.473 E17.32034
G1 X139.762 Y95.594 E17.36755
G1 X140.711 Y95.554 E17.41482
G1 X141.639 Y95.354 E17.46206
G1 X142.521 Y95 E17.50936
G1 X143.33 Y94.502 E17.55664
G1 X144.042 Y93.874 E17.60388
G1 X144.639 Y93.136 E17.65112
G1 X145.102 Y92.307 E17.69838
G1 X145.419 Y91.411 E17.74567
G1 X145.577 Y90.487 E17.79233
G1 X145.597 Y89.997 E17.81673
G1 X145.577 Y89.513 E17.84084
G1 X145.419 Y88.589 E17.88749
G1 X145.102 Y87.693 E17.93479
G1 X144.639 Y86.864 E17.98204
G1 X144.042 Y86.126 E18.02928
G1 X143.33 Y85.498 E18.07653
G1 X142.521 Y85 E18.1238
G1 X141.639 Y84.646 E18.1711
G1 X140.711 Y84.446 E18.21834
G1 X139.762 Y84.406 E18.26561
G1 X138.821 Y84.527 E18.31283
G1 X137.913 Y84.805 E18.36008
G1 X137.064 Y85.232 E18.40738
G1 X136.301 Y85.797 E18.45463
G1 X135.644 Y86.483 E18.5019
G1 X135.112 Y87.27 E18.54917
G0 F2700 X135.025 Y87.222
G0 X129.858 Y85.009
G0 X129.769 Y84.965
G1 F1200 X130.405 Y83.839 E18.61353
G1 X131.171 Y82.784 E18.67841
G1 X132.058 Y81.819 E18.74364
G1 X133.035 Y80.972 E18.80799
G1 X134.112 Y80.237 E18.87288
G1 X135.269 Y79.625 E18.93801
G1 X136.475 Y79.156 E19.00241
G1 X137.733 Y78.826 E19.06713
G1 X139.023 Y78.64 E19.13199
G1 X140.326 Y78.603 E19.19687
G1 X141.625 Y78.714 E19.26175
G1 X142.904 Y78.973 E19.32669
G1 X144.133 Y79.373 E19.39101
G1 X145.32 Y79.915 E19.45595
G1 X146.433 Y80.587 E19.52065
G1 X147.465 Y81.383 E19.58551
G1 X148.404 Y82.295 E19.65065
G1 X149.224 Y83.299 E19.71516
G1 X149.928 Y84.393 E19.7799
G1 X150.505 Y85.567 E19.845
G1 X150.939 Y86.783 E19.90926
G1 X151.235 Y88.06 E19.97449
G1 X151.383 Y89.353 E20.03926
G1 X151.402 Y90.02 E20.07247
G1 X151.383 Y90.647 E20.10368
G1 X151.235 Y91.94 E20.16845
G1 X150.939 Y93.217 E20.23369
G1 X150.505 Y94.433 E20.29794
G1 X149.928 Y95.607 E20.36304
G1 X149.224 Y96.701 E20.42778
G1 X148.404 Y97.705 E20.49229
G1 X147.465 Y98.617 E20.55744
G1 X146.433 Y99.413 E20.6223
G1 X145.32 Y100.085 E20.687
G1 X144.133 Y100.627 E20.75194
G1 X142.904 Y101.027 E20.81626
G1 X141.625 Y101.286 E20.8812
G1 X140.326 Y101.397 E20.94608
G1 X139.023 Y101.36 E21.01095
G1 X137.733 Y101.174 E21.07581
G1 X136.475 Y100.844 E21.14053
G1 X135.269 Y100.375 E21.20493
G1 X134.112 Y99.763 E21.27007
G1 X133.035 Y99.028 E21.33496
G1 X132.057 Y98.18 E21.39938
G1 X131.171 Y97.216 E21.46453
G1 X130.405 Y96.161 E21.52942
G1 X129.769 Y95.035 E21.59377
G1 X129.262 Y93.834 E21.65865
G1 X128.894 Y92.58 E21.72369
G1 X128.673 Y91.302 E21.78823
G1 X128.598 Y89.997 E21.85328
G1 X128.673 Y88.698 E21.91803
G1 X128.894 Y87.42 E21.98258
G1 X129.262 Y86.166 E22.04762
G1 X129.769 Y84.965 E22.11249
G0 F2700 X129.408 Y84.795
;TYPE:WALL-OUTER
G1 F1200 X130.072 Y83.621 E22.17961
G1 X130.861 Y82.534 E22.24646
G1 X131.784 Y81.529 E22.31436
G1 X132.793 Y80.655 E22.3808
G1 X133.902 Y79.897 E22.44765
G1 X135.102 Y79.263 E22.51519
G1 X136.352 Y78.777 E22.58193
G1 X137.654 Y78.435 E22.64892
G1 X138.989 Y78.243 E22.71604
G1 X140.34 Y78.204 E22.7833
G1 X141.677 Y78.319 E22.85009
G1 X143.002 Y78.587 E22.91736
G1 X144.28 Y79.003 E22.98425
G1 X145.51 Y79.565 E23.05154
G1 X146.654 Y80.255 E23.11803
G1 X147.728 Y81.083 E23.18552
G1 X148.697 Y82.024 E23.25274
G1 X149.547 Y83.065 E23.31962
G1 X150.273 Y84.193 E23.38638
G1 X150.874 Y85.417 E23.45424
G1 X151.322 Y86.671 E23.5205
G1 X151.627 Y87.986 E23.58768
G1 X151.781 Y89.332 E23.6551
G1 X151.8 Y90.021 E23.68941
G1 X151.781 Y90.668 E23.72162
G1 X151.627 Y92.014 E23.78904
G1 X151.322 Y93.329 E23.85622
G1 X150.874 Y94.583 E23.92249
G1 X150.273 Y95.807 E23.99035
G1 X149.547 Y96.935 E24.0571
G1 X148.697 Y97.976 E24.12399
G1 X147.728 Y98.917 E24.19121
G1 X146.654 Y99.745 E24.25869
G1 X145.51 Y100.435 E24.32518
G1 X144.28 Y100.997 E24.39248
G1 X143.002 Y101.413 E24.45936
G1 X141.677 Y101.681 E24.52664
G1 X140.34 Y101.796 E24.59342
G1 X138.989 Y101.757 E24.66068
G1 X137.654 Y101.565 E24.7278
G1 X136.352 Y101.223 E24.79479
G1 X135.102 Y100.737 E24.86154
G1 X133.902 Y100.103 E24.92908
G1 X132.793 Y99.345 E24.99593
G1 X131.783 Y98.47 E25.06243
G1 X130.861 Y97.466 E25.13027
G1 X130.072 Y96.379 E25.19711
G1 X129.408 Y95.205 E25.26423
G1 X128.887 Y93.97 E25.33094
G1 X128.506 Y92.672 E25.39826
G1 X128.277 Y91.349 E25.46508
G1 X128.2 Y90 E25.53232
G1 X128.277 Y88.651 E25.59956
G1 X128.506 Y87.328 E25.66638
G1 X128.887 Y86.03 E25.7337
G1 X129.408 Y84.795 E25.80041
G0 F2700 X129.506 Y84.621
G0 X129.939 Y84.866
G0 X135.008 Y87.259
G0 X135.461 Y87.465
G1 F1200 X135.098 Y88.267 E25.84422
G1 X134.875 Y89.121 E25.88814
G1 X134.8 Y90 E25.93204
G1 X134.875 Y90.879 E25.97595
G1 X135.098 Y91.733 E26.01987
G1 X135.461 Y92.535 E26.06368
G1 X135.955 Y93.266 E26.10759
G1 X136.565 Y93.903 E26.15148
G1 X137.273 Y94.428 E26.19534
G1 X138.062 Y94.824 E26.23928
G1 X138.905 Y95.083 E26.28316
G1 X139.779 Y95.195 E26.32702
G1 X140.66 Y95.158 E26.3709
G1 X141.522 Y94.972 E26.41478
G1 X142.341 Y94.643 E26.45871
G1 X143.092 Y94.181 E26.50259
G1 X143.754 Y93.598 E26.54648
G1 X144.308 Y92.912 E26.59037
G1 X144.738 Y92.142 E26.63426
G1 X145.032 Y91.31 E26.67817
G1 X145.18 Y90.445 E26.72184
G1 X145.199 Y89.997 E26.74416
G1 X145.18 Y89.555 E26.76617
G1 X145.032 Y88.69 E26.80985
G1 X144.738 Y87.858 E26.85376
G1 X144.308 Y87.088 E26.89765
G1 X143.754 Y86.402 E26.94153
G1 X143.092 Y85.819 E26.98543
G1 X142.341 Y85.357 E27.02931
G1 X141.522 Y85.028 E27.07323
G1 X140.66 Y84.842 E27.11712
G1 X139.779 Y84.805 E27.161
G1 X138.905 Y84.917 E27.20485
G1 X138.062 Y85.176 E27.24874
G1 X137.273 Y85.572 E27.29267
G1 X136.565 Y86.097 E27.33654
G1 X135.955 Y86.734 E27.38043
G1 X135.461 Y87.465 E27.42433
G0 F2700 X135.379 Y87.647
G0 X134.925 Y87.441
G0 X134.442 Y89.047
G0 X132.486 Y97.762
G0 X133.906 Y98.921
;TYPE:SKIN
G1 F1200 X131.05 Y96.065 E27.62534
G1 X130.98 Y95.995
G0 F2700 X130.258 Y94.709
G1 F1200 X135.268 Y99.719 E27.97794
G1 X135.338 Y99.789
G0 F2700 X136.246 Y100.132
G1 F1200 X129.847 Y93.734 E28.42826
G1 X129.777 Y93.664
G0 F2700 X129.595 Y92.918
G1 F1200 X137.082 Y100.404 E28.95515
G1 X137.152 Y100.474
G0 F2700 X137.846 Y100.605
G1 F1200 X129.409 Y92.167 E29.54897
G1 X129.339 Y92.097
G0 F2700 X129.291 Y91.485
G1 F1200 X138.506 Y100.7 E30.19751
G1 X138.576 Y100.77
G0 F2700 X139.154 Y100.783
G1 F1200 X129.226 Y90.856 E30.8962
G1 X129.156 Y90.786
G0 F2700 X129.192 Y90.257
G1 F1200 X139.734 Y100.8 E31.63817
G1 X139.804 Y100.87
G0 F2700 X140.315 Y100.816
G1 F1200 X129.194 Y89.695 E32.42086
G1 X129.124 Y89.625
G0 F2700 X129.225 Y89.162
G1 F1200 X140.835 Y100.771 E33.23792
G1 X140.905 Y100.841
G0 F2700 X141.354 Y100.727
G1 F1200 X129.269 Y88.642 E34.08845
G1 X129.199 Y88.572
G0 F2700 X129.352 Y88.16
G1 F1200 X141.842 Y100.65 E34.96749
G1 X141.912 Y100.72
